vincnardelli/pairwise-h3/output/ConfigDigest-b361ad6d_run_20250516_180252/data/summary_stats_approxDGP_20250516_180252.csv
scenario_id,TOTAL_POINTS_TO_GENERATE_scenario,K_MAX_TAYLOR_DGP_scenario,H3_RESOLUTION_scenario,K_RING_SEPARATION_scenario,LAMBDA_TRUE_scenario,SIGMA_SQ_EPS_TRUE_scenario,K_NEIGHBORS_FOR_W_scenario,TARGET_Q_PAIRS_scenario,MIN_OBS_PER_H3_scenario,DATA_TYPE_scenario,MAX_ITERATIONS_H3_SELECT_scenario,N_SIMULATIONS_per_scenario,K_FOR_GM_WEIGHTS_scenario,RUN_GM_MODEL_scenario,N_Valid_Runs_PW,N_Converged_PW,Mean_Time_PW,Mean_Beta_Slope_Hat_PW,Median_Beta_Slope_Hat_PW,SD_Beta_Slope_Hat_PW,Bias_Beta_Slope_PW,MSE_Beta_Slope_PW,Mean_SigmaSq_Hat_PW,Median_SigmaSq_Hat_PW,SD_SigmaSq_Hat_PW,Bias_SigmaSq_PW,MSE_SigmaSq_PW,Mean_Psi_Hat_PW,Median_Psi_Hat_PW,SD_Psi_Hat_PW,Bias_Psi_PW,MSE_Psi_PW,Avg_Q_Pairs_Used_PW,Avg_H3_Selected_Count,ConvergenceRate_PW,Avg_Iterations_To_Converge_PW,N_Valid_Runs_GM,N_Converged_GM,Mean_Time_GM,Mean_Beta_Slope_Hat_GM,Median_Beta_Slope_Hat_GM,SD_Beta_Slope_Hat_GM,Bias_Beta_Slope_GM,MSE_Beta_Slope_GM,Mean_Lambda_Hat_GM,Median_Lambda_Hat_GM,SD_Lambda_Hat_GM,Bias_Lambda_GM,MSE_Lambda_GM,Mean_SigmaSq_Hat_GM,Median_SigmaSq_Hat_GM,SD_SigmaSq_Hat_GM,Bias_SigmaSq_GM,MSE_SigmaSq_GM,RE_Beta_Slope_PW_vs_GM,RE_SpatialCorr_PW_vs_GM,RE_SigmaSq_PW_vs_GM
1,5000,30,7,1,-0.3,0.1,4,250,2,uniform,400,100,4,TRUE,100,100,0.0011901092529296889,1.5037110751381524,1.502029874084914,0.015255706946072119,0.0037110751381523054,2.4418130716120104e-4,0.10458949615677411,0.104527765006865,0.006739402915607124,0.004589496156774099,6.602883111534912e-5,-0.1333311034624124,-0.13320621402465438,0.05617204454306436,0.1666688965375876,0.030902266675323607,250,250,1,4.95,100,100,0.016031818389892562,1.5012948166621172,1.5012948166621172,0,0.0012948166621171708,1.6765501884962517e-6,-0.3029605741223299,-0.3029605741223299,0,-0.0029605741223299176,8.764999133809561e-6,0.09993636440005962,0.09993636440005962,0,-6.363559994038148e-5,4.049489579772279e-9,0.006866005461218391,2.836361237154386e-4,6.132911201620425e-5
2,10000,30,7,1,-0.3,0.1,4,250,2,uniform,400,100,4,TRUE,100,100,2.838850021362305e-4,1.4986123410707297,1.4973564110221311,0.013962052528240333,-0.0013876589292702412,1.9491511899731213e-4,0.10452965782779296,0.10354809399891335,0.006497761873150507,0.004529657827792948,6.231650030345263e-5,-0.08512300398531752,-0.08245968534372054,0.06667592098555207,0.21487699601468246,0.05057334507117273,250,250,1,4.41,100,100,0.04198109149932851,1.4997233844936377,1.4997233844936377,0,-2.766155063622655e-4,7.651613836005255e-8,-0.2799995878470819,-0.2799995878470819,0,0.02000041215291809,4.000164862865936e-4,0.1007463985692694,0.1007463985692694,0,7.463985692693909e-4,5.571108242073937e-7,3.92561330048018e-4,0.007909630769403202,0.008940021045702516
3,25000,30,7,1,-0.3,0.1,4,250,2,uniform,400,100,4,TRUE,100,100,0.0013219618797302248,1.4991602458422275,1.4976451933088137,0.015129611249468935,-8.397541577725663e-4,2.2732127223995261e-4,0.10512175239587071,0.10481174270152219,0.007187328239189925,0.005121752395870705,7.737345795028566e-5,-0.037757020897072995,-0.040959988974105355,0.061189760088660096,0.262242979102927,0.07247812496108891,250,250,1,4.06,100,100,0.1906251406669616,1.4989800641525959,1.4989800641525959,0,-0.0010199358474041187,1.0402691328199576e-6,-0.31341406387874116,-0.31341406387874116,0,-0.013414063878741167,1.7993710974294853e-4,0.10044654798900483,0.10044654798900483,0,4.4654798900482795e-4,1.9940510648425595e-7,0.004576206716465517,0.002482640242687718,0.0025771771324008628
4,5000,30,7,1,0,0.1,4,250,2,uniform,400,100,4,TRUE,100,100,3.1632184982299805e-4,1.4966612017218661,1.498889443073987,0.01588846351022307,-0.0033387982781339877,2.610664139306035e-4,0.09834847423576902,0.09746867532111965,0.006421313777034524,-0.001651525764230992,4.354847526682081e-5,-0.004793177192199547,-0.0036922760234795347,0.06576974203528949,-0.004793177192199547,0.0043053769253104624,250,250,1,4.03,100,100,0.009603018760681157,1.4947969695502987,1.4947969695502987,0,-0.005203030449701274,2.707152586051864e-5,-0.031046863867106308,-0.031046863867106308,0,-0.031046863867106308,9.639077559826313e-4,0.09943868146552186,0.09943868146552186,0,-5.613185344781474e-4,3.1507849714869514e-7,0.10369593488848693,0.22388463837300923,0.007235121211895807
5,10000,30,7,1,0,0.1,4,250,2,uniform,400,100,4,TRUE,100,100,3.163647651672363e-4,1.5005794453025592,1.5008012443192578,0.01477125863497498,5.794453025591793e-4,2.1634393770336748e-4,0.09998164782339357,0.09989123872952377,0.006776857758567747,-1.8352176606437926e-5,4.546687987144748e-5,-0.017522940520361414,-0.020150232606377695,0.05533257924269317,-0.017522940520361414,0.0033381308268725547,250,250,1,4,100,100,0.03952923059463506,1.4980037251361409,1.4980037251361409,0,-0.0019962748638591155,3.98511333207573e-6,-0.019633686228761847,-0.019633686228761847,0,-0.019633686228761847,3.854816349294726e-4,0.09960653241702443,0.09960653241702443,0,-3.9346758297557904e-4,1.5481673885264417e-07,0.01842026808969235,0.11547828857583292,0.003405044271574632
6,25000,30,7,1,0,0.1,4,250,2,uniform,400,100,4,TRUE,100,100,2.856755256652832e-4,1.5009602751227544,1.500324008119824,0.013423898059876954,9.602751227543466e-4,1.793211570421294e-4,0.09984768516576606,0.0997576023060923,0.006966390990019066,-1.5231483423395337e-4,4.806849720028834e-5,-0.009468867015930202,-0.009018216069074471,0.05923160773080322,-0.009468867015930202,0.003562958963397363,250,250,1,3.96,100,100,0.20704127788543672,1.500343015788974,1.500343015788974,0,3.4301578897411034e-4,1.176598314855314e-7,0.003588523036715984,0.003588523036715984,0,0.003588523036715984,1.2877497585041308e-5,0.10130268166981127,0.10130268166981127,0,0.001302681669811262,1.6969795328622578e-6,6.561402649096704e-4,0.0036142705311324494,0.03530336148832376
7,5000,30,7,1,0.3,0.1,4,250,2,uniform,400,100,4,TRUE,100,100,3.0840873718261723e-4,1.4981390253147682,1.497975044931084,0.016516436121417087,-0.0018609746852318654,2.735279623103964e-4,0.10640780467366516,0.1053677110268763,0.008209815288779523,0.0064078046736651545,1.0778701714096422e-4,0.18533172797403044,0.17773033806820332,0.06474119771619517,-0.11466827202596956,0.017298321064331955,250,250,1,5.23,100,100,0.014128389358520541,1.4977438305385768,1.4977438305385768,0,-0.002256169461423152,5.090300638658436e-6,0.3199375224126254,0.3199375224126254,0,0.01993752241262542,3.975047999539409e-4,0.09994903269757018,0.09994903269757018,0,-5.0967302429830164e-5,2.5976659169737715e-9,0.018609799874434854,0.02297938617716899,2.409998890289853e-5
8,10000,30,7,1,0.3,0.1,4,250,2,uniform,400,100,4,TRUE,100,100,3.394675254821777e-4,1.497139164542392,1.4982312967074989,0.014493707984140803,-0.002860835457607994,2.161512749337585e-4,0.10479859438685993,0.10380020700246903,0.006459033761819434,0.0047985943868599145,6.432843405456357e-5,0.14093812058503735,0.14307657555594744,0.06118998945216153,-0.15906187941496264,0.029007454144084194,250,250,1,4.65,100,100,0.032497251033783016,1.498441624230912,1.498441624230912,0,-0.0015583757690880162,2.428535037680666e-6,0.28165701350287947,0.28165701350287947,0,-0.018342986497120517,3.364651536335456e-4,0.09969641603657432,0.09969641603657432,0,-3.035839634256826e-4,9.216322284924619e-8,0.011235349124935361,0.011599265208255603,0.0014326980627427223
9,25000,30,7,1,0.3,0.1,4,250,2,uniform,400,100,4,TRUE,100,100,3.7042856216430665e-4,1.5009612381498414,1.4999196394456442,0.014300467571092747,9.612381498413149e-4,2.0338231780506698e-4,0.1065204581117866,0.10586940270162808,0.0074142068479816315,0.006520458111786603,9.693713254037483e-5,0.0933892213867421,0.08821009702357047,0.06178728612723053,-0.20661077861325788,0.04646750587887523,250,250,1,4.22,100,100,0.17549263000488305,1.5002530097902338,1.5002530097902338,0,2.5300979023379355e-4,6.401395395414821e-8,0.3114172217137324,0.3114172217137324,0,0.011417221713732384,1.3035295166052222e-4,0.09949548013236482,0.09949548013236482,0,-5.045198676351809e-4,2.5454029683862044e-7,3.1474689955841086e-4,0.002805249586674771,0.002625828618693699
10,5000,30,7,1,0.9,0.1,4,250,2,uniform,400,100,4,TRUE,100,0,0.001990108489990235,1.4925751127167914,1.4935664911119129,0.025709451059609836,-0.0074248872832086334,7.094950662169619e-4,48.0672325153034,55.11452269451683,20.397254360560957,47.96723251530341,2712.742900772109,0.10558839617157532,0.013144865257580202,0.23957226492639125,-0.7944116038284247,0.6879107177179914,250,250,0,NA,100,100,0.010470108985900893,1.50018871733856,1.50018871733856,0,1.8871733855996276e-4,3.5614233873155604e-8,0.9243166454391837,0.9243166454391837,0,0.02431664543918366,5.912992454149714e-4,0.105596040422,0.105596040422,0,0.005596040422000001,3.131566840465795e-5,5.019659130690115e-5,8.595581231478562e-4,1.1543913135205255e-8
11,10000,30,7,1,0.9,0.1,4,250,2,uniform,400,100,4,TRUE,100,0,0.0017288637161254883,1.5057165339055913,1.5034173437768394,0.02535052644374561,0.005716533905591292,6.689014589590695e-4,4.660267065740233,1.4229563649969357,13.508117652454777,4.560267065740233,201.44058579830977,0.4506197328042726,0.43051782529048666,0.23131191488371203,-0.4493802671957274,0.2549127744924013,250,250,0,NA,100,100,0.028837130069732674,1.5042703071652743,1.5042703071652743,0,0.004270307165274323,1.8235523285793224e-5,0.9244352328104094,0.9244352328104094,0,0.02443523281040938,5.97080602498907e-4,0.10488730096410841,0.10488730096410841,0,0.004887300964108401,2.388571071377491e-5,0.027261897909702522,0.00234229376573164,1.1857447008067292e-7
12,25000,30,7,1,0.9,0.1,4,250,2,uniform,400,100,4,TRUE,100,94,6.447076797485351e-4,1.507242357007223,1.5071716837673164,0.029559646015862757,0.007242357007223122,9.174866808773538e-4,0.7621481734025951,0.741932127291358,0.11013155216194215,0.6621481734025951,0.45044787273417586,0.5943312105995271,0.600934022969811,0.056157164234288154,-0.30566878940047293,0.09655549963743912,250,250,0.94,28.159574468085108,100,100,0.13968284845352202,1.5051597349127117,1.5051597349127117,0,0.005159734912711711,2.6622864369456128e-5,0.9178154010301015,0.9178154010301015,0,0.017815401030101485,3.173885138633411e-4,0.1062858952956667,0.1062858952956667,0,0.006285895295666699,3.9512479668084736e-5,0.02901716714186827,0.0032871096421759347,8.771820683322964e-5
13,5000,30,7,1,-0.3,0.1,4,250,2,clustered,400,100,4,TRUE,100,100,2.2374629974365246e-4,1.493690425352094,1.495535560556157,0.015246914681716572,-0.006309574647906036,2.699544554759275e-4,0.1091357221151005,0.10964302005159758,0.007080906164943458,0.00913572211510049,1.330992583599031e-4,-0.06522224584859923,-0.0739484369515239,0.06194498689339563,0.23477775415140076,0.0589194034315863,250,250,1,4.31,100,100,0.009552400112152111,1.5034602247874913,1.5034602247874913,0,0.003460224787491306,1.1973155579969255e-5,-0.30884856425002505,-0.30884856425002505,0,-0.00884856425002506,7.829708928682155e-5,0.09939042632628474,0.09939042632628474,0,-6.095736737152663e-4,3.715800636867259e-7,0.04435250219841965,0.001328884624192359,0.002791751571462298
14,10000,30,7,1,-0.3,0.1,4,250,2,clustered,400,100,4,TRUE,100,100,1.7800092697143555e-4,1.4937193428166702,1.4950289039648292,0.012633360004843825,-0.006280657183329896,1.9745242181638107e-4,0.10233487236555612,0.10212680078702391,0.006563091555146696,0.0023348723655561157,4.809505801706311e-5,-0.06688143534353735,-0.06193576843433403,0.07087190447985028,0.23311856465646263,0.05931686376364437,250,250,1,4.34,100,100,0.02577982902526855,1.4951460195182302,1.4951460195182302,0,-0.004853980481769771,2.3561126517401895e-5,-0.2737721069650029,-0.2737721069650029,0,0.026227893034997063,6.879023730552474e-4,0.1005706323427768,0.1005706323427768,0,5.706323427767945e-4,3.2562127062293315e-7,0.11932558892244094,0.011597079302713684,0.00677036860018777
15,25000,30,7,1,-0.3,0.1,4,250,2,clustered,400,100,4,TRUE,100,100,1.7693758010864258e-4,1.5029139204067123,1.5021764781796187,0.01346321573124391,0.002913920406712355,1.8793652818440795e-4,0.10542102609817586,0.1064242905027999,0.007042921561821554,0.005421026098175852,7.849424064181494e-5,-0.06679879608876961,-0.06068693015243807,0.06118549873788236,0.2332012039112304,0.058089030108892624,250,250,1,4.34,100,100,0.13953145027160638,1.5020508526164547,1.5020508526164547,0,0.002050852616454657,4.205996454418912e-6,-0.31258034850598526,-0.31258034850598526,0,-0.012580348505985273,1.582651685320459e-4,0.10074782008101658,0.10074782008101658,0,7.478200810165786e-4,5.592348735716422e-7,0.02237987737164052,0.002724527647222977,0.007124533838393873
16,5000,30,7,1,0,0.1,4,250,2,clustered,400,100,4,TRUE,100,100,1.7603158950805665e-4,1.5095453111102237,1.507273465891478,0.018333594974433737,0.009545311110223793,4.238724618306781e-4,0.10372190628240777,0.10200338339767324,0.007982350530276707,0.0037219062824077557,7.693332716335305e-5,-0.009153382783827563,-0.011648511566348826,0.061207764452074716,-0.009153382783827563,0.0037927109413157245,250,250,1,4.09,100,100,0.007823388576507578,1.5051721201622545,1.5051721201622545,0,0.005172120162254545,2.6750826972799985e-5,-0.025790108362004044,-0.025790108362004044,0,-0.025790108362004044,6.651296893239109e-4,0.0999421131298294,0.0999421131298294,0,-5.788687017060923e-5,3.3508897381489686e-9,0.06311055655105517,0.1753705198248437,4.3555762654512546e-5
17,10000,30,7,1,0,0.1,4,250,2,clustered,400,100,4,TRUE,100,100,2.492880821228027e-4,1.4993113770480109,1.4997385389074966,0.019190755953493215,-6.886229519892294e-4,3.650764644958764e-4,0.10365237819509382,0.10225506473117851,0.010437572968105222,0.0036523781950938135,1.2119336664987236e-4,-0.023692943846567057,-0.01533211474983323,0.08777546154811319,-0.023692943846567057,0.008188841921601037,250,250,1,4.26,100,100,0.026820189952850366,1.5026122542482003,1.5026122542482003,0,0.0026122542482003297,6.82387225724067e-6,0.021891942812388838,0.021891942812388838,0,0.021891942812388838,4.792571601009033e-4,0.0998172719390876,0.0998172719390876,0,-1.8272806091240712e-4,3.338954424480837e-8,0.018691624689264913,0.058525633378840654,2.7550636778059614e-4
18,25000,30,7,1,0,0.1,4,250,2,clustered,400,100,4,TRUE,100,100,3.3740043640136715e-4,1.4980817568730185,1.4982815090917532,0.01516027549958158,-0.0019182431269815696,2.3121527038519327e-4,0.10047612156139106,0.10044301741029676,0.0071367147286338604,4.7612156139105255e-4,5.0650061887941946e-05,-0.01501021324572577,-0.021062967447172343,0.05595403527717535,-0.01501021324572577,0.0033248520248435514,250,250,1,4.16,100,100,0.19037873983383152,1.5029360562944976,1.5029360562944976,0,0.0029360562944975577,8.620426564458728e-6,-0.012837170277390406,-0.012837170277390406,0,-0.012837170277390406,1.6479294073071566e-4,0.10111609056285657,0.10111609056285657,0,0.001116090562856567,1.2456581444974887e-6,0.037283119536601204,0.04956399247225743,0.024593418015033806
19,5000,30,7,1,0.3,0.1,4,250,2,clustered,400,100,4,TRUE,100,100,1.9404411315917966e-4,1.5006417457545076,1.5007268702212133,0.01760680550755854,6.417457545076458e-4,3.073114417926124e-4,0.10038670882709856,0.09976031424401026,0.008112492918488598,3.8670882709855207e-4,6.530395965595832e-5,0.08679152957054405,0.08716828798164253,0.07055847591620602,-0.21320847042945595,0.05038656540124983,250,250,1,4.16,100,100,0.009344069957733136,1.499437735449478,1.499437735449478,0,-5.622645505221069e-4,3.161414247738269e-7,0.2974701018535595,0.2974701018535595,0,-0.0025298981464405013,6.400384631363084e-6,0.10178805632453901,0.10178805632453901,0,0.001788056324539003,3.1971454197239285e-6,0.0010287330108169983,1.2702561844400538e-4,0.04895791061625498
20,10000,30,7,1,0.3,0.1,4,250,2,clustered,400,100,4,TRUE,100,100,2.0191907882690432e-4,1.5035484116329576,1.504405151508291,0.015123297277223752,0.0035484116329576073,2.390182044468394e-4,0.10983954450143464,0.10844600317754138,0.007555783193100085,0.00983954450143463,1.5333559706023488e-4,0.095627470526075245,0.09546924566266005,0.056945337157182536,-0.20437252947392473,0.044978474513275975,250,250,1,4.12,100,100,0.02896564006805423,1.497140282967166,1.497140282967166,0,-0.0028597170328339416,8.177981507880564e-6,0.2889547352754645,0.2889547352754645,0,-0.011045264724535486,1.2199787283506797e-4,0.10393296040538119,0.10393296040538119,0,0.003932960405381186,1.5468177550296143e-5,0.03421488972694316,0.0027123612829300986,0.10087792950139146
21,25000,30,7,1,0.3,0.1,4,250,2,clustered,400,100,4,TRUE,100,100,1.933574676513672e-4,1.5057743179028822,1.5069551865487132,0.017357974164679223,0.005774317902882242,3.316290216742009e-4,0.11024368787449013,0.11017431217185536,0.007729615051834724,0.010243687874490114,1.6408262063103023e-4,0.08759901174046489,0.08825686462459906,0.06314775972897312,-0.2124009882595351,0.04906194297682741,250,250,1,4.21,100,100,0.20369778871536215,1.500292820797172,1.500292820797172,0,2.928207971719665e-4,8.574401925642596e-8,0.3019448207554379,0.3019448207554379,0,0.0019448207554378927,3.7823277707820155e-6,0.1008960824184073,0.1008960824184073,0,8.960824184073013e-4,8.029637005786778e-7,2.5855402770105757e-4,7.709290625869542e-5,0.0048936547788585635
22,5000,30,7,1,0.9,0.1,4,250,2,clustered,400,100,4,TRUE,100,2,0.0018900990486145019,1.507518987167858,1.5117502860078804,0.027289158056550505,0.007518987167857936,7.937863339914537e-4,4.3414836653376705,1.6220146415797527,13.860749601384798,4.241483665337671,208.1893594004922,0.4617463374081685,0.4639324547004545,0.20262299239792872,-0.4382536625918315,0.23271178905296308,250,250,0.02,51,100,100,0.009379401206970202,1.5019813737778367,1.5019813737778367,0,0.0019813737778366924,3.925842047498847e-6,0.9233373981725504,0.9233373981725504,0,0.023337398172550428,5.4463415346416e-4,0.10773741301278808,0.10773741301278808,0,0.007737413012788075,5.986756013046223e-5,0.00494571634630978,0.002340380586993838,2.8756301620245384e-7
23,10000,30,7,1,0.9,0.1,4,250,2,clustered,400,100,4,TRUE,100,39,0.0015930962562561036,1.494286381929409,1.49367281495164,0.02776044565273163,-0.005713618070591068,7.955813508664688e-4,1.0422378366927774,0.8928919933047907,0.39306876563373316,0.9422378366927774,1.0407701648671435,0.6007582683677468,0.6359037005289512,0.10177729072840261,-0.2992417316322532,0.09980064468920309,250,250,0.39,43.92307692307692,100,100,0.03224133014678957,1.4994410084080532,1.4994410084080532,0,-5.589915919468336e-4,3.124715998672553e-7,0.9179564127974311,0.9179564127974311,0,0.0179564127974311,3.2243276055174733e-4,0.10650787955151152,0.10650787955151152,0,0.006507879551511511,4.2352496256981665e-5,3.9275882915925823e-4,0.0032307683137304385,4.069341886101054e-5
24,25000,30,7,1,0.9,0.1,4,250,2,clustered,400,100,4,TRUE,100,92,9.032630920410157e-4,1.5027012077825672,1.5009954734772442,0.030362121781308826,0.002701207782567288,9.199363781570004e-4,0.8235235681545299,0.8180624082123078,0.07090988808327095,0.7235235681545299,0.5284642837807649,0.6243859619619634,0.6261692476333589,0.04613582468966716,-0.2756140380380367,0.07807032714023007,250,250,0.92,36.44565217391305,100,100,0.16809546947479248,1.503215371030412,1.503215371030412,0,0.0032153710304119176,1.0338610863212197e-5,0.916842248804633,0.916842248804633,0,0.01684224880463303,2.8366134479716277e-4,0.1053155326736074,0.1053155326736074,0,0.00531553267360739,2.8254887604187728e-5,0.011238397685636217,0.0036334079180640514,5.346603066917831e-5
