vincnardelli/pairwise-h3/output/ConfigDigest-dd11e19a_run_20250515_151548/data/summary_stats_approxDGP_20250515_151548.csv
scenario_id,TOTAL_POINTS_TO_GENERATE_scenario,K_MAX_TAYLOR_DGP_scenario,H3_RESOLUTION_scenario,K_RING_SEPARATION_scenario,LAMBDA_TRUE_scenario,SIGMA_SQ_EPS_TRUE_scenario,K_NEIGHBORS_FOR_W_scenario,TARGET_Q_PAIRS_scenario,MIN_OBS_PER_H3_scenario,DATA_TYPE_scenario,MAX_ITERATIONS_H3_SELECT_scenario,N_SIMULATIONS_per_scenario,K_FOR_GM_WEIGHTS_scenario,RUN_GM_MODEL_scenario,N_Valid_Runs_PW,N_Converged_PW,Mean_Time_PW,Mean_Beta_Slope_Hat_PW,Median_Beta_Slope_Hat_PW,SD_Beta_Slope_Hat_PW,Bias_Beta_Slope_PW,MSE_Beta_Slope_PW,Mean_SigmaSq_Hat_PW,Median_SigmaSq_Hat_PW,SD_SigmaSq_Hat_PW,Bias_SigmaSq_PW,MSE_SigmaSq_PW,Mean_Psi_Hat_PW,Median_Psi_Hat_PW,SD_Psi_Hat_PW,Bias_Psi_PW,MSE_Psi_PW,Avg_Q_Pairs_Used_PW,Avg_H3_Selected_Count,ConvergenceRate_PW,Avg_Iterations_To_Converge_PW,N_Valid_Runs_GM,N_Converged_GM,Mean_Time_GM,Mean_Beta_Slope_Hat_GM,Median_Beta_Slope_Hat_GM,SD_Beta_Slope_Hat_GM,Bias_Beta_Slope_GM,MSE_Beta_Slope_GM,Mean_Lambda_Hat_GM,Median_Lambda_Hat_GM,SD_Lambda_Hat_GM,Bias_Lambda_GM,MSE_Lambda_GM,Mean_SigmaSq_Hat_GM,Median_SigmaSq_Hat_GM,SD_SigmaSq_Hat_GM,Bias_SigmaSq_GM,MSE_SigmaSq_GM,RE_Beta_Slope_PW_vs_GM,RE_SpatialCorr_PW_vs_GM,RE_SigmaSq_PW_vs_GM
1,5000,30,6,1,-0.3,1,4,250,2,uniform,200,100,4,TRUE,100,100,6.34241104125976e-4,1.5032160042620397,1.506258733302388,0.06076298146069515,0.0032160042620397386,0.0036655612002463103,1.0665307460192395,1.0683576583224144,0.0865979369278265,0.06653074601923947,0.01185055081923081,-0.052243216747780756,-0.06156430997949331,0.078501082012419,0.24775678325221923,0.06748421932583647,200,200,1,4.68,100,100,0.009896819591522213,1.504094569804843,1.504094569804843,0,0.004094569804842907,1.676550188673128e-5,-0.30296057416479233,-0.30296057416479233,0,-0.00296057416479234,8.764999385235862e-6,0.9993636439958653,0.9993636439958653,0,-6.363560041346972e-4,4.049489639982787e-7,0.004573788560836117,1.2988220761531673e-4,3.4171319981273495e-5
2,10000,30,6,1,-0.3,1,4,250,2,uniform,200,100,4,TRUE,100,100,2.0653009414672852e-4,1.479345003750674,1.4847667908917215,0.05650587797292325,-0.020654996249326138,0.0035876139730956595,1.0507537256729156,1.0563500520506042,0.08184663155454962,0.05075372567291562,0.009207823055539507,-0.03577094934133853,-0.029350938009974833,0.07344621724698279,0.2642290506586615,0.07515739457158957,200,200,1,4.57,100,100,0.030007610321044986,1.4991252649628535,1.4991252649628535,0,-8.747350371465235e-4,7.651613852117298e-7,-0.2799995879719082,-0.2799995879719082,0,0.020000412028091774,4.000164812934381e-4,1.0074639856796948,1.0074639856796948,0,0.007463985679694751,5.571108222668832e-5,2.1327862778711717e-4,0.005322383560175319,0.006050407560033643
3,25000,30,6,1,-0.3,1,4,250,2,uniform,200,100,4,TRUE,100,100,1.9274234771728515e-4,1.5056338475923219,1.5020541078104963,0.05476720510652683,0.005633847592321803,0.0030011925263220855,1.0363329479735535,1.0334881855456022,0.07538356674440068,0.0363329479735535,0.006945938422205382,-0.0201885310332432,-0.028677918772563753,0.07685324752141741,0.2798114689667568,0.08414181560337666,200,200,1,4.53,100,100,0.14792085886001613,1.4967746796548875,1.4967746796548875,0,-0.00322532034511247,1.0402691328596423e-5,-0.31341406401293986,-0.31341406401293986,0,-0.013414064012939875,1.7993711334324863e-4,1.004465479874782,1.004465479874782,0,0.0044654798747820745,1.9940510512083733e-5,0.0034661859368764853,0.0021384981064757015,0.002870815907082644
4,5000,30,7,1,-0.3,1,4,250,2,uniform,200,100,4,TRUE,100,100,1.961398124694824e-4,1.4887036167542382,1.4887103702266409,0.05672653924226858,-0.011296383245761857,0.003313329526295719,1.032801186103727,1.0277428069159336,0.06978264545989489,0.03280118610372702,0.005896839241118907,-0.1083596752841089,-0.10853286439677426,0.07614863057205892,0.19164032471589107,0.04246664185583208,200,200,1,5.21,100,100,0.00905618906021117,1.4783032717573967,1.4783032717573967,0,-0.02169672824260327,4.7074801643337837e-4,-0.3284167622414618,-0.3284167622414618,0,-0.028416762241461835,8.07512376287771e-4,0.9937564865693767,0.9937564865693767,0,-0.006243513430623349,3.8981459958374134e-5,0.1420770293740362,0.019015216202617462,0.006610568537557338
5,10000,30,7,1,-0.3,1,4,250,2,uniform,200,100,4,TRUE,100,100,2.0736217498779297e-4,1.5014799708854736,1.501768762171647,0.04977046773888251,0.001479970885473497,0.002454518778179523,1.052254986533445,1.0515222879437536,0.0821177864848925,0.05225498653344486,0.009406481166217113,-0.11091047096479181,-0.11273809642460755,0.0691487052038034,0.18908952903520818,0.04048857798780572,200,200,1,5.25,100,100,0.028200578689575168,1.4934235435794123,1.4934235435794123,0,-0.006576456420587684,4.324977905188898e-5,-0.31767105521864614,-0.31767105521864614,0,-0.017671055218646148,3.122661925404413e-4,0.9950597448738902,0.9950597448738902,0,-0.004940255126109849,2.4406120711054643e-5,0.017620471856388337,0.007712451463088901,0.0025946068758111117
6,25000,30,7,1,-0.3,1,4,250,2,uniform,200,100,4,TRUE,100,100,1.9586801528930663e-4,1.498507212462451,1.4954852067898923,0.04823188080823758,-0.0014927875375489576,0.002305279597669298,1.0569637687330966,1.0467031774569788,0.07208033708599182,0.05696376873309653,0.00838849019276361,-0.04955604528354613,-0.0568280552875398,0.0674042266720519,0.25044395471645386,0.06722007092954198,200,200,1,4.69,100,100,0.148120138645172,1.5007895302448022,1.5007895302448022,0,7.895302448022168e-4,6.233580074574484e-7,-0.29294946358127927,-0.29294946358127927,0,0.007050536418720721,4.971006379170721e-5,1.0155026860135705,1.0155026860135705,0,0.015502686013570521,2.4033327363535506e-4,2.704045132259361e-4,7.395122186617711e-4,0.028650361163046985
7,5000,30,6,1,0,1,4,250,2,uniform,200,100,4,TRUE,100,100,1.9854307174682617e-4,1.4975846878459937,1.4917147816863479,0.04752192883812511,-0.002415312154006329,0.002241584116092159,0.9721102272872537,0.9668106559259145,0.06885578499790838,-0.027889772712746272,0.00547154735837005,-0.0020335250498489245,0.005755792954490414,0.06720907400906624,-0.0020335250498489245,0.004476024256992942,200,200,1,4.37,100,100,0.00896471977233889,1.4909131188329452,1.4909131188329452,0,-0.009086881167054806,8.25714093441753e-5,0.019818771370532305,0.019818771370532305,0,0.019818771370532305,3.9278369863743096e-4,0.9979774327501826,0.9979774327501826,0,-0.0020225672498174196,4.090778280034001e-6,0.03683618595947462,0.0877528083150534,7.476455949478659e-4
8,10000,30,6,1,0,1,4,250,2,uniform,200,100,4,TRUE,100,100,2.3471832275390628e-4,1.484511958892342,1.4799351348488514,0.0507128576274485,-0.015488041107657873,0.0027859554068069433,0.9622538537223906,0.9636973182577945,0.0778730332742319,-0.03774614627760945,0.0074283387770270205,-0.006885296389969844,-0.006763741036135451,0.07877735828056419,-0.006885296389969844,0.006191220762265464,200,200,1,4.56,100,100,0.030731430053710873,1.4925300251689064,1.4925300251689064,0,-0.007469974831093573,5.580052397717146e-5,-0.022147292161365337,-0.022147292161365337,0,-0.022147292161365337,4.905025500808745e-4,0.9923971742174436,0.9923971742174436,0,-0.007602825782556444,5.7802959879905005e-5,0.0200292236698526,0.07922549831697359,0.0077814113780953565
9,25000,30,6,1,0,1,4,250,2,uniform,200,100,4,TRUE,100,100,1.9654035568237305e-4,1.492812319813173,1.4977968664638948,0.05194916437708892,-0.0071876801868268805,0.00272339126915113,0.9919479294274509,0.9934336631404105,0.06266787707003993,-0.008052070572549095,0.003952826028806292,0.0033306249026362413,0.011707715800175933,0.07338631217109638,0.0033306249026362413,0.0053427883681749335,200,200,1,4.42,100,100,0.16087795019149762,1.499579908548692,1.499579908548692,0,-4.200914513079468e-4,1.7647682746201701e-7,0.009585972560852835,0.009585972560852835,0,0.009585972560852835,9.189086993742345e-5,0.9932535062567651,0.9932535062567651,0,-0.006746493743234883,4.551517782750742e-5,6.480039407522376e-5,0.017199047314841117,0.01151459171130091
10,5000,30,7,1,0,1,4,250,2,uniform,200,100,4,TRUE,100,100,1.872682571411133e-4,1.4962412736189916,1.4915413722942006,0.04936126146096351,-0.0037587263810083434,0.0024262968156947133,0.9947592552072422,0.989614064435897,0.07219440120613664,-0.0052407447927577885,0.005187376655840316,-0.010200374239779835,-0.01276441310726427,0.07502738036847595,-0.010200374239779835,0.005676864361537974,200,200,1,4.48,100,100,0.00910920858383178,1.4907655457100628,1.4907655457100628,0,-0.009234454289937188,8.527514603293935e-5,-0.0028268081682548928,-0.0028268081682548928,0,-0.0028268081682548928,7.990844420112582e-6,0.996842655811801,0.996842655811801,0,-0.0031573441881990183,9.968822322754117e-6,0.0351462135552953,0.001407615879331615,0.0019217463824475734
11,10000,30,7,1,0,1,4,250,2,uniform,200,100,4,TRUE,100,100,1.8709182739257813e-4,1.5193213474911837,1.5209694373168046,0.0502672524094127,0.019321347491183787,0.002874843167018764,1.0111880965352111,1.012361800293041,0.06440697326164699,0.011188096535211156,0.004231949126760449,-0.008673425250724605,-0.013138101319858875,0.06119101732105037,-0.008673425250724605,0.003782125500357145,200,200,1,4.35,100,100,0.028817851543426497,1.5114614395599355,1.5114614395599355,0,0.011461439559935505,1.3136459678605457e-4,0.032740634329608644,0.032740634329608644,0,0.032740634329608644,0.001071949136305148,1.0031210068682839,1.0031210068682839,0,0.003121006868283871,9.740683871875095e-6,0.04569452632864169,0.2834250572076268,0.0023017015517224743
12,25000,30,7,1,0,1,4,250,2,uniform,200,100,4,TRUE,100,100,2.010679244995117e-4,1.5294526614534396,1.5315391812870969,0.04746943394828604,0.02945266145343964,0.003098272954467913,0.9916872990097872,0.9898309118957467,0.06120893767484961,-0.008312700990212715,0.0037781697085234704,-0.01002441832184761,-0.014474976550315651,0.06709286169000664,-0.01002441832184761,0.00455692653154821,200,200,1,4.38,100,100,0.15078634023666382,1.52078402944606,1.52078402944606,0,0.02078402944605995,4.31975880014687e-4,-0.0152023211969317,-0.0152023211969317,0,-0.0152023211969317,2.3111056977467886e-4,0.9952330612292573,0.9952330612292573,0,-0.004766938770742746,2.272370524401036e-5,0.1394247331861931,0.050716325614352034,0.006014474467027292
13,5000,30,6,1,0.3,1,4,250,2,uniform,200,100,4,TRUE,100,100,1.9646167755126953e-4,1.5091955641294865,1.5083589447785677,0.04747773000221747,0.00919556412948661,0.0023161518973613265,1.1342291961689914,1.1254373560954458,0.08934491968608739,0.1342291961689914,0.025920166631149842,0.06778195947007486,0.06865199653346764,0.05843017085933162,-0.23221804052992512,0.05730516236554213,200,200,1,4.48,100,100,0.008967239856719959,1.499563995805946,1.499563995805946,0,-4.3600419405409596e-4,1.9009965723276176e-7,0.3318358382195331,0.3318358382195331,0,0.03183583821953312,0.0010135205951402858,1.0155597055405332,1.0155597055405332,0,0.015559705540533209,2.4210443650809983e-4,8.20756434192993e-5,0.017686375071676273,0.00934038889306939
14,10000,30,6,1,0.3,1,4,250,2,uniform,200,100,4,TRUE,100,100,2.63683795928955e-4,1.476226725430589,1.4769346153995886,0.05533519835245547,-0.023773274569410932,0.003596532918691136,1.0971411089808163,1.097780053232392,0.07977326052149945,0.09714110898081618,0.01573653041731152,0.02188065624568664,0.022060696666569152,0.07358361479898079,-0.27811934375431335,0.08271077225354585,200,200,1,4.39,100,100,0.028649690151214643,1.486200449598554,1.486200449598554,0,-0.013799550401446092,1.90427591282051e-4,0.31589351844976915,0.31589351844976915,0,0.015893518449769162,2.526039287131527e-4,1.0051755881370583,1.0051755881370583,0,0.005175588137058318,2.678671256445879e-5,0.05294754575786064,0.0030540632354248568,0.0017021993955536178
15,25000,30,6,1,0.3,1,4,250,2,uniform,200,100,4,TRUE,100,100,1.8557310104370118e-4,1.5002548191693788,1.5000460046804336,0.05444436986529143,2.5481916937871124e-4,0.002934612448737449,1.06770912554991,1.079758971013197,0.0752250788730753,0.06770912554990996,0.010186750049279263,0.007383077796160601,0.01162275172344085,0.0671435646525945,-0.2926169222038394,0.09008783885156237,200,200,1,4.45,100,100,0.14901865005493134,1.4951877575060248,1.4951877575060248,0,-0.004812242493975161,2.3157677820820273e-5,0.29870327682290226,0.29870327682290226,0,-0.001296723177097725,1.6814909980224179e-6,1.0114792576878306,1.0114792576878306,0,0.011479257687830646,1.31773357063619e-4,0.007891221830938305,1.866501649343602e-5,0.01293576031866437
16,5000,30,7,1,0.3,1,4,250,2,uniform,200,100,4,TRUE,100,100,2.0760059356689453e-4,1.4920254111048104,1.4907707958926508,0.05220629494370555,-0.00797458889518957,0.0027618363274789664,1.0872004854090525,1.0852400357779546,0.08101871916632043,0.08720048540905255,0.014102317182371977,0.17477845114956414,0.17534584895555444,0.0780520108001514,-0.12522154885043585,0.021711631522549575,200,200,1,5.59,100,100,0.008726251125335708,1.4984403202250673,1.4984403202250673,0,-0.001559679774932654,2.4326010003339745e-6,0.284671494427721,0.284671494427721,0,-0.015328505572278994,2.3496308307938818e-4,1.0069193931371188,1.0069193931371188,0,0.006919393137118757,4.787800138600615e-5,8.8079115193422e-4,0.010821991098888947,0.0033950449962828863
17,10000,30,7,1,0.3,1,4,250,2,uniform,200,100,4,TRUE,100,100,2.2301435470581057e-4,1.5020714082235525,1.4995779197385275,0.04639193228715768,0.0020714082235524438,0.002134979999551461,1.0783032931324732,1.0784095472885027,0.07708480826967426,0.07830329313247318,0.012014052704702738,0.1433990799624203,0.14484143195764548,0.06377263319244683,-0.1566009200375797,0.02855012741347182,200,200,1,5.12,100,100,0.030954599380493164,1.5034127192703588,1.5034127192703588,0,0.0034127192703587994,1.1646652818278296e-5,0.3025236374414928,0.3025236374414928,0,0.0025236374414928098,6.368745936104375e-6,1.0048338890595514,1.0048338890595514,0,0.0048338890595513995,2.3366483440050713e-5,0.005455157809780489,2.2307241729153138e-4,0.0019449293268793653
18,25000,30,7,1,0.3,1,4,250,2,uniform,200,100,4,TRUE,100,100,1.9519567489624024e-4,1.483185675484374,1.4837763234334491,0.05400764255467336,-0.016814324515625995,0.0031703787086870107,1.0880321039399845,1.0707807490441388,0.07708313846156256,0.08803210393998456,0.013632043456833822,0.08938243299139942,0.0996732256850377,0.06882454700278084,-0.21061756700860057,0.04904920962005896,200,200,1,4.7,100,100,0.1537138199806212,1.482837404098712,1.482837404098712,0,-0.01716259590128799,2.945546980709074e-4,0.29791586519494434,0.29791586519494434,0,-0.0020841348050556485,4.343617885644346e-6,1.0107632614933608,1.0107632614933608,0,0.01076326149336082,1.158477979744638e-4,0.0929083636802794,8.855632780406717e-5,0.008498197525653325
19,5000,30,6,1,0.9,1,4,250,2,uniform,200,100,4,TRUE,100,99,6.892347335815429e-4,1.4917487815587953,1.4859585939975777,0.13406294422607803,-0.008251218441204751,0.017861226890183334,8.438459221057082,8.423257394953325,0.9767348851391089,7.438459221057083,56.275146508818366,0.551851733868321,0.5554000533081581,0.08228560642665197,-0.348148266131679,0.12791042702524621,200,200,0.99,31.484848484848484,100,100,0.009628901481628411,1.4979783767964303,1.4979783767964303,0,-0.002021623203569689,4.0869603772113726e-6,0.9185087858045193,0.9185087858045193,0,0.018508785804519312,3.425751519575756e-4,1.0490103043591694,1.0490103043591694,0,0.04901030435916942,0.002402009933378421,2.2881744923455383e-4,0.0026782425790038223,4.268331727936104e-5
20,10000,30,6,1,0.9,1,4,250,2,uniform,200,100,4,TRUE,100,100,2.831745147705078e-4,1.474314776127039,1.4787091775928571,0.13426634271708673,-0.025685223872960974,0.01850690700416009,7.833413602358876,7.857682912265074,0.7112694100236523,6.833413602358876,47.196386592802355,0.37938885469063793,0.37911964818615784,0.074665877146554,-0.5206111453093621,0.2765552078982894,200,200,1,10.59,100,100,0.028115878105163628,1.5002535561529367,1.5002535561529367,0,2.5355615293665146e-4,6.429072269203459e-8,0.9183767777483831,0.9183767777483831,0,0.01837677774838309,3.377059604134678e-4,1.051508239284154,1.051508239284154,0,0.051508239284153934,0.0026530987141536585,3.473877222032993e-6,0.0012211158957370575,5.62140219979948e-5
21,25000,30,6,1,0.9,1,4,250,2,uniform,200,100,4,TRUE,100,100,2.291393280029297e-4,1.5364756381454705,1.5355256671201163,0.13727722314265833,0.036475638145470474,0.019987057811940916,8.250136637766085,8.139438099360842,0.8685616845629464,7.250136637766085,53.31133667217002,0.2233104671327947,0.23199247980197207,0.08465598090208942,-0.6766895328672053,0.4650036926435065,200,200,1,6.88,100,100,0.14355207920074445,1.5019688222527898,1.5019688222527898,0,0.001968822252789826,3.876261063080405e-6,0.9219199788905982,0.9219199788905982,0,0.021919978890598157,4.804854745642688e-4,1.0643222494002318,1.0643222494002318,0,0.06432224940023179,0.0041373517679056185,1.9393855261501275e-4,0.0010332938902759023,7.760735382321467e-5
22,5000,30,7,1,0.9,1,4,250,2,uniform,200,100,4,TRUE,100,0,0.005871820449829102,1.4988601579965428,1.50444307814079,0.08221433177169929,-0.0011398420034571047,0.006692903624973218,83.77584648687774,8.563235448702304,184.81192190825274,82.77584648687774,40665.73277624703,0.6604797597752914,0.8262576913271189,0.3095106526686993,-0.23952024022470866,0.15220882115155235,200,200,0,NA,100,100,0.008738138675689688,1.5274148287619749,1.5274148287619749,0,0.027414828761974874,7.515728360484048e-4,0.915936461424296,0.915936461424296,0,0.015936461424295945,2.539708027280727e-4,1.04697732296381,1.04697732296381,0,0.046977322963809964,0.002206868872846107,0.11229398750701602,0.0016685682262475266,5.426851361535394e-8
23,10000,30,7,1,0.9,1,4,250,2,uniform,200,100,4,TRUE,100,7,0.0055602359771728515,1.487326392406634,1.491850379109781,0.09479640549730152,-0.012673607593366018,0.009057115239687353,52.26758318520926,14.73905883063548,166.83179750092404,51.26758318520926,30182.885256467787,0.4537059017901115,0.4289777691722727,0.2061872573938238,-0.4462940982098885,0.24126647535744875,200,200,0.07,126.42857142857143,100,100,0.02915855884552004,1.4940737453507225,1.4940737453507225,0,-0.00592625464927754,3.512049416808366e-5,0.9279588753402415,0.9279588753402415,0,0.02795887534024144,7.816987102911609e-4,1.0763827252179963,1.0763827252179963,0,0.07638272521799627,0.005834320711727924,0.0038776689087701177,0.003239980644360282,1.932989726513209e-7
24,25000,30,7,1,0.9,1,4,250,2,uniform,200,100,4,TRUE,100,99,6.170415878295898e-4,1.510376479310903,1.5262363121051084,0.12436232137206343,0.010376479310902818,0.01541899843016749,7.684832426393196,7.581667636188149,0.8063473864878522,6.684832426393196,45.33067871557679,0.5614635096314905,0.5783262155412319,0.0598533280602302,-0.33853649036850947,0.1181535519821146,200,200,0.99,27.060606060606062,100,100,0.16237975835800164,1.5078682690584693,1.5078682690584693,0,0.007868269058469268,6.190965797646486e-5,0.9208928421032199,0.9208928421032199,0,0.020892842103219844,4.365108511500758e-4,1.057598859417351,1.057598859417351,0,0.0575988594173511,0.0033176286061797756,0.004015154308293964,0.003694436974828758,7.318726964129379e-5
25,5000,30,6,1,-0.3,1,6,250,2,uniform,200,100,4,TRUE,100,100,1.773524284362793e-4,1.5192657085875496,1.5136053313925306,0.04830840767020459,0.019265708587549713,0.0026815327564947617,1.0703868684201387,1.051311749571327,0.08875278402438415,0.07038686842013878,0.012752597351352118,-0.018827353605842714,-0.018577587394007933,0.07532338274736682,0.2811726463941573,0.08467493294891505,200,200,1,4.53,100,100,0.00911094903945924,1.513497839955163,1.513497839955163,0,0.013497839955163071,1.8219168345519663e-4,-0.24116489956526171,-0.24116489956526171,0,0.058835100434738274,0.00346156904316574,1.0329256572814964,1.0329256572814964,0,0.032925657281496434,0.0010840989074185593,0.06794311313703788,0.04088068242409034,0.08501004756522133
26,10000,30,6,1,-0.3,1,6,250,2,uniform,200,100,4,TRUE,100,100,1.7806053161621095e-4,1.4888425213219798,1.4892040373612214,0.04172415857120747,-0.011157478678020123,0.0018479856848409866,1.0154123116114193,1.00927579189344,0.07122608938936315,0.01541231161141925,0.005259963600812024,-0.019417005477791478,-0.018751074045026937,0.06758102639088966,0.28058299452220853,0.08324833999181536,200,200,1,4.42,100,100,0.02789288997650151,1.5004152999579492,1.5004152999579492,0,4.1529995794920005e-4,1.7247405507260732e-7,-0.20879337322155717,-0.20879337322155717,0,0.09120662677844282,0.008318648768302163,1.0138228477744387,1.0138228477744387,0,0.013822847774438651,1.910711205953036e-4,9.333083934979085e-5,0.09992570145086399,0.03632555947075496
27,25000,30,6,1,-0.3,1,6,250,2,uniform,200,100,4,TRUE,100,100,1.853513717651367e-4,1.5155575425714267,1.5140254413644372,0.05562856441927937,0.015557542571426712,0.0033056289384181693,1.0348391117136009,1.028053170593355,0.06632016374398693,0.03483911171360095,0.005568144182831712,-0.00956619695503816,-0.011545714045214376,0.07309689764129979,0.2904338030449618,0.08964151883149452,200,200,1,4.49,100,100,0.1435964488983158,1.5151037181111116,1.5151037181111116,0,0.015103718111111553,2.2812230077991913e-4,-0.23831008963745912,-0.23831008963745912,0,0.06168991036254087,0.0038056450405383278,1.023489278718651,1.023489278718651,0,0.02348927871865092,5.51746214722467e-4,0.06901025645337001,0.042454044622917055,0.09908978586144895
28,5000,30,7,1,-0.3,1,6,250,2,uniform,200,100,4,TRUE,100,100,1.8653392791748047e-4,1.5021854472044684,1.4983138650224213,0.055285740091739796,0.00218544720446837,0.003030724106400008,1.0351872668351467,1.038614784999975,0.07271090590005665,0.0351872668351467,0.006472150825766636,-0.08119802737789908,-0.08306874211525553,0.06790207762623729,0.2188019726221009,0.05243888844782255,200,200,1,4.93,100,100,0.00875493049621583,1.5104003965975736,1.5104003965975736,0,0.010400396597573636,1.0816824938682125e-4,-0.23967474603161187,-0.23967474603161187,0,0.060325253968388115,0.003639136266350526,1.0282365976283014,1.0282365976283014,0,0.02823659762830144,7.973054456225986e-4,0.03569056291148421,0.06939766219437545,0.12319018315339655
29,10000,30,7,1,-0.3,1,6,250,2,uniform,200,100,4,TRUE,100,100,2.0015239715576172e-4,1.4939445452536635,1.4981492515923842,0.0469081847688213,-0.0060554547463365195,0.002215042552507749,1.0231264353481897,1.011156359554045,0.08406918110405245,0.02312643534818977,0.007531782951304915,-0.07515182481205679,-0.07493780116644143,0.07190544564917604,0.2248481751879432,0.05567539106821454,200,200,1,4.83,100,100,0.026918139457702647,1.4967517922440772,1.4967517922440772,0,-0.0032482077559228273,1.055085362563721e-5,-0.23962594768023965,-0.23962594768023965,0,0.06037405231976034,0.0036450261935091588,1.0018697608283627,1.0018697608283627,0,0.0018697608283626543,3.4960055552793993e-6,0.0047632735604524225,0.06546925173894519,4.6416706082504685e-4
30,25000,30,7,1,-0.3,1,6,250,2,uniform,200,100,4,TRUE,100,100,1.8703937530517578e-4,1.5194964916531761,1.5167094141823187,0.0522641283306344,0.019496491653176237,0.003084336905841782,1.0204959238746116,1.0308442598622574,0.0665973932293797,0.020495923874611615,0.004810943552573017,-0.03105169865735578,-0.04067870270150328,0.06716158941563981,0.2689483013426442,0.07679876109700039,200,200,1,4.58,100,100,0.1533671998977665,1.50790000772295,1.50790000772295,0,0.007900007722950075,6.241012202267084e-5,-0.22707696075060305,-0.22707696075060305,0,0.07292303924939694,0.005317769653369087,0.996124293822225,0.996124293822225,0,-0.0038757061777749957,1.5021098376443267e-5,0.020234534659448227,0.06924290935699468,0.0031222769945844814
31,5000,30,6,1,0,1,6,250,2,uniform,200,100,4,TRUE,100,100,1.7444372177124022e-4,1.5125750909834652,1.5120994526548959,0.05146659639934529,0.012575090983465133,0.002780455352726196,0.9493974190763522,0.9447804340423004,0.06986981480794491,-0.05060258092364773,0.00739359430721787,-0.009931964495682257,-0.006502298515175111,0.062241145226582154,-0.009931964495682257,0.003933864476268818,200,200,1,4.4,100,100,0.008843870162963886,1.5095607231828805,1.5095607231828805,0,0.009560723182880482,9.140742777966828e-5,-0.006453985313249231,-0.006453985313249231,0,-0.006453985313249231,4.1653926423636775e-5,0.9682999562798257,0.9682999562798257,0,-0.03170004372017432,0.0010048927718609635,0.03287498491570621,0.010588551454915546,0.13591397229896074
32,10000,30,6,1,0,1,6,250,2,uniform,200,100,4,TRUE,100,100,1.7941713333129882e-4,1.4909355079071298,1.494544290849781,0.05397841516607967,-0.009064492092870132,0.0029666976277049483,0.9917422926374415,0.988931115871004,0.07160330377124632,-0.008257707362558457,0.005143952510733457,0.008129452361513183,0.012010479925600415,0.07304642271463001,0.008129452361513183,0.005348510068388481,200,200,1,4.44,100,100,0.02640119075775149,1.4843193005780635,1.4843193005780635,0,-0.015680699421936506,2.458843343611199e-4,0.008561776193900215,0.008561776193900215,0,0.008561776193900215,7.330401159443646e-5,1.0023039413404902,1.0023039413404902,0,0.0023039413404901676,5.3081457004196305e-6,0.08288149492044364,0.013705501281130267,0.001031919655040276
33,25000,30,6,1,0,1,6,250,2,uniform,200,100,4,TRUE,100,100,1.7452716827392578e-4,1.5031761515620259,1.5034368616453715,0.04726832112389494,0.003176151562025979,0.0022220391787978965,0.9794521249987151,0.9751557760462968,0.07328042450987826,-0.020547875001284816,0.0057385355772529125,-0.016837372267438123,-0.017056816504745394,0.07518705110682576,-0.016837372267438123,0.005880058832471319,200,200,1,4.55,100,100,0.13850903034210232,1.5023267787731898,1.5023267787731898,0,0.0023267787731897638,5.413899459366462e-6,-7.833544400029077e-4,-7.833544400029077e-4,0,-7.833544400029077e-4,6.136441786722691e-7,0.98725075841695,0.98725075841695,0,-0.01274924158305002,1.6254316094297178e-4,0.002436455446431567,1.0436021069781741e-4,0.028324850260975924
34,5000,30,7,1,0,1,6,250,2,uniform,200,100,4,TRUE,100,100,1.782679557800293e-4,1.5076509170636538,1.5034929225904803,0.055992671108553715,0.007650917063653799,0.003162363957606868,0.9941175818565327,1.0004566410785982,0.07360980932368139,-0.005882418143467317,0.005398822831596637,0.010308418155695004,0.009068127821333594,0.07938208941101489,0.010308418155695004,0.006344764442938442,200,200,1,4.47,100,100,0.00845465898513793,1.5155049643649643,1.5155049643649643,0,0.015504964364964291,2.404039199588125e-4,-0.03319474193820831,-0.03319474193820831,0,-0.03319474193820831,0.0011018908923442455,1.0032460903436577,1.0032460903436577,0,0.003246090343657748,1.0537102519188078e-5,0.0760203199826307,0.17366931463793292,0.001951740749394411
35,10000,30,7,1,0,1,6,250,2,uniform,200,100,4,TRUE,100,100,1.7683506011962892e-4,1.500428430160494,1.4966358190327305,0.053532929331165824,4.2843016049389464e-4,0.0028373003299502603,1.002878667877028,1.0057347342222847,0.07761927706798943,0.002878667877028088,0.005972791379577973,-0.020769573036127992,-0.026620835656671865,0.08056481955966391,-0.020769573036127992,0.006857158413277448,200,200,1,4.51,100,100,0.027485399246215854,1.4953396205368705,1.4953396205368705,0,-0.0046603794631294715,2.171913674035894e-5,0.005600055361586621,0.005600055361586621,0,0.005600055361586621,3.136062005283506e-5,1.0000513607983559,1.0000513607983559,0,5.13607983558817e-5,2.63793160775354e-9,0.007654859977667465,0.004573413382445971,4.416580858278582e-7
36,25000,30,7,1,0,1,6,250,2,uniform,200,100,4,TRUE,100,100,1.713728904724121e-4,1.4963108598855481,1.4924499723726292,0.05332253875256938,-0.003689140114451962,0.002828469962413129,1.0103572543837818,1.0027648721428508,0.07216558075114458,0.010357254383781812,0.005263065053068837,0.004388973918898931,-0.0030126448673150666,0.07112134275943004,0.004388973918898931,0.005026926034006063,200,200,1,4.31,100,100,0.13772634029388417,1.5006258396992718,1.5006258396992718,0,6.258396992717685e-4,3.9167532918457766e-7,-0.008474145974349773,-0.008474145974349773,0,-0.008474145974349773,7.181114999458847e-5,1.0060074707189666,1.0060074707189666,0,0.006007470718966568,3.608970443924069e-5,1.3847604336954567e-4,0.01428530070042838,0.006857164803273175
37,5000,30,6,1,0.3,1,6,250,2,uniform,200,100,4,TRUE,100,100,1.7683029174804686e-4,1.5096298355947058,1.5053240240792478,0.057389708477505866,0.009629835594705868,0.0033533765863228426,1.0237461565894572,1.0173281658367892,0.07647539345949711,0.0237461565894573,0.006353880899508074,0.07717736204830924,0.06702187624038171,0.07573727011730236,-0.22282263795169074,0.055328700727723265,200,200,1,4.59,100,100,0.00876424074172973,1.494815623182767,1.494815623182767,0,-0.0051843768172330496,2.6877762983063486e-5,0.24591894093626826,0.24591894093626826,0,-0.05408105906373173,0.0029247609494548396,0.993425553342519,0.993425553342519,0,-0.00657444665748097,4.32233488520627e-5,0.008015134086844804,0.05286155125615203,0.0068026690357713675
38,10000,30,6,1,0.3,1,6,250,2,uniform,200,100,4,TRUE,100,100,1.7300844192504882e-4,1.5079337694276287,1.5092556404808923,0.056050709666416766,0.007933769427628738,0.0031732099308986322,1.0386828341844956,1.0469089168129262,0.08445005994831822,0.038682834184495536,0.008556856159566969,0.03460320586945609,0.03836165754781716,0.07243213208078739,-0.2653967941305439,0.07562940795496124,200,200,1,4.32,100,100,0.027118570804595975,1.5064731557663982,1.5064731557663982,0,0.006473155766398175,4.190174557605395e-5,0.2467458618906671,0.2467458618906671,0,-0.05325413810933288,0.002836003225767901,0.9981373881928337,0.9981373881928337,0,-0.0018626118071662923,3.4693227441952812e-6,0.013204845090153758,0.03749868341501225,4.0544362082286665e-4
39,25000,30,6,1,0.3,1,6,250,2,uniform,200,100,4,TRUE,100,100,1.7120838165283204e-4,1.5219641759861757,1.5239116589311144,0.047543065017740235,0.02196417598617564,0.0027201646277199595,1.043267758877846,1.037895912597338,0.0702049866165893,0.04326775887784608,0.0067515517026885555,0.013443505907304733,0.009897069030179461,0.06885163806114022,-0.28655649409269524,0.08680776688976212,200,200,1,4.34,100,100,0.13814764976501454,1.5156576407152371,1.5156576407152371,0,0.01565764071523712,2.451617127674512e-4,0.25246659739978283,0.25246659739978283,0,-0.047533402600217156,0.0022594243627543312,1.0114734206147384,1.0114734206147384,0,0.011473420614738439,1.3163938060270497e-4,0.09012752767575896,0.02602790560922495,0.019497648303616555
40,5000,30,7,1,0.3,1,6,250,2,uniform,200,100,4,TRUE,100,100,1.8752813339233397e-4,1.5105760549482858,1.516415297258396,0.05311538050421588,0.010576054948285818,0.0029048841479157217,1.0222019276484282,1.027067753206995,0.07140407254103762,0.02220192764842818,0.005540481750997343,0.13206238490173725,0.13363879966604952,0.07089930511746018,-0.16793761509826277,0.03317948691636958,200,200,1,4.97,100,100,0.008686001300811772,1.4998938585581056,1.4998938585581056,0,-1.0614144189435848e-4,1.1266005687413477e-8,0.26506418903006956,0.26506418903006956,0,-0.034935810969930425,0.001220510888126711,0.9688862192221526,0.9688862192221526,0,-0.031113780777847433,9.680673542919484e-4,3.87829776120226e-6,0.036785104338806225,0.17472620573430936
41,10000,30,7,1,0.3,1,6,250,2,uniform,200,100,4,TRUE,100,100,1.793074607849121e-4,1.5040033905170858,1.4993480091406364,0.05694926666968425,0.004003390517085669,0.003226813920104952,1.018087165601531,1.0087586451141912,0.07466587075817581,0.018087165601530973,0.005846387893013054,0.09601186661343215,0.09559249048945392,0.06685193357410035,-0.20398813338656785,0.04603564777490616,200,200,1,4.68,100,100,0.027137510776519748,1.494264772962256,1.494264772962256,0,-0.005735227037743984,3.2892829174469635e-5,0.24154752405830932,0.24154752405830932,0,-0.058452475941690674,0.003416691943713927,0.9806947212340948,0.9806947212340948,0,-0.019305278765905154,3.7269378822930843e-4,0.010193593429583257,0.07421839615291242,0.06374770115317017
42,25000,30,7,1,0.3,1,6,250,2,uniform,200,100,4,TRUE,100,100,1.811981201171875e-4,1.5005670025237932,1.509606086137382,0.0516193563647573,5.670025237931413e-4,0.00263823386385868,1.0411637322027385,1.0365541969332277,0.08220676116670285,0.041163732202738404,0.008384824914562897,0.07486913278053242,0.07006206404034301,0.06959021068437453,-0.22513086721946757,0.055478276823854214,200,200,1,4.51,100,100,0.1421568298339842,1.5055114952399096,1.5055114952399096,0,0.00551149523990957,3.0376579779545844e-5,0.2578807277941238,0.2578807277941238,0,-0.04211927220587619,0.0017740330911526945,1.0002935636993113,1.0002935636993113,0,2.9356369931132775e-4,8.617964555335166e-8,0.011513982970075696,0.03197707630295227,1.0278049503892858e-5
43,5000,30,6,1,0.9,1,6,250,2,uniform,200,100,4,TRUE,100,99,6.819486618041994e-4,1.4881465249349295,1.4931289810585602,0.10296624242873344,-0.011853475065070614,0.01063653148021203,4.641158903892602,4.644269763512279,0.49708177656107405,3.6411589038926024,13.5026575530596,0.5703274627949755,0.5702443075603914,0.05872399459680474,-0.32967253720502454,0.1120980042531898,200,200,0.99,28.07070707070707,100,100,0.008776459693908684,1.5103534151658273,1.5103534151658273,0,0.010353415165827329,1.0719320559598333e-4,0.8345926640750395,0.8345926640750395,0,-0.06540733592496051,0.004278119592800629,1.119831381184662,1.119831381184662,0,0.11983138118466208,0.014359559916623785,0.010077834658356741,0.0381641013263525,0.0010634617563392193
44,10000,30,6,1,0.9,1,6,250,2,uniform,200,100,4,TRUE,100,100,3.555607795715332e-4,1.4602392661188586,1.459604677230383,0.12874714211031374,-0.039760733881141444,0.017990984294324542,5.284184015049289,5.254433569306218,0.520384467624233,4.284184015049289,18.622324669006954,0.4760052535562313,0.47811107124610563,0.06519547266048603,-0.4239947464437687,0.18397949017078566,200,200,1,14.64,100,100,0.027182700634002726,1.4940434278465613,1.4940434278465613,0,-0.0059565721534386995,3.548075181912135e-5,0.8413286776116766,0.8413286776116766,0,-0.0586713223883234,0.0034423240707945786,1.1237652114389038,1.1237652114389038,0,0.12376521143890384,0.015317827562516574,0.001972140669941786,0.018710368572057223,8.225518475687389e-4
45,25000,30,6,1,0.9,1,6,250,2,uniform,200,100,4,TRUE,100,100,3.259348869323731e-4,1.5019368331488323,1.4932804559049417,0.11677082068731189,0.0019368331488322354,0.01350282164099487,5.374573967040879,5.302041901479672,0.5432978391225628,4.374573967040879,19.429118209687065,0.28170180183002913,0.283400427814794,0.09532438703991539,-0.6182981981699709,0.39128853323712287,200,200,1,8.12,100,100,0.1429979395866397,1.5046582970354143,1.5046582970354143,0,0.004658297035414316,2.1699731270149805e-5,0.8435908731380235,0.8435908731380235,0,-0.05640912686197652,0.003181989593330561,1.1403001918019602,1.1403001918019602,0,0.14030019180196018,0.019684143819666815,0.0016070516109217448,0.008132079841456174,0.0010131259487552347
46,5000,30,7,1,0.9,1,6,250,2,uniform,200,100,4,TRUE,100,0,0.005202422142028809,1.4701523968184067,1.4615988066249992,0.06673552115285118,-0.0298476031815934,0.005299972901393084,24.11755938644454,7.81204548493859,77.45421484507901,23.11755938644454,6473.585395280773,0.4987110781213069,0.5110216008210791,0.252907098315435,-0.40128892187869314,0.22435517919711365,200,200,0,NA,100,100,0.008253679275512706,1.474787818152085,1.474787818152085,0,-0.02521218184791496,6.356541135323327e-4,0.835103147330255,0.835103147330255,0,-0.06489685266974499,0.004211601486438587,1.134479852493055,1.134479852493055,0,0.13447985249305505,0.018084830726553845,0.11993535162514748,0.01877202702211017,2.7936343806845644e-6
47,10000,30,7,1,0.9,1,6,250,2,uniform,200,100,4,TRUE,100,17,0.004920551776885986,1.474391526812294,1.4872239144528214,0.08184239748780753,-0.025608473187705923,0.007286990145292216,9.098381681000523,6.7682223971588815,17.21093092524645,8.098381681000523,358.8377677316334,0.5171316800227826,0.4938095238696375,0.15899618689332515,-0.38286831997721743,0.17161514001432795,200,200,0.17,128.11764705882354,100,100,0.026765649318695135,1.47937032528862,1.47937032528862,0,-0.020629674711380108,4.2558347869735595e-4,0.837330870619144,0.837330870619144,0,-0.062669129380856,0.0039274197773544696,1.1154098762946476,1.1154098762946476,0,0.1154098762946476,0.013319439546345863,0.05840319119579235,0.022885042526123126,3.711827668125271e-5
48,25000,30,7,1,0.9,1,6,250,2,uniform,200,100,4,TRUE,100,92,0.0013301825523376464,1.5154090365691348,1.509070760669141,0.08822257439436573,0.015409036569134915,0.007942828814430638,5.307888659773056,5.234097123309914,0.8535470390226916,4.307888659773056,19.279161827347455,0.6278156531653041,0.6366958484642737,0.04944527875590006,-0.2721843468346959,0.07650470589716622,200,200,0.92,50.641304347826086,100,100,0.13657285928726162,1.501427942926524,1.501427942926524,0,0.0014279429265240395,2.0390210014100386e-6,0.8428785537308995,0.8428785537308995,0,-0.05712144626910054,0.00326285962387374,1.1201384963173342,1.1201384963173342,0,0.1201384963173342,0.014433258297390122,2.5671219272729607e-4,0.042649136227770244,7.486455286098886e-4
49,5000,30,6,1,-0.3,1,4,250,2,clustered,200,100,4,TRUE,100,100,2.0205974578857422e-4,1.5353101487012262,1.5339989328770078,0.07297043346321423,0.035310148701226084,0.006518243919513979,1.1079622591547722,1.1126083702297405,0.08967999992728448,0.10796225915477217,0.019617926764890353,-0.13587625888445565,-0.13419397933640625,0.0830983696005315,0.16412374111554434,0.033772888037726094,200,200,1,5.78,100,100,0.008572490215301532,1.484563415146435,1.484563415146435,0,-0.015436584853564916,2.382881519413098e-4,-0.3377275917053484,-0.3377275917053484,0,-0.037727591705348396,0.001423371175885473,0.9831436711430231,0.9831436711430231,0,-0.016856328856976854,2.8413582253455065e-4,0.036557108767889944,0.04214537928457562,0.014483478603002049
50,10000,30,6,1,-0.3,1,4,250,2,clustered,200,100,4,TRUE,100,100,2.0530700683593753e-4,1.5037982106060472,1.5049296080800354,0.0682025550880242,0.003798210606047281,0.0046194990391375135,1.0135492805352144,1.006992304713171,0.08605510383364194,0.013549280535214448,0.007515009089882642,-0.07345377446171909,-0.07025556100789535,0.08553988290341086,0.2265462255382809,0.058567093157099584,200,200,1,5.01,100,100,0.028774828910827596,1.4887988617935888,1.4887988617935888,0,-0.01120113820641122,1.254654971191252e-4,-0.28965683640260437,-0.28965683640260437,0,0.010343163597395622,1.0698103320248994e-4,0.9841487051433733,0.9841487051433733,0,-0.01585129485662673,2.51263548631721e-4,0.02715997904884299,0.0018266406515263691,0.03343489616931985
51,25000,30,6,1,-0.3,1,4,250,2,clustered,200,100,4,TRUE,100,100,1.9974946975708007e-4,1.4958999245927869,1.492832855443744,0.05939229182731582,-0.004100075407213085,0.003508980503560869,1.033902827848848,1.0311905145160187,0.09255149752867169,0.03390282784884804,0.009629523634000353,-0.07267831469690282,-0.07145840175074589,0.07714058172967013,0.22732168530309715,0.05756631126513634,200,200,1,4.79,100,100,0.15226803064346353,1.5013047760612495,1.5013047760612495,0,0.0013047760612494574,1.702440570009648e-6,-0.2957739291436667,-0.2957739291436667,0,0.004226070856333308,1.785967488274974e-5,1.0000828429688173,1.0000828429688173,0,8.284296881733155e-5,6.862957482469368e-9,4.8516672243748086e-4,3.1024525439006246e-4,7.126995834183667e-7
52,5000,30,7,1,-0.3,1,4,250,2,clustered,200,100,4,TRUE,100,100,1.9815683364868164e-4,1.4869420219064389,1.488069690944131,0.05519454827315579,-0.013057978093561105,0.0031864845693788686,1.0688534491508004,1.0585161198576851,0.08176955721417778,0.06885344915080044,0.011360195342094528,-0.06716873416914204,-0.07123552500793323,0.07559848936626135,0.23283126583085795,0.05986837862691576,200,200,1,4.98,100,100,0.013021969795227059,1.4821467522280372,1.4821467522280372,0,-0.017853247771962844,3.1873845600709623e-4,-0.3199462954608736,-0.3199462954608736,0,-0.01994629546087362,3.9785470261246756e-4,1.0100232849173467,1.0100232849173467,0,0.01002328491734672,1.0046624053431024e-4,0.10002824399969616,0.006645489851859778,0.008843707129052487
53,10000,30,7,1,-0.3,1,4,250,2,clustered,200,100,4,TRUE,100,100,2.1782636642456052e-4,1.5280031022124072,1.5247275955806163,0.05480111792968975,0.028003102212407118,0.003757304634598844,1.0097100088969906,1.013775513448751,0.0875899509128346,0.009710008896990568,0.007689563778683284,-0.0652376124496132,-0.06547884868965718,0.0829061051428965,0.2347623875503868,0.06191806665562336,200,200,1,4.86,100,100,0.030340411663055393,1.5130794882867753,1.5130794882867753,0,0.013079488286775298,1.7107301384389223e-4,-0.2939967513807938,-0.2939967513807938,0,0.006003248619206203,3.603899398400118e-5,0.9766420519054747,0.9766420519054747,0,-0.023357948094525294,0.00054559373918653775,0.04553078083384026,5.820432699302981e-4,0.07095249547172129
54,25000,30,7,1,-0.3,1,4,250,2,clustered,200,100,4,TRUE,100,100,1.9397735595703126e-4,1.4910283784539504,1.492458696008117,0.04950462974809449,-0.008971621546049618,0.002506691275996504,1.040555938784151,1.0400178886847744,0.06409149474169865,0.040555938784151,0.0057114266719067355,-0.04792666509396666,-0.052568066575479244,0.07736439630363537,0.25207333490603334,0.06946636348792093,200,200,1,4.77,100,100,0.1552448797225954,1.4968835165927856,1.4968835165927856,0,-0.0031164834072143766,9.71246882744253e-6,-0.30316138318335795,-0.30316138318335795,0,-0.0031613831833579575,9.994343632018493e-6,0.9987785772375823,0.9987785772375823,0,-0.0012214227624176566,1.491873564551979e-6,0.00387461707807694,1.4387313701481362e-4,2.612085649090411e-4
55,5000,30,6,1,0,1,4,250,2,clustered,200,100,4,TRUE,100,100,1.961398124694824e-4,1.5220752446970671,1.5214486388127357,0.06502598035341518,0.022075244697067103,0.0046734107681489,1.0415684639509002,1.037777056276486,0.10305664016900304,0.04156846395090016,0.012242401567331418,0.02305255335629826,0.02420542893895185,0.08364657887919726,0.02305255335629826,0.00745820287285681,200,200,1,4.72,100,100,0.009484758377075202,1.5041703946914777,1.5041703946914777,0,0.00417039469147773,1.7392191882705633e-5,-0.014599683540428331,-0.014599683540428331,0,-0.014599683540428331,2.1315075948065394e-4,0.9697577187455808,0.9697577187455808,0,-0.03024228125441919,9.145955754713943e-4,0.0037215200515307023,0.028579372687271523,0.07470720270375485
56,10000,30,6,1,0,1,4,250,2,clustered,200,100,4,TRUE,100,100,2.181506156921387e-4,1.4799713078393264,1.4831029295353388,0.06915828359081576,-0.02002869216067362,0.005136188017002448,0.9527651188379961,0.9405297441548013,0.0908281479206788,-0.04723488116200397,0.010398388928542336,-0.024313916790076346,-0.02125140763068962,0.07592548535631609,-0.024313916790076346,0.006298199083001002,200,200,1,4.72,100,100,0.03199982881546025,1.4989551555222456,1.4989551555222456,0,-0.0010448444777544363,1.0916999826939409e-6,0.00673110984826299,0.00673110984826299,0,0.00673110984826299,4.530783978938301e-5,1.0095740722743114,1.0095740722743114,0,0.009574072274311396,9.166285991373819e-5,2.1255062686180098e-4,0.007193777013443417,0.008815102083952118
57,25000,30,6,1,0,1,4,250,2,clustered,200,100,4,TRUE,100,100,1.9296407699584961e-4,1.4984872592693812,1.4991100990220763,0.04974921284260104,-0.0015127407306188333,0.0024525227211919095,0.9740392129682052,0.97639002781435,0.06884682179045935,-0.025960787031794837,0.005366448485251004,3.4305008877831523e-4,9.967354939732608e-4,0.07969277016565038,3.4305008877831523e-4,0.006287545923871833,200,200,1,4.54,100,100,0.1694828701019287,1.4970610313939747,1.4970610313939747,0,-0.0029389686060252718,8.637536467202128e-6,-0.0022865436224802703,-0.0022865436224802703,0,-0.0022865436224802703,5.228281737505196e-6,1.0122875088678536,1.0122875088678536,0,0.01228750886785357,1.509828741775801e-4,0.0035218986525859153,8.31529789334032e-4,0.028134598625615653
58,5000,30,7,1,0,1,4,250,2,clustered,200,100,4,TRUE,100,100,2.0454645156860353e-4,1.4749797342696822,1.4732065456773162,0.052622039846201486,-0.025020265730317858,0.003367401984015184,0.9419107953032444,0.9401335190240543,0.07496324965319386,-0.058089204696755596,0.00893764961288297,-0.009345936207545752,-0.009643015107745342,0.07569953617420841,-0.009345936207545752,0.005760462102815902,200,200,1,4.73,100,100,0.009534659385681177,1.4994279763485105,1.4994279763485105,0,-5.720236514894506e-4,3.272110578633244e-7,0.03584376848001759,0.03584376848001759,0,0.03584376848001759,0.0012847757388491027,0.9709747969135688,0.9709747969135688,0,-0.029025203086431195,8.42462414208575e-4,9.717018028039773e-5,0.22303345042771178,0.09425995096006301
59,10000,30,7,1,0,1,4,250,2,clustered,200,100,4,TRUE,100,100,1.963019371032715e-4,1.4998957972024445,1.5030533266647383,0.046549584171073015,-1.0420279755545034e-4,0.0021452060068578318,0.9226147814850533,0.9140267008050994,0.06332595938750474,-0.07738521851494667,0.009958547405630468,-0.049538449450490796,-0.04237513612000076,0.0673326986335219,-0.049538449450490796,0.006942413356178785,200,200,1,4.7,100,100,0.02904296159744267,1.5184119367391227,1.5184119367391227,0,0.01841193673912267,3.389994144854551e-4,0.013362636544714576,0.013362636544714576,0,0.013362636544714576,1.785600554261415e-4,0.9840912624784556,0.9840912624784556,0,-0.015908737521544425,2.5308792952939544e-4,0.15802650813103072,0.02572017053222884,0.025414141161420985
60,25000,30,7,1,0,1,4,250,2,clustered,200,100,4,TRUE,100,100,3.1683206558227547e-4,1.5373388016604048,1.5348976032900117,0.04904991946877095,0.03733880166040483,0.0037760217633290363,0.9846068929059784,0.9751749992354621,0.0727047233869146,-0.015393107094021622,0.005470064780748107,0.0704634560112882,0.06722136825126776,0.07307614828994484,0.0704634560112882,0.010251820847459814,200,200,1,4.5,100,100,0.15517472982406602,1.50529417597461,1.50529417597461,0,0.005294175974609905,2.8028299250136735e-5,0.013444292214486037,0.013444292214486037,0,0.013444292214486037,1.8074899314848985e-4,0.9898756164846386,0.9898756164846386,0,-0.01012438351536138,1.0250314156612124e-4,0.007422705960631508,0.017630916091679036,0.01873892644322624
61,5000,30,6,1,0.3,1,4,250,2,clustered,200,100,4,TRUE,100,100,1.9842147827148438e-4,1.5472913579036065,1.5510328352258993,0.07289652892620514,0.04729135790360645,0.007497237422561175,0.9670622321498906,0.9684176736348685,0.07632882226805081,-0.03293776785010935,0.00685272476868711,-0.007822105229659797,-3.048193045156653e-4,0.09070399790633182,-0.3078221052296598,0.10289939155184967,200,200,1,4.66,100,100,0.009387350082397477,1.4834433466332166,1.4834433466332166,0,-0.016556653366783358,2.741227707078187e-4,0.2994716607335337,0.2994716607335337,0,-5.283392664662823e-4,2.791423804901292e-7,0.9766886474701211,0.9766886474701211,0,-0.023311352529878926,5.434191567722926e-4,0.0365631705730581,2.71276998124399e-6,0.07929972020113751
62,10000,30,6,1,0.3,1,4,250,2,clustered,200,100,4,TRUE,100,100,2.016878128051758e-4,1.4892260060563798,1.4881515052769168,0.06676404909085039,-0.010773993943620287,0.004528942813992593,1.0658372293071499,1.0683858475958707,0.08740942427017669,0.06583722930714986,0.011898544139573544,0.14284133317993425,0.1367216722298121,0.07960065268468598,-0.15715866682006574,0.030971747825410154,200,200,1,5.16,100,100,0.02904587984085083,1.4779933485363994,1.4779933485363994,0,-0.02200665146360059,4.84292708640394e-4,0.3002246483178338,0.3002246483178338,0,2.2464831783380879e-4,5.046686670555997e-8,1.0049827399913362,1.0049827399913362,0,0.004982739991336249,2.4827697821261565e-5,0.10693283808842238,1.6294484570275183e-6,0.0020866164406355193
63,25000,30,6,1,0.3,1,4,250,2,clustered,200,100,4,TRUE,100,100,1.9687652587890625e-4,1.5218772687285003,1.522424184162872,0.06657952991374524,0.021877268728500196,0.004867120352518957,1.0968912224438068,1.082005317252473,0.10793080098499368,0.09689122244380667,0.02092047620990492,0.11102600787466642,0.12134706803408102,0.08356029782239525,-0.18897399212533356,0.042623669838231355,200,200,1,4.99,100,100,0.1572024989128112,1.4893766091267053,1.4893766091267053,0,-0.01062339087329467,1.1285643364680047e-4,0.29919720593146587,0.29919720593146587,0,-8.027940685341184e-4,6.444783164735628e-7,0.9978556806690665,0.9978556806690665,0,-0.0021443193309335085,4.598105393015129e-6,0.023187516533958754,1.5120197742698757e-5,2.1978970970259893e-4
64,5000,30,7,1,0.3,1,4,250,2,clustered,200,100,4,TRUE,100,100,2.830839157104492e-4,1.5011167593572352,1.4983202810815284,0.062256737639888614,0.0011167593572353111,0.003838389519208277,1.0500759025960913,1.0474319946735786,0.08072099061283362,0.05007590259609124,0.008958315563075222,0.12074269844972896,0.11305802976828874,0.07663059422830595,-0.17925730155027103,0.03794670565115025,200,200,1,4.94,100,100,0.009290280342102074,1.4928067772096338,1.4928067772096338,0,-0.0071932227903661605,5.1742454111843134e-5,0.29580672186738105,0.29580672186738105,0,-0.004193278132618938,1.758358149750017e-5,0.9809921484284742,0.9809921484284742,0,-0.019007851571525847,3.612984213651576e-4,0.013480250988835485,4.6337570536817264e-4,0.040331066573985545
65,10000,30,7,1,0.3,1,4,250,2,clustered,200,100,4,TRUE,100,100,1.896834373474121e-4,1.5344828535940733,1.532372291994599,0.05524808746934365,0.03448285359407339,0.004210894849320348,1.0567908076999208,1.0641939673364291,0.07605478828717083,0.0567908076999209,0.008951683352401705,0.062001278603460205,0.06008463536213346,0.07545066213882128,-0.2379987213965398,0.06227926577940246,200,200,1,4.52,100,100,0.028219609260559123,1.506801188989157,1.506801188989157,0,0.006801188989157048,4.625617166623106e-5,0.3097407236452417,0.3097407236452417,0,0.0097407236452417,9.488169713297075e-5,0.997010382836029,0.997010382836029,0,-0.002989617163970948,8.937810787109693e-6,0.010984879300345616,0.0015234877281477337,9.984502841816573e-4
66,25000,30,7,1,0.3,1,4,250,2,clustered,200,100,4,TRUE,100,100,1.9193172454833984e-4,1.473707902294689,1.4735324037338264,0.05720769852197736,-0.02629209770531101,0.003931267964225257,1.032400199906605,1.033540010174519,0.07325782625883216,0.032400199906605136,0.006362814971075522,0.07446321365990809,0.08228771120334094,0.06871912991112127,-0.2255367863400919,0.055541937620200404,200,200,1,4.55,100,100,0.1601744294166565,1.49229053592361,1.49229053592361,0,-0.007709464076389949,5.943583634514713e-5,0.29834741555669303,0.29834741555669303,0,-0.0016525844433069592,2.7310353422601724e-6,0.9839793504538229,0.9839793504538229,0,-0.0160206495461771,2.5666121188142456e-4,0.01511874461014012,4.917068901944293e-5,0.04033768277848263
67,5000,30,6,1,0.9,1,4,250,2,clustered,200,100,4,TRUE,100,96,7.862973213195801e-4,1.4324833911904256,1.4302200892266532,0.12228097429807863,-0.06751660880957434,0.019361602773679588,7.370365521824574,7.238510896975616,1.0874713735237684,6.370365521824574,41.75232493000262,0.5483304997960623,0.5461411319427385,0.08651894274657485,-0.35166950020393767,0.13108210955313257,200,200,0.96,28.697916666666668,100,100,0.008945741653442372,1.4894790294219682,1.4894790294219682,0,-0.010520970578031807,1.1069082190381095e-4,0.9158835669147058,0.9158835669147058,0,0.015883566914705827,2.5228769793393755e-4,1.0984295772824522,1.0984295772824522,0,0.09842957728245216,0.009688381684002222,0.00571702783068587,0.0019246539348047014,2.3204412449473658e-4
68,10000,30,6,1,0.9,1,4,250,2,clustered,200,100,4,TRUE,100,100,2.824759483337402e-4,1.5333955051709174,1.5115361657447437,0.14957991837455653,0.03339550517091747,0.02326567022675039,6.358939240816939,6.351884330448183,0.7901472860387393,5.358939240816939,29.336319193065673,0.3037293041934146,0.31794834814045125,0.11013350038880873,-0.5962706958065854,0.36754683670648236,200,200,1,8.75,100,100,0.031777467727661164,1.510139972872406,1.510139972872406,0,0.010139972872406089,1.028190498531314e-4,0.9234453645858579,0.9234453645858579,0,0.023445364585857886,5.496851205637991e-4,1.0847544428016,1.0847544428016,0,0.08475444280160005,0.007183315574609694,0.004419346137508309,0.0014955512214155438,2.448608336763543e-4
69,25000,30,6,1,0.9,1,4,250,2,clustered,200,100,4,TRUE,100,100,4.223275184631348e-4,1.5275813172582342,1.539521605816228,0.13697087270591454,0.027581317258234168,0.019334138831821016,7.346180934237415,7.188788797188014,0.8192845907055245,6.346180934237415,40.93852741824031,0.49193647726587725,0.5027650979397422,0.08540641216680245,-0.4080635227341228,0.1737371512729956,200,200,1,18.87,100,100,0.15669179916381856,1.499609472382687,1.499609472382687,0,-3.905276173130634e-4,1.525118198842185e-7,0.9212174233657519,0.9212174233657519,0,0.02121742336575183,4.5017905428155173e-4,1.0499208625951342,1.0499208625951342,0,0.049920862595134174,0.0024920925222422664,7.888213755515581e-6,0.002591150200075395,6.08740147583302e-5
70,5000,30,7,1,0.9,1,4,250,2,clustered,200,100,4,TRUE,100,90,0.0013918542861938476,1.533359388077055,1.5379657590833986,0.10946156737082664,0.033359388077055,0.0129748651568408,7.5800615414651364,7.422129978468277,1.2316435254306108,6.5800615414651364,44.798986205466335,0.613633562874659,0.6234998722468306,0.055681125394805166,-0.2863664371253411,0.08507512015984163,200,200,0.9,48.12222222222222,100,100,0.009550499916076642,1.5033543727923955,1.5033543727923955,0,0.003354372792395477,1.1251816830363029e-5,0.9257853091239682,0.9257853091239682,0,0.025785309123968148,6.64882166618595e-4,1.0277764467878683,1.0277764467878683,0,0.02777644678786828,7.715309961592781e-4,8.672010610014456e-4,0.00781523629198989,1.7222063745387534e-5
71,10000,30,7,1,0.9,1,4,250,2,clustered,200,100,4,TRUE,100,100,5.002307891845703e-4,1.4860438272477692,1.4876875484889616,0.12835417412215547,-0.013956172752230715,0.0165048208323249,7.001582341127557,6.893192061821601,0.6736416118884716,6.001582341127557,36.46824568838915,0.527607558354828,0.536603720925565,0.06750093806233204,-0.3723924416451721,0.14318694346735475,200,200,1,20.95,100,100,0.028015410900115913,1.497614491661741,1.497614491661741,0,-0.0023855083382589015,5.690650031902746e-6,0.9183863612651649,0.9183863612651649,0,0.018386361265164908,3.380582805731565e-4,1.052077216000327,1.052077216000327,0,0.05207721600032711,0.0027120364263447257,3.4478714369062016e-4,0.0023609574475638596,7.436706578973691e-5
72,25000,30,7,1,0.9,1,4,250,2,clustered,200,100,4,TRUE,100,100,3.6628484725952147e-4,1.5151831183997935,1.518805025497283,0.10918207335019588,0.015183118399793416,0.01203204497397922,7.789343726683224,7.72843429558449,0.7463926696905429,6.789343726683224,46.64671923624696,0.471610323558254,0.4783832642131393,0.06877593310251222,-0.428389676441746,0.18820054256624388,200,200,1,15.15,100,100,0.16185235977172852,1.4948210789368548,1.4948210789368548,0,-0.005178921063145214,2.6821223378289156e-5,0.919546022202127,0.919546022202127,0,0.019546022202126978,3.820469839260408e-4,1.0755524834501584,1.0755524834501584,0,0.07555248345015841,0.005708177755486461,0.0022291491958593367,0.0020299993757540084,1.2237040136899716e-4
73,5000,30,6,1,-0.3,1,6,250,2,clustered,200,100,4,TRUE,100,100,2.0926475524902342e-4,1.454279055960511,1.464779161893712,0.07939208135758234,-0.04572094403948895,0.008330476280328165,1.0346220779116049,1.0316590926471307,0.09208812140975048,0.034622077911604966,0.00959410816264642,-0.15960423823927747,-0.16277927300723435,0.08542207585898445,0.14039576176072252,0.026934931653991072,200,200,1,5.8,100,100,0.009180519580841056,1.4853537683349138,1.4853537683349138,0,-0.014646231665086162,2.1451210198737258e-4,-0.22606045567029712,-0.22606045567029712,0,0.07393954432970287,0.005467056215684096,1.0139602356398754,1.0139602356398754,0,0.013960235639875362,1.9488817912084627e-4,0.025750280628483134,0.2029727153539674,0.020313318947103542
74,10000,30,6,1,-0.3,1,6,250,2,clustered,200,100,4,TRUE,100,100,1.8175601959228514e-4,1.4532397352088324,1.4543762619992542,0.0632008578024766,-0.04676026479116748,0.006140927306039275,1.0209830780099907,1.009766199306629,0.11499693023495493,0.02098307800999073,0.013532340586601814,-0.04695736421992087,-0.05015018727311034,0.06630968183151466,0.25304263578007913,0.06838357968808051,200,200,1,4.79,100,100,0.026732130050659216,1.503446298019154,1.503446298019154,0,0.0034462980191540815,1.1876970036825346e-5,-0.21968852083033344,-0.21968852083033344,0,0.08031147916966655,0.0064499336864197844,1.0183241942204802,1.0183241942204802,0,0.01832419422048015,3.3577609382987814e-4,0.0019340678443050417,0.09431991884367572,0.024812861580082123
75,25000,30,6,1,-0.3,1,6,250,2,clustered,200,100,4,TRUE,100,100,1.8450736999511719e-4,1.500616903360205,1.501961316984552,0.061132307660413845,6.169033602049617e-4,0.003700168019244449,1.054022580463086,1.0462199162477352,0.09216520389912883,0.054022580463086035,0.011327919761560914,-0.043495495461779714,-0.045152839270010486,0.07181612808898619,0.25650450453822027,0.0709005415395546,200,200,1,4.98,100,100,0.14200616121292126,1.5053147058313323,1.5053147058313323,0,0.0053147058313323114,2.8246098073597675e-5,-0.2246071473756721,-0.2246071473756721,0,0.07539285262432788,0.005684082226833623,1.0045762059512935,1.0045762059512935,0,0.004576205951293488,2.094166090865394e-5,0.007633733907944361,0.08016979988315799,0.001848676663451959
76,5000,30,7,1,-0.3,1,6,250,2,clustered,200,100,4,TRUE,100,100,1.8065452575683594e-4,1.5386591117266892,1.534707236646613,0.05629680376139177,0.03865911172668926,0.00463216373210781,0.9994618742161184,0.9930221181884304,0.08354826262225125,-5.381257838816035e-4,0.006910798644683976,-0.011012918799885906,-0.014893207670923747,0.06678768486471535,0.28898708120011407,0.08792952200165398,200,200,1,4.62,100,100,0.008639640808105486,1.5074554338613657,1.5074554338613657,0,0.007455433861365712,5.558349406119845e-5,-0.22558450339424851,-0.22558450339424851,0,0.07441549660575147,0.005537666135080609,0.9985240192018867,0.9985240192018867,0,-0.0014759807981132855,2.1785193163991314e-6,0.011999466615552005,0.06297846285319786,3.152340891996504e-4
77,10000,30,7,1,-0.3,1,6,250,2,clustered,200,100,4,TRUE,100,100,1.7945289611816408e-4,1.4638339841992378,1.4601947775606101,0.05207487396078191,-0.03616601580076214,0.003992655271951986,1.0070102972874,1.0132863389097648,0.07056271310142441,0.007010297287400063,0.004978449783489321,-0.02121452607923601,-0.02882914781398909,0.06885216632756327,0.27878547392076397,0.08241455506914343,200,200,1,4.59,100,100,0.02742004871368415,1.4875656597359166,1.4875656597359166,0,-0.01243434026408341,1.546128178030059e-4,-0.20517007296360343,-0.20517007296360343,0,0.09482992703639656,0.008992715061728296,1.0042751871630387,1.0042751871630387,0,0.004275187163038652,1.8277225279010474e-5,0.03872430933097227,0.10911561743169843,0.003671268381500122
78,25000,30,7,1,-0.3,1,6,250,2,clustered,200,100,4,TRUE,100,100,1.8056154251098634e-4,1.4813196263843538,1.4870484379535989,0.05261950222026008,-0.018680373615646263,0.003090080252189009,1.053996818424561,1.0532779785821447,0.061400920480941805,0.053996818424561006,0.00664802870552288,-0.06651800742654972,-0.06248773019717594,0.07699372791004279,0.23348199257345026,0.06038259465217954,200,200,1,4.74,100,100,0.1422809481620791,1.500422861835976,1.500422861835976,0,4.2286183597606275e-4,1.788121323250466e-7,-0.24334778016453965,-0.24334778016453965,0,0.056652219835460343,0.0032094740122853263,1.0066573989513128,1.0066573989513128,0,0.006657398951312787,4.43209607969406e-5,5.786650110409796e-5,0.05315230375197994,0.006666782404251769
79,5000,30,6,1,0,1,6,250,2,clustered,200,100,4,TRUE,100,100,1.8316030502319336e-4,1.5792307479005296,1.5839090968608591,0.06958096742002573,0.07923074790052971,0.011070607329712906,0.9659031574074814,0.964796767195083,0.08567601611537674,-0.03409684259251849,0.008429570614807251,-0.03728941203144871,-0.034036850141725694,0.0701284563992379,-0.03728941203144871,0.006259320642621567,200,200,1,4.66,100,100,0.008533189296722405,1.5434803336069052,1.5434803336069052,0,0.043480333606905175,0.0018905394105677676,-0.04178784774111425,-0.04178784774111425,0,-0.04178784774111425,0.0017462242188345473,0.9932938663958024,0.9932938663958024,0,-0.006706133604197584,4.4972227917348076e-5,0.1707710656030282,0.2789798316040865,0.0053350556003826065
80,10000,30,6,1,0,1,6,250,2,clustered,200,100,4,TRUE,100,100,1.85239315032959e-4,1.5022944488751517,1.5061404267040461,0.07092852006850743,0.002294448875151817,0.00498581090515826,1.0317695934257893,1.0196790183590272,0.10416993452576989,0.031769593425789305,0.011752168572952111,-0.0829914143930245,-0.08478198144375815,0.0732868169914095,-0.0829914143930245,0.01220482283223974,200,200,1,4.99,100,100,0.025553019046783424,1.4936135880255583,1.4936135880255583,0,-0.006386411974441675,4.078625790729201e-5,-0.00775490928959834,-0.00775490928959834,0,-0.00775490928959834,6.013861808989863e-5,1.0116744171917789,1.0116744171917789,0,0.011674417191778863,1.3629201676770188e-4,0.00818046626379172,0.004927447036022434,0.011597180207351784
81,25000,30,6,1,0,1,6,250,2,clustered,200,100,4,TRUE,100,100,1.7367601394653321e-4,1.4589443137823765,1.4610676319153222,0.05686493618339941,-0.04105568621762354,0.00488685412827063,0.9175349099406468,0.9193370302236995,0.08218302072253504,-0.0824650900593532,0.013486999484627052,0.001993771312274009,0.0029801246550332904,0.08102795156884383,0.001993771312274009,0.006503848770134117,200,200,1,4.5,100,100,0.1428574514389041,1.4961806422688464,1.4961806422688464,0,-0.0038193577311536053,1.4587493478522815e-5,0.006573525651751197,0.006573525651751197,0,0.006573525651751197,4.3211239494230996e-5,0.9748525657880044,0.9748525657880044,0,-0.025147434211995612,6.323934474466473e-4,0.0029850478642555814,0.006643948994118437,0.04688911333966248
82,5000,30,7,1,0,1,6,250,2,clustered,200,100,4,TRUE,100,100,1.781940460205078e-4,1.5219567812088428,1.5191866160971705,0.05710192581457466,0.021956781208842896,0.0037101238734688537,0.9712052492544101,0.9606000967553086,0.07754706463433124,-0.028794750745589934,0.006782549431567787,0.06017721837687589,0.07331352769030018,0.07612350535476121,0.06017721837687589,0.009358137798399604,200,200,1,4.49,100,100,0.00824144840240478,1.4894143492834337,1.4894143492834337,0,-0.010585650716566253,1.1205600109313962e-4,5.04462228597491e-4,5.04462228597491e-4,0,5.04462228597491e-4,2.5448214008154727e-7,0.9821513492144656,0.9821513492144656,0,-0.017848650785534437,3.1857433486395906e-4,0.030202765437147155,2.719367309648592e-5,0.046969703365703386
83,10000,30,7,1,0,1,6,250,2,clustered,200,100,4,TRUE,100,100,1.791667938232422e-4,1.4422338091928428,1.4456427678461667,0.04996639494648292,-0.05776619080715708,0.005808607018077314,0.9853047393477873,0.9775348477319585,0.0788031977205597,-0.014695260652212664,0.0063637952169122375,0.008237104491040974,0.005180574031174367,0.07353727278506396,0.008237104491040974,0.005421503074174583,200,200,1,4.54,100,100,0.026830720901489278,1.4777903746427856,1.4777903746427856,0,-0.02220962535721438,4.9326745850782e-4,-0.02634788109878251,-0.02634788109878251,0,-0.02634788109878251,6.942108383955806e-4,1.009168950765298,1.009168950765298,0,0.00916895076529789,8.406965813645676e-5,0.08492009477878133,0.12804767034117623,0.013210616506489033
84,25000,30,7,1,0,1,6,250,2,clustered,200,100,4,TRUE,100,100,1.8042564392089844e-4,1.5089422363010567,1.5116342053586203,0.054240030465426345,0.008942236301056818,0.0029925246859054144,1.0115369276114345,1.0146011121860097,0.06700478556527913,0.011536927611434617,0.0045778455744740305,-0.014202887913823353,-0.011588038765513283,0.06438234325013172,-0.014202887913823353,0.0043053572862466315,200,200,1,4.49,100,100,0.13834839820861805,1.5038447491885674,1.5038447491885674,0,0.0038447491885673646,1.4782096322989408e-5,-0.0028036405229203572,-0.0028036405229203572,0,-0.0028036405229203572,7.860400181761134e-6,1.0098373274842725,1.0098373274842725,0,0.009837327484272462,9.677301203282237e-5,0.0049396739791695175,0.0018257254065466317,0.02113942256427928
85,5000,30,6,1,0.3,1,6,250,2,clustered,200,100,4,TRUE,100,100,1.916813850402832e-4,1.5460370675209851,1.5484012732886525,0.06261160648461614,0.04603706752098505,0.0060004227198503166,0.9436150468103954,0.9522018724321616,0.07997392897190794,-0.0563849531896046,0.009511133968245641,-0.018909080697503477,-0.02601930159706161,0.08813708895977299,-0.31890908069750346,0.10939346673712669,200,200,1,4.7,100,100,0.009908580780029281,1.5003556090153212,1.5003556090153212,0,3.5560901532116773e-4,1.264577717776905e-7,0.2320858118979863,0.2320858118979863,0,-0.06791418810201369,0.004612336945555698,0.9739366019993824,0.9739366019993824,0,-0.026063398000617632,6.793007153385992e-4,2.1074810506157983e-5,0.0421628190707145,0.07142163254208671
86,10000,30,6,1,0.3,1,6,250,2,clustered,200,100,4,TRUE,100,100,2.7073383331298816e-4,1.4636729340818155,1.4603699322504122,0.07236810906085156,-0.036327065918184416,0.006504427495176987,0.9771973250236872,0.9826286203743941,0.09805314193927381,-0.022802674976312817,0.0100382364437971,0.03442155824612629,0.030111820715233793,0.09138768223376667,-0.2655784417538737,0.078800100103835,200,200,1,4.7,100,100,0.028486061096191433,1.4881859014616803,1.4881859014616803,0,-0.011814098538319717,1.3957292427312808e-4,0.262438692676678,0.262438692676678,0,-0.03756130732332197,0.0014108518078370406,1.0004804682398043,1.0004804682398043,0,4.804682398042992e-4,2.3084972946064156e-7,0.02145814130092479,0.017904188014710127,2.2997040441629555e-5
87,25000,30,6,1,0.3,1,6,250,2,clustered,200,100,4,TRUE,100,100,2.0040512084960936e-4,1.4546457562420247,1.4515095091474017,0.057178456455805785,-0.0453542437579752,0.005293689550699625,1.0948452293365925,1.0891332266558416,0.11003159259090671,0.09484522933659245,0.02098149938232118,0.09539724109153175,0.10335821078702345,0.083851879717967,-0.20460275890846824,0.04882311530787082,200,200,1,4.77,100,100,0.15713686943054228,1.5055357087148984,1.5055357087148984,0,0.005535708714898391,3.0644070976201994e-5,0.24369370157124898,0.24369370157124898,0,-0.05630629842875101,0.0031703992427475685,1.0229993487077327,1.0229993487077327,0,0.02299934870773268,5.28970040979885e-4,0.0057887926148128595,0.06493643887235655,0.025211260231744463
88,5000,30,7,1,0.3,1,6,250,2,clustered,200,100,4,TRUE,100,100,1.924872398376465e-4,1.4973785642750475,1.4929851947491948,0.05987980207179882,-0.0026214357249525655,0.0035566067144562822,1.014969884554501,1.0070613841859801,0.09514516252727666,0.014969884554501055,0.009186173376393561,0.06466864074733494,0.06419901163354641,0.08173645923619385,-0.23533135925266505,0.06199488892849218,200,200,1,4.61,100,100,0.008817400932312019,1.476303912726543,1.476303912726543,0,-0.023696087273457067,5.61504552071294e-4,0.26786037723177536,0.26786037723177536,0,-0.03213962276822463,0.001032955351683783,0.9911580278958727,0.9911580278958727,0,-0.008841972104127294,7.818047069016524e-5,0.15787648091339057,0.016661943743059886,0.008510667879518995
89,10000,30,7,1,0.3,1,6,250,2,clustered,200,100,4,TRUE,100,100,1.8775701522827148e-4,1.505079021692958,1.5080782159053037,0.05070131690970225,0.005079021692957993,0.002570713762371817,1.0412171266584802,1.035337805281651,0.0713615000540858,0.041217126658480284,0.006740390583050801,0.09219696102744282,0.08562524595035506,0.07093991157499258,-0.20780303897255717,0.0481642493499552,200,200,1,4.68,100,100,0.027677450180053697,1.510421405332004,1.510421405332004,0,0.010421405332003975,1.0860568909392088e-4,0.24417365495116197,0.24417365495116197,0,-0.055826345048838016,0.003116580801511921,1.0138209491388295,1.0138209491388295,0,0.013820949138829475,1.910186350981112e-4,0.04224728971525715,0.06470734712104093,0.02833940151457118
90,25000,30,7,1,0.3,1,6,250,2,clustered,200,100,4,TRUE,100,100,1.961660385131836e-4,1.4933056487578733,1.488592655729167,0.05382588160247041,-0.006694351242126801,0.002913067613533295,1.058951641618313,1.0523994988011671,0.08205467037877745,0.05895164161831301,0.010140935291154134,0.09920093471403123,0.09675545253801834,0.06541106611658985,-0.20079906528596878,0.044556086114522546,200,200,1,4.71,100,100,0.15749386072158786,1.4995429152748476,1.4995429152748476,0,-4.570847251523791e-4,2.0892644596762593e-7,0.2476483168165057,0.2476483168165057,0,-0.052351683183494285,0.0027406987321449586,1.0190563161236155,1.0190563161236155,0,0.01905631612361547,3.631431842031669e-4,7.172042454387679e-5,0.06151120915559186,0.035809634296743234
91,5000,30,6,1,0.9,1,6,250,2,clustered,200,100,4,TRUE,100,99,6.704854965209962e-4,1.4922025713256064,1.4877144944318448,0.09436082839234815,-0.0077974286743936125,0.00887572616947353,4.560111439050708,4.582674206845004,0.48835837126624604,3.560111439050708,12.910502418257666,0.5660638963813825,0.5779716168471426,0.06949910708887039,-0.3339361036186175,0.11629514592727279,200,200,0.99,26.272727272727273,100,100,0.008979930877685534,1.5167661393818548,1.5167661393818548,0,0.016766139381854783,2.811034297717819e-4,0.8378000536817664,0.8378000536817664,0,-0.06219994631823367,0.00386883332199115,1.144505860663893,1.144505860663893,0,0.14450586066389293,0.020881943766212437,0.03167103450516385,0.03326736719011981,0.001617438507790509
92,10000,30,6,1,0.9,1,6,250,2,clustered,200,100,4,TRUE,100,98,8.145427703857422e-4,1.5766635907544162,1.582376618575179,0.09585888779813649,0.07666359075441619,0.014974343253557372,4.274978365106792,4.22661104477924,0.46559843994429567,3.274978365106792,10.940097380123332,0.5824658112925586,0.5860473193094993,0.06714653262531725,-0.3175341887074414,0.10529153127325977,200,200,0.98,34.51020408163265,100,100,0.0289645099639892,1.5032691379200096,1.5032691379200096,0,0.0032691379200096016,1.0687262740044705e-5,0.8407888768283891,0.8407888768283891,0,-0.059211123171610924,0.00350595710724368,1.1067186792386476,1.1067186792386476,0,0.10671867923864764,0.011388876498441362,7.137049391134927e-4,0.03329761724278452,0.0010410214921060393
93,25000,30,6,1,0.9,1,6,250,2,clustered,200,100,4,TRUE,100,100,3.220200538635254e-4,1.5125125115245177,1.5107879234283026,0.09310922362971606,0.012512511524517806,0.008739197194330379,4.193639504774047,4.156042788136042,0.40677211015814024,3.1936395047740467,10.3631422005599,0.42579412469660355,0.4215736376915358,0.07644489205203245,-0.4742058753033965,0.23065659547789882,200,200,1,12.28,100,100,0.1573330283164981,1.4991382559210198,1.4991382559210198,0,-8.617440789802089e-4,7.426028576574485e-7,0.8427873720433434,0.8427873720433434,0,-0.0572126279566566,0.0032732847977068047,1.1129589851136756,1.1129589851136756,0,0.11295898511367564,0.012759732317911594,8.497380722101314e-5,0.014191160633949642,0.0012312609506817548
94,5000,30,7,1,0.9,1,6,250,2,clustered,200,100,4,TRUE,100,94,9.915733337402344e-4,1.536727355203642,1.5431138867611764,0.09221941743675317,0.03672735520364201,0.009768275363104883,4.620503423149447,4.559184362261844,0.558997336935414,3.620503423149447,13.41739827951074,0.5870218854362897,0.5841264276161429,0.0661334078301547,-0.31297811456371033,0.10228519155077224,200,200,0.94,32.61702127659574,100,100,0.008830299377441413,1.488222622018375,1.488222622018375,0,-0.011777377981625037,1.3870663212206622e-4,0.83625317143177,0.83625317143177,0,-0.06374682856823,0.004063658152507304,1.1286671035666045,1.1286671035666045,0,0.1286671035666045,0.016555223540219325,0.014199705369277981,0.03972870452601331,0.0012338624221582698
95,10000,30,7,1,0.9,1,6,250,2,clustered,200,100,4,TRUE,100,100,3.848385810852051e-4,1.4930176273842362,1.4927215508439882,0.08944681665467834,-0.0069823726157638944,0.007969479206904455,4.583000988267927,4.516712210626716,0.4440692500647445,3.5830009882679272,13.033121605793479,0.4918593346483391,0.4865308104916409,0.0605155935039642,-0.40814066535166094,0.17020431840026215,200,200,1,15.38,100,100,0.028710711002349884,1.5022136442089677,1.5022136442089677,0,0.0022136442089677466,4.90022068389644e-6,0.8425142381525632,0.8425142381525632,0,-0.05748576184743681,0.0033046128151802217,1.1443962805752452,1.1443962805752452,0,0.14439628057524523,0.020850285843964943,6.148733884205475e-4,0.019415563871939524,0.0015997921660376882
96,25000,30,7,1,0.9,1,6,250,2,clustered,200,100,4,TRUE,100,92,0.0012618231773376463,1.5138045830094597,1.5142978499097328,0.0780061651048653,0.013804583009459762,0.006214678688488896,4.987130478930848,4.8204577942451206,0.7250620979692193,3.987130478930849,16.41766735147175,0.6058197602967028,0.6036081865948745,0.05484785145290117,-0.29418023970329726,0.08952021737279894,200,200,0.92,40.90217391304348,100,100,0.16158659934997552,1.5016689469227116,1.5016689469227116,0,0.0016689469227115783,2.785383830828447e-6,0.8411666809539049,0.8411666809539049,0,-0.05883331904609512,0.003461359429979619,1.1440194452909143,1.1440194452909143,0,0.14401944529091426,0.020741600621902646,4.4819434285277835e-4,0.038665672755966364,0.001263370744324606
97,5000,30,6,1,-0.3,1,4,250,2,uniform,200,100,6,TRUE,100,100,1.9108057022094728e-4,1.4998212627576468,1.5009106768847387,0.053311974791407535,-1.7873724235316523e-4,0.0028137769365998793,1.0410133576799212,1.0326199228025987,0.07391700726455303,0.04101335767992124,0.0070911822314996585,-0.04540863802427978,-0.04374496193777372,0.06549769557735358,0.2545913619757202,0.06906381023733643,200,200,1,4.6,100,100,0.012041540145874044,1.502844922849717,1.502844922849717,0,0.0028449228497169354,8.093586020841529e-6,-0.2880704113542265,-0.2880704113542265,0,0.011929588645773481,1.4231508525736755e-4,1.015729301201147,1.015729301201147,0,0.015729301201147017,2.47410916276405e-4,0.0028764135193394833,0.0020606318239365096,0.03488993911020702
98,10000,30,6,1,-0.3,1,4,250,2,uniform,200,100,6,TRUE,100,100,1.8260717391967775e-4,1.5130251137161868,1.5119324017167082,0.05563939149876849,0.01302511371618683,0.003234438054809296,1.109825238624555,1.1121762438100076,0.0824129458961436,0.10982523862455511,0.01878555775370836,-0.04805968802631748,-0.05027769002897653,0.06666290294873393,0.2519403119736825,0.06787342400065327,200,200,1,4.64,100,100,0.03734175920486454,1.5074034012343476,1.5074034012343476,0,0.007403401234347573,5.4810349836739166e-5,-0.31614002953856735,-0.31614002953856735,0,-0.016140029538567358,2.6050055350582683e-4,1.0432495768468437,1.0432495768468437,0,0.04324957684684372,0.0018705258974310401,0.016945864755468568,0.0038380346555570784,0.09957255046429427
99,25000,30,6,1,-0.3,1,4,250,2,uniform,200,100,6,TRUE,100,100,3.129029273986815e-4,1.506061982147393,1.5090501921563395,0.05335596452994416,0.006061982147393123,0.002855137988966766,1.0489592963279275,1.039696398365618,0.0882272006756864,0.04895929632792761,0.010103211246602987,-0.008926326440013144,-0.014526321045914928,0.0755025419392371,0.29107367355998687,0.09036751094059918,200,200,1,4.59,100,100,0.20303982019424444,1.4965914620949754,1.4965914620949754,0,-0.0034085379050246,1.1618130649989489e-5,-0.3225561320673833,-0.3225561320673833,0,-0.022556132067383328,5.087790938412385e-4,1.0365573205615326,1.0365573205615326,0,0.0365573205615326,0.0013364376866386544,0.004069201101623087,0.005630110739419078,0.13227850571648753
100,5000,30,7,1,-0.3,1,4,250,2,uniform,200,100,6,TRUE,100,100,2.213168144226074e-4,1.495271597124034,1.4927989821157048,0.05270376783583811,-0.004728402875965974,0.00277226806641043,1.0429593347135824,1.0448278311055377,0.07485068199418696,0.04295933471358234,0.007392102788078556,-0.08048616897561717,-0.08145429931805256,0.07362263744290422,0.21951383102438282,0.05355241182761012,200,200,1,4.93,100,100,0.013212931156158472,1.4886381705626504,1.4886381705626504,0,-0.011361829437349646,1.2909116816342499e-4,-0.3165485294316468,-0.3165485294316468,0,-0.016548529431646808,2.738538263500806e-4,1.0085734815024925,1.0085734815024925,0,0.008573481502492486,7.350458507358082e-5,0.04656518239615044,0.0051137533680395185,0.009943663823523078
101,10000,30,7,1,-0.3,1,4,250,2,uniform,200,100,6,TRUE,100,100,1.8610715866088865e-4,1.5154247189898755,1.5148481529797322,0.05127779701603794,0.015424718989875626,0.002841040298066439,1.0440155728521796,1.049635094203904,0.07091918197268679,0.044015572852179705,0.006916605721463852,-0.07319405535126569,-0.07968023930105447,0.07031127714062681,0.2268059446487343,0.056335175464219296,200,200,1,4.84,100,100,0.03981218099594111,1.5129220603174798,1.5129220603174798,0,0.012922060317479778,1.6697964284858558e-4,-0.3058185426167194,-0.3058185426167194,0,-0.005818542616719435,3.3855438182580254e-5,1.010161481708553,1.010161481708553,0,0.01016148170855291,1.0325571051325538e-4,0.058774119804716925,6.009644578826808e-4,0.014928668001535588
102,25000,30,7,1,-0.3,1,4,250,2,uniform,200,100,6,TRUE,100,100,1.7792940139770507e-4,1.497619922789223,1.4963895828491443,0.04790345609530108,-0.002380077210777028,0.0022774584623449527,1.0389481653406645,1.046327549446473,0.07825613590242432,0.03894816534066458,0.007579742161718662,-0.05530789466877734,-0.055685314282813356,0.07343431806970142,0.24469210533122265,0.06521289949108462,200,200,1,4.69,100,100,0.19685003042221072,1.4961405630185378,1.4961405630185378,0,-0.003859436981462183,1.4895253813877927e-5,-0.2739601200852933,-0.2739601200852933,0,0.026039879914706687,6.780753459723447e-4,1.0169337150427813,1.0169337150427813,0,0.016933715042781294,2.867507051501175e-4,0.006540296589445254,0.010397871452795098,0.03783119518211929
103,5000,30,6,1,0,1,4,250,2,uniform,200,100,6,TRUE,100,100,2.5435209274291985e-4,1.4768266826408374,1.476231942215558,0.06277767267265717,-0.023173317359162574,0.0044386284617618,1.0354490998223136,1.0369614444081625,0.07355502491620364,0.03544909982231364,0.006612876951731462,-0.010630995466085376,-0.01932803636762035,0.07534708738426601,-0.010630995466085376,0.005733429806119224,200,200,1,4.56,100,100,0.01123986005783081,1.475738578865648,1.475738578865648,0,-0.024261421134351924,5.886165554583782e-4,0.001207813701734862,0.001207813701734862,0,0.001207813701734862,1.45881393809847e-6,1.0284188853366083,1.0284188853366083,0,0.0284188853366083,8.076330437752903e-4,0.13261226086599326,2.544400101561363e-4,0.1221303601549438
104,10000,30,6,1,0,1,4,250,2,uniform,200,100,6,TRUE,100,100,1.7939805984497071e-4,1.505457154418388,1.5036332102089276,0.05068562303659613,0.005457154418387998,0.002573122593127976,0.9943301653066455,0.9969879074534646,0.07146814148756567,-0.0056698346933544835,0.005088765320659802,0.008402635436466875,0.00947251270391215,0.0684649196625426,0.008402635436466875,0.004711175054432599,200,200,1,4.4,100,100,0.03595269918441766,1.5148758236677669,1.5148758236677669,0,0.014875823667766852,2.2129012979449245e-4,0.011785930865831691,0.011785930865831691,0,0.011785930865831691,1.3890816637416415e-4,0.9958200881028694,0.9958200881028694,0,-0.004179911897130628,1.7471663467774168e-5,0.08600061667698645,0.029484823800692728,0.0034333796838382827
105,25000,30,6,1,0,1,4,250,2,uniform,200,100,6,TRUE,100,100,1.7794370651245118e-4,1.4887863065124884,1.4894785521547171,0.051354010083758186,-0.01121369348751156,0.0027366089297977693,0.9634268134632293,0.9647738317513046,0.06925859058063169,-0.03657318653677065,0.006086382818976828,0.009997003465950617,-0.004172847823522927,0.06156559154605301,0.009997003465950617,0.003852358920089508,200,200,1,4.42,100,100,0.19935637950897206,1.4911295413765209,1.4911295413765209,0,-0.008870458623479127,7.868503619085521e-5,-0.009946157204569709,-0.009946157204569709,0,-0.009946157204569709,9.892604313801393e-5,0.9792381947918066,0.9792381947918066,0,-0.020761805208193373,4.310525555029655e-4,0.02875275138295697,0.025679342239407803,0.07082245207432238
106,5000,30,7,1,0,1,4,250,2,uniform,200,100,6,TRUE,100,100,1.7692327499389647e-4,1.485589976389583,1.4825287942560637,0.053160796512933185,-0.014410023610417034,0.00300545836348337,1.0109151811943207,1.0080680427336803,0.07492834700940249,0.010915181194320738,0.005677255794210672,-0.0058180958852633805,-0.009898719329307203,0.0737368084620289,-0.0058180958852633805,0.005416595992674397,200,200,1,4.48,100,100,0.011630191802978519,1.496303795012849,1.496303795012849,0,-0.003696204987150953,1.3661931307039576e-5,-0.016320028559139676,-0.016320028559139676,0,-0.016320028559139676,2.6634333217113467e-4,1.0152940153803713,1.0152940153803713,0,0.01529401538037134,2.339069064550351e-4,0.004545706396413091,0.04917171827681945,0.041200698882294405
107,10000,30,7,1,0,1,4,250,2,uniform,200,100,6,TRUE,100,100,1.7771482467651367e-4,1.4892939590250573,1.4912454253196443,0.05352328383521863,-0.010706040974942729,0.0029507138067374743,0.9967175811030051,0.9930121558292901,0.06421945993774686,-0.0032824188969949146,0.004093671918164264,0.013881325782273619,0.01527216298683155,0.06680653652126346,0.013881325782273619,0.004611173394220856,200,200,1,4.44,100,100,0.03725240945816045,1.4925024608547763,1.4925024608547763,0,-0.007497539145223664,5.621309323416119e-5,0.029477377351965265,0.029477377351965265,0,0.029477377351965265,8.689157755501547e-4,1.0116422568678551,1.0116422568678551,0,0.011642256867855139,1.3554214497712015e-4,0.019050676180728792,0.18843702052912592,0.033110163121694826
108,25000,30,7,1,0,1,4,250,2,uniform,200,100,6,TRUE,100,100,1.9412994384765625e-4,1.5037730351985845,1.5043299423934646,0.046123341065758834,0.0037730351985845066,0.002120324759767389,0.9782359829346727,0.9707073243081807,0.07191333036816962,-0.02176401706532725,0.005593484252614949,-0.008212225203694927,-0.007280830454099047,0.07361996466782794,-0.008212225203694927,0.005433140848511512,200,200,1,4.51,100,100,0.1995107603073118,1.501678064349329,1.501678064349329,0,0.0016780643493290448,2.8158999604891106e-6,-0.016143332262090093,-0.016143332262090093,0,-0.016143332262090093,2.606071765242388e-4,0.9894074147939513,0.9894074147939513,0,-0.010592585206048666,1.1220286134740106e-4,0.001328051256071749,0.04796621029908251,0.02005956507251206
109,5000,30,6,1,0.3,1,4,250,2,uniform,200,100,6,TRUE,100,100,2.620577812194825e-4,1.5214845581068448,1.5251622898355932,0.05240053647304504,0.02148455810684484,0.0031799442974826874,1.0576927210409557,1.0586827621917416,0.07995857749833189,0.05769272104095577,0.009657890435510724,0.057664542369667726,0.046543223727462564,0.07572566418337598,-0.24233545763033226,0.06440350647875587,200,200,1,4.54,100,100,0.011671631336212138,1.5365982859767209,1.5365982859767209,0,0.03659828597672088,0.0013394345364338442,0.29380595481709654,0.29380595481709654,0,-0.0061940451829034515,3.8366195727849454e-5,1.0152966762411906,1.0152966762411906,0,0.015296676241190577,2.3398830402780426e-4,0.4212132072546584,5.957159450705518e-4,0.02422768259696359
110,10000,30,6,1,0.3,1,4,250,2,uniform,200,100,6,TRUE,100,100,1.899576187133789e-4,1.5115560193512805,1.5187504206920344,0.052979083447336005,0.011556019351280415,0.002912257033337761,1.070750435390483,1.071923239039753,0.0802269357819347,0.07075043539048302,0.011377621720651997,0.04069597137025262,0.0375705739154123,0.07282951000599322,-0.2593040286297474,0.07248967541605278,200,200,1,4.5,100,100,0.037957901954650805,1.5034090120652324,1.5034090120652324,0,0.003409012065232364,1.1621363260899828e-5,0.30381916695478256,0.30381916695478256,0,0.0038191669547825713,1.458603622850318e-5,1.0208284362195241,1.0208284362195241,0,0.020828436219524127,4.338237553507845e-4,0.003990500538882892,2.0121536128816923e-4,0.03812956398113789
111,25000,30,6,1,0.3,1,4,250,2,uniform,200,100,6,TRUE,100,100,2.0233869552612304e-4,1.5038064419744936,1.5047010858499714,0.057386365401653844,0.0038064419744937117,0.0032747519851771983,1.0671686218572103,1.074213968634125,0.07649835489421612,0.06716862185721036,0.010305102080703144,0.01793979739545234,0.014609144668836479,0.07808855211869731,-0.28206020260454767,0.08559480164559302,200,200,1,4.45,100,100,0.20809578895568848,1.4978114127392554,1.4978114127392554,0,-0.0021885872607445567,4.7899141978933625e-6,0.30731741265638224,0.30731741265638224,0,0.0073174126563822495,5.3544527983783126e-5,1.021298906415643,1.021298906415643,0,0.021298906415643026,4.5364341450231967e-4,0.001462679989072265,6.255581758981732e-4,0.04402124413224312
112,5000,30,7,1,0.3,1,4,250,2,uniform,200,100,6,TRUE,100,100,2.0510196685791015e-4,1.4675030608932031,1.4674937873165976,0.05090979266220362,-0.03249693910679696,0.0036219399703303467,1.0935200300899222,1.0899670070576652,0.08174866232273696,0.0935200300899222,0.015362011381661256,0.19563630896211223,0.18923696073082813,0.06313927606736125,-0.10436369103788774,0.014838482507539046,200,200,1,5.82,100,100,0.012042279243469225,1.4835376150014232,1.4835376150014232,0,-0.016462384998576773,2.710101198413656e-4,0.3557327337856048,0.3557327337856048,0,0.05573273378560484,0.0031061376152170988,1.0259450442086495,1.0259450442086495,0,0.025945044208649515,6.731453189887778e-4,0.07482457524458848,0.20932987006177695,0.043818826992431475
113,10000,30,7,1,0.3,1,4,250,2,uniform,200,100,6,TRUE,100,100,2.910876274108887e-4,1.5130765203767302,1.5140856903218782,0.05050351087321475,0.013076520376730346,0.002696093949578755,1.0701637729988795,1.0656960786118423,0.074331668312044,0.07016377299887946,0.010392899986349496,0.14006043078722782,0.14443050968411345,0.06709730900117318,-0.15993956921277216,0.03003769418641406,200,200,1,5.13,100,100,0.04181929111480708,1.5159377742148556,1.5159377742148556,0,0.01593777421485565,2.540126469237176e-4,0.31625908330048547,0.31625908330048547,0,0.016259083300485477,2.6435778977212574e-4,1.0224806779098894,1.0224806779098894,0,0.02248067790988939,5.053808792881889e-4,0.09421505766273656,0.008800868273427385,0.04862751300907148
114,25000,30,7,1,0.3,1,4,250,2,uniform,200,100,6,TRUE,100,100,1.8506526947021485e-4,1.4860552993419023,1.4850605974750386,0.051137809988787246,-0.013944700658097746,0.002783379530788766,1.1023864684154498,1.1093192047190135,0.07949248582767318,0.10238646841544977,0.016738853664620083,0.08373157047254953,0.08828980704820324,0.07336615747610056,-0.21626842952745046,0.05210080074244971,200,200,1,4.54,100,100,0.20550530195236225,1.4801809860897805,1.4801809860897805,0,-0.019819013910219452,3.9279331237347215e-4,0.3165736437480874,0.3165736437480874,0,0.016573643748087397,2.7468566708851647e-4,1.0309439714170987,1.0309439714170987,0,0.030943971417098703,9.575293670622216e-4,0.14112100345228906,0.005272196649075938,0.05720399892652711
115,5000,30,6,1,0.9,1,4,250,2,uniform,200,100,6,TRUE,100,99,6.18305206298828e-4,1.4669446055102906,1.4800454627442172,0.11204291655786557,-0.03305539448970933,0.013520738104155201,7.567834727962421,7.533043921202578,0.8653954275671025,6.567834727962421,43.87787316742272,0.5546596549281503,0.5620196210042248,0.06869004794572667,-0.34534034507184974,0.12393109339426261,200,200,0.99,26.7979797979798,100,100,0.012098309993743867,1.4823661681143332,1.4823661681143332,0,-0.017633831885666806,3.1095202697195936e-4,0.9508249798727276,0.9508249798727276,0,0.050824979872727605,0.002583178579063166,1.4732692313303286,1.4732692313303286,0,0.4732692313303286,0.2239837653240001,0.02299815472917099,0.02084366810873916,0.0051047088009338075
116,10000,30,6,1,0.9,1,4,250,2,uniform,200,100,6,TRUE,100,100,3.002285957336426e-4,1.4745881402691745,1.4755286965198928,0.16241641270268714,-0.02541185973082543,0.026761062819036646,8.971013163912422,8.89777420530904,0.9130363268195637,7.9710131639124215,64.36234984001636,0.400062942224038,0.407348778602762,0.0809527316081195,-0.49993705777596203,0.2564248730449537,200,200,1,11.56,100,100,0.03716634988784784,1.5022640766743887,1.5022640766743887,0,0.0022640766743886598,5.126043187510813e-6,0.9614670087623757,0.9614670087623757,0,0.06146700876237565,0.0037781931661939653,1.5387761086205745,1.5387761086205745,0,0.5387761086205745,0.29027969522032904,1.9154856524847627e-4,0.014734113431857338,0.004510085413939499
117,25000,30,6,1,0.9,1,4,250,2,uniform,200,100,6,TRUE,100,100,2.5014162063598635e-4,1.5028550213912304,1.504345650229373,0.12946515715897186,0.0028550213912303603,0.016601765796159698,7.906903706640095,7.850260925064846,0.7595202479512548,6.906903706640095,48.27642110977614,0.25843400913233266,0.26627374970594353,0.08068902574961219,-0.6415659908676674,0.4180525323256692,200,200,1,7.54,100,100,0.23998215913772603,1.5006804835938397,1.5006804835938397,0,6.804835938396536e-4,4.630579214849307e-7,0.9610078897970404,0.9610078897970404,0,0.061007889797040415,0.003721962617487828,1.4886120108995011,1.4886120108995011,0,0.4886120108995011,0.2387416971952542,2.789208853868091e-5,0.00890309788767973,0.004945306460318953
118,5000,30,7,1,0.9,1,4,250,2,uniform,200,100,6,TRUE,100,0,0.005455539226531982,1.5866637992883361,1.5822044682804017,0.1045830952742792,0.08666379928833613,0.018338861686066483,156.01964226583777,9.21862494369218,228.25987131227464,155.01964226583777,75612.63265120955,0.564183131761597,0.8292822125098326,0.37942170204407655,-0.33581686823840307,0.25529418869565274,200,200,0,NA,100,100,0.012171039581298821,1.5269876534566287,1.5269876534566287,0,0.02698765345662868,7.28333439095082e-4,0.9695935292196552,0.9695935292196552,0,0.06959352921965523,0.0048432593092470055,1.4682706331156605,1.4682706331156605,0,0.46827063311566053,0.21927738583854153,0.03971530248512948,0.018971286945434016,2.90000993418702e-6
119,10000,30,7,1,0.9,1,4,250,2,uniform,200,100,6,TRUE,100,14,0.005699567794799805,1.5242020363598277,1.5176366190500614,0.08431058878931727,0.024202036359827574,0.007622931192143753,11.51000250946941,10.808921565875316,5.377576902139657,10.51000250946941,139.08930275409497,0.5018411209793419,0.4792731320173613,0.1375792021653943,-0.3981588790206581,0.17726924944276884,200,200,0.14,99.71428571428571,100,100,0.04605654001235958,1.501964744261719,1.501964744261719,0,0.001964744261718998,3.86022001395773e-6,0.9548396003019739,0.9548396003019739,0,0.05483960030197388,0.0030073817612802536,1.417707038298274,1.417707038298274,0,0.41770703829827394,0.17447916984391568,5.063957573086978e-4,0.01696505045705168,0.0012544398914155802
120,25000,30,7,1,0.9,1,4,250,2,uniform,200,100,6,TRUE,100,98,7.371258735656738e-4,1.4896078974257274,1.4891013736708443,0.10886602468806637,-0.010392102574272574,0.011841289013983052,7.737793674971809,7.684963428438614,0.750639120034582,6.737793674971809,45.95568810413115,0.5892932489472587,0.5831548507256161,0.05232174641150682,-0.31070675105274137,0.09924887464582474,200,200,0.98,32.69387755102041,100,100,0.21193212032318134,1.4938823110744506,1.4938823110744506,0,-0.006117688925549425,3.742611778979008e-5,0.9604585930424249,0.9604585930424249,0,0.060458593042424846,0.003655241472669542,1.4759278484058185,1.4759278484058185,0,0.4759278484058185,0.22650731688819173,0.0031606455805271373,0.03682904703668912,0.004928820048890314
121,5000,30,6,1,-0.3,1,6,250,2,uniform,200,100,6,TRUE,100,100,1.909184455871582e-4,1.4818859212060902,1.4833311116546422,0.05319640416521094,-0.018114078793909905,0.003129678692499364,1.0704617349662588,1.0764472749554872,0.07319032642605354,0.07046173496625881,0.010268111737984049,-0.034847475517196136,-0.03923719988680019,0.07275792986195395,0.26515252448280385,0.07554664043382293,200,200,1,4.67,100,100,0.011813130378723141,1.4873133111334784,1.4873133111334784,0,-0.012686688866521578,1.6095207439592257e-4,-0.3403050261647029,-0.3403050261647029,0,-0.040305026164702884,0.001624495134137384,1.0052548082670798,1.0052548082670798,0,0.005254808267079802,2.7613009923770235e-5,0.05142766724956871,0.0215032081480897,0.0026892003737769544
122,10000,30,6,1,-0.3,1,6,250,2,uniform,200,100,6,TRUE,100,100,1.9079923629760742e-4,1.5183015797285042,1.5228309712777919,0.06264395766767025,0.018301579728504318,0.004219970598504974,1.0515685149597653,1.045917173638338,0.09153151758922051,0.051568514959765416,0.010953550260219477,-0.008789423957951178,-0.006424748311485255,0.066870790389802,0.2912105760420488,0.08923058518002515,200,200,1,4.53,100,100,0.03822642087936394,1.497178536552139,1.497178536552139,0,-0.002821463447860939,7.960655987615338e-6,-0.2976624897888495,-0.2976624897888495,0,0.002337510211150473,5.46395398723273e-6,1.0103330977491376,1.0103330977491376,0,0.010333097749137599,1.0677290909323251e-4,0.0018864245145299335,6.12340934020443e-5,0.00974779012801034
123,25000,30,6,1,-0.3,1,6,250,2,uniform,200,100,6,TRUE,100,100,1.8308639526367187e-4,1.505145431654172,1.5083162204546463,0.05563764506628807,0.005145431654172001,0.0030910675399447828,1.0394513591148675,1.0339762554942988,0.08299401219660896,0.03945135911486746,0.008375535735896205,-0.02425723798596223,-0.028340029285759766,0.06078478432964802,0.27574276201403775,0.07969191290907207,200,200,1,4.43,100,100,0.21682408094406141,1.4971994269174522,1.4971994269174522,0,-0.002800573082547775,7.843209590691146e-6,-0.27650394987455584,-0.27650394987455584,0,0.023496050125444146,5.520643714973839e-4,1.0114879498529852,1.0114879498529852,0,0.01148794985298518,1.319729918247022e-4,0.0025373789117630386,0.0069274829947586465,0.015756961224472732
124,5000,30,7,1,-0.3,1,6,250,2,uniform,200,100,6,TRUE,100,100,1.8379926681518554e-4,1.5174806767197129,1.5120278188194485,0.04703861356741955,0.017480676719712946,0.00249607891326069,1.0042375204001017,1.0082981297926232,0.07183096307414191,0.004237520400101731,0.005126046962738429,-0.07405990360584047,-0.07473569153139015,0.06773200854753905,0.22594009639415952,0.05559067589066716,200,200,1,4.75,100,100,0.011897809505462655,1.5219612334370416,1.5219612334370416,0,0.021961233437041594,4.8229577407623376e-4,-0.326224710757823,-0.326224710757823,0,-0.02622471075782301,6.87735454331478e-4,0.9762140773761828,0.9762140773761828,0,-0.02378592262381718,5.657701150662179e-4,0.19322136472288,0.012371417388126027,0.11037162148119943
125,10000,30,7,1,-0.3,1,6,250,2,uniform,200,100,6,TRUE,100,100,1.8770217895507812e-4,1.4807725047451017,1.4769993493857774,0.056569325211922684,-0.019227495254898214,0.0035377842431600815,1.0497555472726756,1.0536467728110126,0.0739655455040224,0.049755547272675685,0.007891807386893997,-0.06702984236414203,-0.0671451501858824,0.0635181355311937,0.23297015763585796,0.05826930235482201,200,200,1,4.77,100,100,0.03954563140869134,1.489316505070959,1.489316505070959,0,-0.010683494929041082,1.1413706389884651e-4,-0.32878307404413065,-0.32878307404413065,0,-0.028783074044130663,8.284653514299083e-4,1.0145988095955127,1.0145988095955127,0,0.01459880959551274,2.1312524160603486e-4,0.03226230206647509,0.014217869752156895,0.02700588485724754
126,25000,30,7,1,-0.3,1,6,250,2,uniform,200,100,6,TRUE,100,100,1.8850088119506836e-4,1.4941826235460076,1.4982405724153507,0.04512477135016159,-0.005817376453992484,0.0020497244083177864,1.0319269216543085,1.0302864318611555,0.07640409824203352,0.031926921654308535,0.006798538692216881,-0.032798466399212516,-0.02961414069876402,0.07072977730712317,0.26720153360078747,0.07634933394254884,200,200,1,4.53,100,100,0.22310849905014027,1.5006464807419044,1.5006464807419044,0,6.464807419044316e-4,4.179373496533043e-7,-0.29550399282109086,-0.29550399282109086,0,0.004496007178909134,2.021408055280247e-5,1.0014737187789735,1.0014737187789735,0,0.0014737187789735096,2.171847039499172e-6,2.0389928907384503e-4,2.647577851564902e-4,3.194579214479651e-4
127,5000,30,6,1,0,1,6,250,2,uniform,200,100,6,TRUE,100,100,1.9729375839233398e-4,1.473900129997175,1.4730556911635302,0.052421556984589994,-0.026099870002824908,0.0034017426544860887,1.0023680909727275,1.0089530099690964,0.07520370075941558,0.0023680909727274114,0.005604648496687719,-0.013319164293625549,-0.011848241995021613,0.07624847050550199,-0.013319164293625549,0.005933091099364713,200,200,1,4.45,100,100,0.01198876142501834,1.4873054426627335,1.4873054426627335,0,-0.012694557337266543,1.6115178598914782e-4,0.022654145612645876,0.022654145612645876,0,0.022654145612645876,5.132103134389623e-4,1.001460814028135,1.001460814028135,0,0.0014608140281349158,2.1339776247957586e-6,0.0473733031440891,0.08649965167295584,3.807513755870532e-4
128,10000,30,6,1,0,1,6,250,2,uniform,200,100,6,TRUE,100,100,1.8817663192749023e-4,1.4980084183890237,1.496144565188956,0.05340157771275379,-0.001991581610976445,0.002827177614502349,1.0037282736883553,1.0127001214322706,0.07722788054208785,0.0037282736883552047,0.005918404102388042,0.003629513113834007,0.008808753873933437,0.06747585295914803,0.003629513113834007,0.0045206341906824125,200,200,1,4.35,100,100,0.03868645191192622,1.498367316687773,1.498367316687773,0,-0.0016326833122271012,2.6656547980248578e-6,-0.0038026893525892214,-0.0038026893525892214,0,-0.0038026893525892214,1.4460446312295432e-5,1.0144926762305744,1.0144926762305744,0,0.014492676230574375,2.1003766432425549e-4,9.428678213745962e-4,0.003198764974635684,0.03548890219231676
129,25000,30,6,1,0,1,6,250,2,uniform,200,100,6,TRUE,100,100,1.8401384353637694e-4,1.5299135194932605,1.5315301491082003,0.05897810122712384,0.02991351949326044,0.004338450908586971,1.0261766771648502,1.0241425784534202,0.0806900241546073,0.026176677164850275,0.007130989625483192,-0.0050116013886246855,-0.005813617463403323,0.07226291034829758,-0.0050116013886246855,0.005194825078364501,200,200,1,4.54,100,100,0.22520281791687047,1.5078123455222672,1.5078123455222672,0,0.007812345522267172,6.103274255928794e-5,-0.023717931891919203,-0.023717931891919203,0,-0.023717931891919203,5.62540293229718e-4,1.0117411956225602,1.0117411956225602,0,0.011741195622560152,1.3785567464722569e-4,0.014067865200108082,0.10828859196291243,0.01933191350532706
130,5000,30,7,1,0,1,6,250,2,uniform,200,100,6,TRUE,100,100,1.8135786056518554e-4,1.5143223758717665,1.5189962963246098,0.05282375835817272,0.014322375871766447,0.0029675764032239533,0.9589433334138974,0.9624808508322638,0.06854428552707424,-0.04105666658610258,0.006336985758795302,-0.001975513226564145,0.002015930760440717,0.0738918997994031,-0.001975513226564145,0.005409315379913707,200,200,1,4.54,100,100,0.012218518257141112,1.522294102266104,1.522294102266104,0,0.022294102266104066,4.970269958515064e-4,0.03817663005651465,0.03817663005651465,0,0.03817663005651465,0.0014574550824719777,0.9929252236181509,0.9929252236181509,0,-0.007074776381849057,5.005246085316924e-5,0.16748582961892403,0.26943429622978055,0.007898465099704518
131,10000,30,7,1,0,1,6,250,2,uniform,200,100,6,TRUE,100,100,1.9783496856689452e-4,1.5074284345661013,1.506049882990088,0.04658405829222437,0.007428434566101322,0.002203555382206473,1.0022925998181123,1.0041444884256057,0.07236233883169706,0.002292599818112165,0.005189201014307407,0.007962822961195474,0.011477985313166067,0.07423150716764673,0.007962822961195474,0.005518620039327926,200,200,1,4.47,100,100,0.04320208072662351,1.503402500480471,1.503402500480471,0,0.0034025004804709713,1.1577009519605191e-5,0.02301001618078604,0.02301001618078604,0,0.02301001618078604,5.294608446400354e-4,0.9979894166937046,0.9979894166937046,0,-0.0020105833062954437,4.042445231553918e-6,0.005253786500257077,0.09594080419867332,7.790111079544402e-4
132,25000,30,7,1,0,1,6,250,2,uniform,200,100,6,TRUE,100,100,2.792811393737794e-4,1.4917587266415426,1.4939146414994466,0.05368394426720679,-0.008241273358457448,0.0029210647999325387,1.0116763131113153,1.0061028267790886,0.0812741782808258,0.011676313111315423,0.006675773422544695,-0.0028885691494968074,-0.002898046889915561,0.07161087994933787,-0.0028885691494968074,0.005085180777578722,200,200,1,4.43,100,100,0.2217951011657718,1.4932402900222583,1.4932402900222583,0,-0.006759709977741668,4.5693678983180265e-5,-4.1404878124820857e-4,-4.1404878124820857e-4,0,-4.1404878124820857e-4,1.7143639325312687e-7,1.0079410967317863,1.0079410967317863,0,0.007941096731786335,6.306101730358761e-5,0.01564281592939518,3.37129397658809e-5,0.009446248893143199
133,5000,30,6,1,0.3,1,6,250,2,uniform,200,100,6,TRUE,100,100,1.953887939453125e-4,1.511277315110972,1.516761270773972,0.0579497399035883,0.011277315110972045,0.0034517684674567587,1.0089480814678673,1.0038403636521582,0.08943048985206178,0.008948081467867247,0.007997902551983519,0.04685682793419734,0.05686399806580716,0.0780761498180081,-0.25314317206580267,0.07011639188223658,200,200,1,4.53,100,100,0.010653779506683355,1.4989643061962739,1.4989643061962739,0,-0.0010356938037261454,1.0726616550767313e-6,0.3000624869477093,0.3000624869477093,0,6.248694770932817e-5,3.904618634028313e-9,0.9925711000593074,0.9925711000593074,0,-0.007428899940692624,5.518855432882287e-5,3.107571278866979e-4,5.5687672015215554e-8,0.006900378439236652
