vincnardelli/pairwise-h3/output/ConfigDigest-86b3064a_run_20250512_102438/data/summary_stats_by_scenario_20250512_102438.csv
scenario_id,TOTAL_POINTS_TO_GENERATE_scenario,H3_RESOLUTION_scenario,K_RING_SEPARATION_scenario,PSI_TRUE_scenario,TARGET_Q_PAIRS_scenario,MIN_OBS_PER_H3_scenario,DATA_TYPE_scenario,BETA_TRUE_scenario,SIGMA_SQ_TRUE_scenario,MAX_ITERATIONS_H3_SELECT_scenario,N_SIMULATIONS_per_scenario,K_FOR_GM_WEIGHTS_scenario,RUN_GM_MODEL_scenario,N_Valid_Runs_PW,N_Converged_PW,Mean_Time_PW,Mean_Beta_Hat_PW,Median_Beta_Hat_PW,SD_Beta_Hat_PW,Bias_Beta_PW,MSE_Beta_PW,Mean_SigmaSq_Hat_PW,Median_SigmaSq_Hat_PW,SD_SigmaSq_Hat_PW,Bias_SigmaSq_PW,MSE_SigmaSq_PW,Mean_Psi_Hat_PW,Median_Psi_Hat_PW,SD_Psi_Hat_PW,Bias_Psi_PW,MSE_Psi_PW,Avg_Q_Pairs_Used_PW,Avg_H3_Selected_Count,ConvergenceRate_PW,Avg_Iterations_To_Converge_PW,N_Valid_Runs_GM,N_Converged_GM,Mean_Time_GM,Mean_Beta_Hat_GM,Median_Beta_Hat_GM,SD_Beta_Hat_GM,Bias_Beta_GM,MSE_Beta_GM,Mean_Lambda_Hat_GM,Median_Lambda_Hat_GM,SD_Lambda_Hat_GM,Mean_SigmaSq_Hat_GM,Median_SigmaSq_Hat_GM,SD_SigmaSq_Hat_GM,Bias_SigmaSq_GM,MSE_SigmaSq_GM
1,10000,6,1,-0.3,50,2,uniform,1.5,1,200,10,4,TRUE,10,10,0.005282187461853026,1.469856603585404,1.4455564140747814,0.10819943514811199,-0.030143396414596086,0.01144503033714093,1.956724415021001,1.9454369152740332,0.3040933772765681,0.9567244150210009,0.9985471101903988,-0.20353406184086875,-0.21240607588889648,0.10774650465391948,0.09646593815913122,0.01975405556354471,50,50,1,6.9,10,10,0.014179325103759766,1.4615729937246982,1.4636277041591716,0.10077796810436149,-0.038427006275301864,0.010617213781001418,-0.15770577775458477,-0.11080338004731156,0.15333469344249248,1.926448069941021,1.9461962670982824,0.30473627016497384,0.926448069941021,0.9418838012160968
2,25000,6,1,-0.3,50,2,uniform,1.5,1,200,10,4,TRUE,10,10,2.0389556884765626e-4,1.5018505264177386,1.5185801566375239,0.110176430004673,0.001850526417738685,0.010928385603739899,1.8990331864692294,1.8709643122486774,0.19318663648525441,0.8990331864692294,0.8418496392378535,-0.1550923313344565,-0.16410223603823687,0.1574170525825518,0.1449076686655435,0.043300348037483026,50,50,1,6.5,10,10,0.010181212425231933,1.4897196021747552,1.4942541309625654,0.10642641557090395,-0.010280397825244907,0.010299610317588973,-0.08686448088080817,-0.06097884965405604,0.1089436837702365,1.8840508485639333,1.8621192148662797,0.19937766240427152,0.8840508485639333,0.8173222098858232
3,10000,7,1,-0.3,50,2,uniform,1.5,1,200,10,4,TRUE,10,10,0.001727986335754395,1.4666597693479457,1.4988676359836526,0.15770949470553725,-0.03334023065205427,0.02349662722818047,1.9619087767568155,1.8839363447433146,0.37006816938456805,0.9619087767568154,1.0485238997942739,-0.22231793519466544,-0.2195121141574862,0.10964979243598606,0.07768206480533453,0.016855272475549535,50,50,1,6.9,10,10,0.012075471878051757,1.4807938550479935,1.4689352051007125,0.16865008257165715,-0.019206144952006454,0.02596744132020158,-0.167986209400317,-0.12718128217718122,0.19478954638285395,1.917280301708117,1.8491519104173026,0.3697257051351209,0.917280301708117,0.9644305392356303
4,25000,7,1,-0.3,50,2,uniform,1.5,1,200,10,4,TRUE,10,10,2.3200511932373047e-4,1.4302016277035292,1.4708516167755943,0.12852735656061312,-0.0697983722964707,0.01973916602124981,1.957937704744516,2.007656683102673,0.17682716102966817,0.9579377047445159,0.9457857065612222,-0.13730335695226656,-0.18065781057234104,0.15640821033674243,0.16269664304773343,0.04848737309366998,50,50,1,6.3,10,10,0.013337135314941406,1.4334868916807162,1.464101924561375,0.13611232539437362,-0.06651310831928373,0.021097902190130233,-0.16916381457880647,-0.20930514951251278,0.14618253039318305,1.9266715145356825,1.9502717494167028,0.19468135427429617,0.9266715145356826,0.8928308425837225
5,10000,6,1,0,50,2,uniform,1.5,1,200,10,4,TRUE,10,10,1.9683837890625e-4,1.5044367131253706,1.5177713697718578,0.1037168861610558,0.004436713125370682,0.009701157650807705,1.9787941884711975,2.0299362684229774,0.2627806279266619,0.9787941884711975,1.0201863559571676,0.003421547550256328,-0.032199019379116456,0.10860911069647429,0.003421547550256328,0.010628052021289771,50,50,1,5.5,10,10,0.01015174388885498,1.4959099539567489,1.5116205627076766,0.0922122033354467,-0.004090046043251156,0.007669509876215905,0.0016701521688176008,0.01632028640530355,0.08929559260208407,1.9703019391879464,2.031775912245971,0.2692053782725439,0.9703019391879464,1.0067102353136663
6,25000,6,1,0,50,2,uniform,1.5,1,200,10,4,TRUE,10,10,1.6977787017822266e-4,1.4550329001169895,1.429548352505175,0.09964664261100273,-0.04496709988301053,0.01095854811716906,2.0049524150733897,2.0057733356089016,0.19457492282238795,1.00495241507339,1.0440028170940432,-0.03380139981167994,-0.047185112830094994,0.16267468642544655,-0.03380139981167994,0.024959282872484667,50,50,1,5.6,10,10,0.009448099136352538,1.459431578574498,1.431247026667719,0.10609576656602586,-0.04056842142550197,0.011776477331866514,-0.053023562446148725,-0.06778243109356553,0.19237199780887876,1.9602613029005906,1.9271525346154768,0.1882879682129446,0.9602613029005906,0.9540088929247228
7,10000,7,1,0,50,2,uniform,1.5,1,200,10,4,TRUE,10,10,1.7812252044677735e-4,1.435923715176245,1.3995347101671265,0.20931152599108588,-0.06407628482375513,0.0435359536982603,1.9793859680445365,2.078685220686474,0.25892744396583844,0.9793859680445365,1.0195359535173478,0.04093183519894513,0.02894934942638381,0.08570605474736637,0.04093183519894513,0.00828639017107631,50,50,1,5,10,10,0.011470723152160644,1.4406719435075759,1.3965939265904024,0.20363130424646522,-0.05932805649242416,0.040838955549373106,-0.03342984723707423,-0.06465401823078692,0.16231558589901224,1.9557680804280675,2.0520443713986927,0.27535733225174863,0.9557680804280674,0.9817321179474726
8,25000,7,1,0,50,2,uniform,1.5,1,200,10,4,TRUE,10,10,1.8510818481445312e-4,1.4850736378008313,1.57219761928007,0.21091187990383262,-0.014926362199168689,0.04025823526461261,1.9552416520992932,1.9171779542719372,0.42614385160316637,0.9552416520992933,1.0759253379386506,-2.0360639704626734e-4,0.05438196152903001,0.16770551103329331,-2.0360639704626734e-4,0.02531266604340918,50,50,1,5.9,10,10,0.010505247116088866,1.4936624638487486,1.5539027072342713,0.2000613852725137,-0.006337536151251353,0.036062266453909864,0.027504518247661952,0.050744367762661786,0.18991169411534656,1.9175862375130994,1.8896695901014073,0.4392899488434679,0.9175862375130993,1.0156425965128528
9,10000,6,1,0.3,50,2,uniform,1.5,1,200,10,4,TRUE,10,10,1.9252300262451172e-4,1.3943714494253288,1.3817557605627968,0.18571508044309626,-0.10562855057467117,0.04219847269009301,2.115032061227515,2.22327318213786,0.24419682481212465,1.115032061227515,1.296965377888772,0.17394222342948196,0.17819765002510304,0.13230765408514258,-0.12605777657051803,0.031645346830465014,50,50,1,5.7,10,10,0.010173869132995606,1.3785703509144769,1.3840663392566608,0.19794141416415115,-0.12142964908552309,0.050007882774206903,0.060882013294051046,0.055332915039192423,0.14775180969811366,2.0665659045153393,2.1385536814111523,0.22970283512665654,1.0665659045153395,1.1850498818933257
10,25000,6,1,0.3,50,2,uniform,1.5,1,200,10,4,TRUE,10,10,2.1173954010009766e-4,1.4723364524776852,1.4910592863780172,0.09077871728927225,-0.02766354752231478,0.008181969822936423,1.9536216575396237,1.9305648453785418,0.2068152590512976,0.9536216575396237,0.9478895619674291,0.19711455321099297,0.2447745617604532,0.16565346619083668,-0.10288544678900703,0.0352823789359084,50,50,1,6.8,10,10,0.011304998397827148,1.463202682436798,1.4770851263183453,0.10375325197375476,-0.03679731756320201,0.011042306145463634,-0.02693361704090257,0.05110653287042438,0.19134672959037075,1.9263331893785443,1.9194014896484877,0.22474031115794968,0.9263331893785444,0.9035505644576609
11,10000,7,1,0.3,50,2,uniform,1.5,1,200,10,4,TRUE,10,10,1.7092227935791015e-4,1.4625838925337833,1.5031348791883863,0.14624606042723273,-0.03741610746621663,0.020649084269360702,2.0774326942304913,2.013914003709475,0.2572264940152573,1.0774326942304913,1.2204101328978183,0.13437918370262092,0.14615615556928174,0.06655572492631873,-0.16562081629737907,0.031416952859431205,50,50,1,5.2,10,10,0.009904742240905762,1.453793970162209,1.487812936514934,0.13398499206695444,-0.046206029837791075,0.018291777482634504,0.08024190355501097,0.13940772065436968,0.22536143339847334,2.0227559066085252,1.984039635126531,0.2567536971392771,1.022755906608525,1.1053598593978449
12,25000,7,1,0.3,50,2,uniform,1.5,1,200,10,4,TRUE,10,10,4.931449890136719e-4,1.5598931885597507,1.5662078266710864,0.11446407089955384,0.05989318855975064,0.015379015210062122,2.0302884806516865,2.0124527790710323,0.3216414949661801,1.0302884806516863,1.1546022795192317,0.12642742334798376,0.13219454730395414,0.14930057867850832,-0.17357257665201622,0.05018903587998375,50,50,1,5.7,10,10,0.017090868949890137,1.5607321528311757,1.5873933744217559,0.09804766633920572,0.06073215283117571,0.012340404774617076,0.008919715182366892,0.03799059106601199,0.17125691444584296,2.00205502009739,1.9728426680099225,0.3098028949450021,1.00205502009739,1.0904943136470537
13,10000,6,1,0.9,50,2,uniform,1.5,1,200,10,4,TRUE,10,10,2.564907073974609e-4,1.5543825987644435,1.601448703389316,0.11841246733794109,0.05438259876444351,0.015576828227327519,1.7213317367768757,1.7233516722599216,0.2063877329900874,0.7213317367768756,0.5586557811774526,0.33156531739378237,0.34360560408473795,0.10673512732795618,-0.5684346826062177,0.33337113705477495,50,50,1,8.4,10,10,0.010979962348937989,1.5494253314997655,1.5954939512046797,0.1210344696262212,0.04942533149976548,0.01562727194779231,0.06360624876746263,0.018235656551173717,0.2087698986531143,1.6838502150374361,1.6565458452909212,0.24384611232997275,0.6838502150374361,0.5211659504553452
14,25000,6,1,0.9,50,2,uniform,1.5,1,200,10,4,TRUE,10,10,2.875804901123047e-4,1.5204072276952454,1.5173178927183641,0.12723370240523024,0.02040722769524535,0.014986028467174011,1.880341914390257,1.9642238671935721,0.3140697655320501,0.8803419143902571,0.8637777220915241,0.3697208160091986,0.376440813841352,0.12065232110054405,-0.5302791839908014,0.29429729730220416,50,50,1,9.7,10,10,0.016689038276672362,1.5314094452774478,1.505450791425101,0.15147179073774727,0.0314094452774479,0.021635886303006904,0.13016480797685648,0.06518312448672059,0.20968091948434253,1.804500444503863,1.8179961090642225,0.3262953806396628,0.804500444503863,0.7430427730910175
15,10000,7,1,0.9,50,2,uniform,1.5,1,200,10,4,TRUE,10,10,3.2680034637451173e-4,1.4656932969957404,1.463204668250473,0.14524768708115973,-0.03430670300425953,0.020164151413206318,1.8719341612249718,1.8992508130917463,0.300296007985699,0.8719341612249718,0.8414291046820275,0.43775344313284026,0.4305331619010856,0.07897901206721053,-0.46224655686715976,0.21928579524794573,50,50,1,12.3,10,10,0.012350225448608398,1.4613374843594507,1.4427062668377262,0.15487468075430583,-0.038662515640549434,0.023082340180529064,0.10505701042475497,0.1376209210718752,0.1207363275410294,1.8436906346891444,1.8653800486884156,0.31025681363022367,0.8436906346891444,0.7984472484257528
16,25000,7,1,0.9,50,2,uniform,1.5,1,200,10,4,TRUE,10,10,3.562211990356445e-4,1.5117795140629435,1.4797853880519831,0.1296075030528276,0.011779514062943548,0.015257051314388925,1.998638134866363,2.0248654263181267,0.34126158469660506,0.9986381348663632,1.102091646680043,0.45336878889222004,0.42363527083679164,0.11396211472371041,-0.44663121110778,0.21116806596867244,50,50,1,15.9,10,10,0.010287904739379882,1.5334319201584934,1.4939411366682762,0.13039892751988508,0.03343192015849335,0.016421185553986486,0.18678552605030868,0.21253118371154744,0.15395871235220265,1.9029600761225307,1.8829639176697557,0.3194504526011076,0.9029600761225306,0.9071806315715536
17,10000,6,1,-0.3,100,2,uniform,1.5,1,200,10,4,TRUE,10,10,2.193450927734375e-4,1.483044021652009,1.4997483126456679,0.11571442864063329,-0.016955978347990897,0.012338351297802927,1.9683987747294505,1.9838624951870498,0.18994126602316444,0.9683987747294506,0.9702661029821354,-0.17775508669392245,-0.18613192897797035,0.10667617571786837,0.12224491330607754,0.02518564464842099,100,100,1,6.1,10,10,0.016017460823059083,1.482299353527459,1.4879344193773953,0.12462448389965401,-0.01770064647254112,0.014291448674075493,-0.15791586896435217,-0.18491977489099787,0.13696721803165146,1.9416305617365754,1.948182594279423,0.22077360109420557,0.9416305617365754,0.9305349994424317
18,25000,6,1,-0.3,100,2,uniform,1.5,1,200,10,4,TRUE,10,10,1.9891262054443358e-4,1.478828325073683,1.4688403010012658,0.11385884136827618,-0.0211716749263172,0.012115692001139298,2.0187336075191022,1.9999262062256218,0.19746088184442465,1.018733607519102,1.072909882961784,-0.16548115656438403,-0.16092678114041667,0.11161658729605395,0.13451884343561596,0.029307755542911627,100,100,1,6.6,10,10,0.015531778335571289,1.4749261939575504,1.4747839061329036,0.1197205191671461,-0.02507380604244951,0.013528398188140275,-0.15609671500704522,-0.14285781354894822,0.1389916419955271,1.9810614005759055,1.997362893265926,0.17315519976690188,0.9810614005759055,0.9894659225856415
19,10000,7,1,-0.3,100,2,uniform,1.5,1,200,10,4,TRUE,10,10,2.3906230926513673e-4,1.4921835914606296,1.4596425547126004,0.13452161730865758,-0.007816408539370307,0.01634755521345757,1.8764497274345757,1.8898828258095302,0.1624482332255292,0.8764497274345758,0.7919146103504286,-0.19176488262994523,-0.18478996995008268,0.060639948852446224,0.10823511737005476,0.015024323689254094,100,100,1,6.4,10,10,0.019057536125183107,1.4896565034729277,1.460588496283433,0.1351299980958009,-0.010343496527072268,0.016541092667239594,-0.13966866171257938,-0.15374432436103286,0.10357385367883319,1.8541829004566335,1.8579584319443163,0.16157792908230287,0.8541829004566334,0.7531251118823801
20,25000,7,1,-0.3,100,2,uniform,1.5,1,200,10,4,TRUE,10,10,1.9421577453613282e-4,1.530964830213706,1.5262784329657804,0.09312907267643962,0.03096483021370601,0.008764542469979854,2.048206012016012,2.07943045492766,0.229723508227917,1.0482060120160122,1.1462314448358,-0.12967222196367317,-0.13900369334292742,0.09046998119044344,0.17032777803632682,0.03637788771773149,100,100,1,5.9,10,10,0.01586415767669678,1.529811612763893,1.5265046400077764,0.10369035892809915,0.029811612763892947,0.010565253736758536,-0.05589400200262383,-0.05898846132126333,0.09728948688699988,2.0387835688108775,2.0787496713226226,0.2310612364729512,1.0387835688108775,1.1271216683318315
21,10000,6,1,0,100,2,uniform,1.5,1,200,10,4,TRUE,10,10,2.687931060791016e-4,1.43193567723262,1.4409064507886669,0.08515138745171442,-0.06806432276738002,0.011158434940238875,2.0973918470838844,2.079955745285611,0.13467417452058583,1.0973918470838844,1.2205922860007008,0.059808412321457526,0.02586128398919116,0.08452670211445094,0.059808412321457526,0.010007333217724085,100,100,1,5.2,10,10,0.023675298690795897,1.4375029269650386,1.426120514614293,0.09525225048022937,-0.062497073034961416,0.01207157623733082,0.027814890900681222,0.03161049627185035,0.07272650456238666,2.1114218928271313,2.0818214917136464,0.14333717444988775,1.1114218928271313,1.2537496148767935
22,25000,6,1,0,100,2,uniform,1.5,1,200,10,4,TRUE,10,10,1.6481876373291015e-4,1.5529541244024987,1.5462236943326153,0.08047662450130574,0.05295412440249858,0.008632977673247041,1.932852626709325,1.8936549211105866,0.17942301041624778,0.9328526267093249,0.8991873781586331,0.03397289423749379,0.017184308235198193,0.08089090750746113,0.03397289423749379,0.007043162568514507,100,100,1,4.8,10,10,0.015463924407958985,1.5573472707027662,1.5473654115450306,0.08357185625392569,0.05734727070276618,0.009574539099010477,-0.007717420753549267,-0.022554487100763736,0.15499040341358974,1.9094840745200379,1.8541010613183464,0.20373383762713315,0.9094840745200379,0.864518010740421
23,10000,7,1,0,100,2,uniform,1.5,1,200,10,4,TRUE,10,10,1.7843246459960937e-4,1.498757275432739,1.4929765319195838,0.13528688920572796,-0.0012427245672610055,0.016473832516216688,1.9624471796623224,1.921134629939155,0.30268138960773655,0.9624471796623223,1.0087589948933418,-0.026814411103510013,-0.003221938009786801,0.0940120151962211,-0.026814411103510013,0.0086734457439571,100,100,1,4.6,10,10,0.01660768985748291,1.4953930458395888,1.4921766743647025,0.13814708095592973,-0.00460695416041133,0.017197378405615915,-0.010402296691062948,0.03275803098144582,0.11888024779757596,1.9527831733528327,1.9171295066373828,0.298751500005946,0.9527831733528326,0.9881229883045164
24,25000,7,1,0,100,2,uniform,1.5,1,200,10,4,TRUE,10,10,1.9397735595703126e-4,1.4793984328898202,1.5089853049048614,0.13737880003116065,-0.0206015671101797,0.0174100657955967,2.0746025065469715,2.037496950852245,0.25196489301214725,1.0746025065469715,1.2119082236565943,-0.05644796370178349,-0.040442317125396116,0.09574067242548785,-0.05644796370178349,0.01143602132691398,100,100,1,5,10,10,0.03457930088043213,1.4786581394656744,1.505431498249019,0.13566496841249376,-0.02134186053432552,0.017019960299993246,-0.07909447698269544,-0.058962843257200234,0.10976353292268,2.0579609970711403,2.018752422827168,0.25588615313400076,1.0579609970711403,1.1782114223529072
25,10000,6,1,0.3,100,2,uniform,1.5,1,200,10,4,TRUE,10,10,1.8949508666992186e-4,1.4971117109549896,1.5162973386325462,0.10467833967091603,-0.0028882890450103015,0.00987014153024123,1.9815740952649554,2.0000282508257703,0.16333662264553922,0.9815740952649555,0.9874986715627421,0.11279552498907502,0.15449710234579922,0.12199447665242469,-0.18720447501092496,0.04843990256444512,100,100,1,5.1,10,10,0.016260361671447753,1.4934449493521003,1.5067705701917755,0.1049768280563809,-0.006555050647899852,0.009961089674897597,0.008370071202239754,0.04198738847782531,0.10623489334179115,1.955714601377547,1.9977380751547065,0.17508121841563012,0.9557146013775472,0.9409784890239552
26,25000,6,1,0.3,100,2,uniform,1.5,1,200,10,4,TRUE,10,10,2.203702926635742e-4,1.5009325216442841,1.4929901382668058,0.12018387917415024,9.325216442842107e-4,0.013000617928629131,2.0674118579283487,1.9842742670955862,0.2395572581855514,1.067411857928349,1.1910169864004905,0.1370065857098208,0.1144311753458121,0.08393344299784476,-0.1629934142901792,0.0329071936700952,100,100,1,5.4,10,10,0.020735335350036622,1.5042355679486155,1.4867098761873323,0.13647580457124103,0.00423556794861546,0.016781020745878155,0.05860387655968761,0.03621721660508639,0.085850720148501,2.0542091760637153,1.9578497914506836,0.252671762970349,1.0542091760637153,1.1688157047192276
27,10000,7,1,0.3,100,2,uniform,1.5,1,200,10,4,TRUE,10,10,3.609418869018555e-4,1.481688955817371,1.4789624445119638,0.09833682581455823,-0.018311044182629035,0.009038412519212682,1.9961828638026975,1.9672254927470745,0.17207499465472728,0.9961828638026976,1.0190291215410259,0.1214121748130383,0.12552261563167147,0.11608330012084836,-0.17858782518696167,0.04402141061526104,100,100,1,5.1,10,10,0.0646134614944458,1.4691369408522794,1.4770120942170655,0.09453123608566677,-0.030863059147720657,0.008995067556251362,0.0024683596520418184,0.03345461698495371,0.11366309698771132,1.976549870275937,1.9729000944170052,0.179797446595657,0.9765498702759369,0.9827440587580355
28,25000,7,1,0.3,100,2,uniform,1.5,1,200,10,4,TRUE,10,10,1.935243606567383e-4,1.5117286682369802,1.5514346831828456,0.11387062594293838,0.011728668236980266,0.011807429165986082,1.9963039124076387,2.035393351648447,0.18576285938571108,0.9963039124076387,1.0236785418132077,0.11976488025411966,0.1363160887077959,0.10107953981097048,-0.18023511974588033,0.041680064421369636,100,100,1,5.1,10,10,0.017038941383361816,1.5214393796420738,1.5671694156877338,0.11916094824749435,0.021439379642073726,0.013239045427954788,0.035647008225218886,0.09053344151185838,0.1322640179194438,1.9714263351891148,2.015976755243917,0.1856630684990289,0.9714263351891148,0.9746928222029819
29,10000,6,1,0.9,100,2,uniform,1.5,1,200,10,4,TRUE,10,10,3.3783912658691406e-4,1.4970294814393652,1.5020420144679827,0.0686153101365923,-0.002970518560634772,0.004246078687145748,1.993035904736343,1.941280012202418,0.13854729347179753,0.9930359047363432,1.003396125371052,0.48072190930259817,0.47493728435328864,0.07768896078040441,-0.41927809069740185,0.18122613450328404,100,100,1,14.5,10,10,0.018276739120483398,1.5011942084795566,1.5070702508826876,0.06546496295399834,0.0011942084795566659,0.0038585213710041815,0.18283605231133998,0.20376684223784247,0.10553423466086587,1.9278085746683065,1.930288002321364,0.16335187412130897,0.9278085746683065,0.8848442025290839
30,25000,6,1,0.9,100,2,uniform,1.5,1,200,10,4,TRUE,10,10,3.327846527099609e-4,1.5111798515292743,1.5152038819611306,0.0936635447328457,0.01117985152927419,0.008020562730946222,2.0427745711033896,2.028120957622823,0.20488382208426295,1.0427745711033896,1.1251584486365285,0.4785015892696344,0.4715400908077357,0.05025880031748313,-0.42149841073036565,0.1799342625566414,100,100,1,13.5,10,10,0.01877560615539551,1.5284866232142527,1.531245939412486,0.08021621135032718,0.02848662321425255,0.006602664209211116,0.1763049458499568,0.15877124155855266,0.09932542990065896,1.9813183511897332,1.98123544314663,0.20373582613014932,0.9813183511897333,1.0003431645457777
31,10000,7,1,0.9,100,2,uniform,1.5,1,200,10,4,TRUE,10,10,2.9675960540771485e-4,1.4844534713171247,1.4697600058558304,0.09158972083900092,-0.015546528682875335,0.007791503821116973,1.9504539084299277,1.9871994024830242,0.2072713710679677,0.9504539084299276,0.9420279111876808,0.4428200794729025,0.44226930528245545,0.0770273712226804,-0.45717992052709755,0.21435337405889218,100,100,1,12.4,10,10,0.01577737331390381,1.4981298781963732,1.4989596442386628,0.11560347579670165,-0.001870121803626848,0.012031244610211125,0.2307623537767319,0.22911938510857421,0.11214282815558738,1.861306121120393,1.8360216828504003,0.20866804669565553,0.8613061211203928,0.7810363526200591
32,25000,7,1,0.9,100,2,uniform,1.5,1,200,10,4,TRUE,10,10,3.144502639770508e-4,1.4770418019352174,1.4826935829725207,0.09476220732601748,-0.02295819806478261,0.008608967201950996,1.853027638874126,1.9053088279249568,0.2444831975045273,0.8530276388741259,0.7814509831590002,0.45246858209663693,0.4774354263638808,0.07331009356401973,-0.4475314179033631,0.20512130284712343,100,100,1,12.3,10,10,0.021805548667907716,1.4681358394882236,1.4768056770315243,0.10111820466428278,-0.03186416051177647,0.010217726908195258,0.19838183583775904,0.211171480511961,0.09181681509557826,1.789156103472005,1.8193341981741808,0.23771406762154187,0.789156103472005,0.6736245357977789
33,10000,6,1,-0.3,250,2,uniform,1.5,1,200,10,4,TRUE,10,10,2.2428035736083985e-4,1.4933294931085892,1.5027038847453438,0.06613636561698613,-0.006670506891410865,0.003981112633509658,1.9955204087795286,1.9993603827575157,0.17514039444363297,0.9955204087795286,1.018667626285844,-0.1689677226929886,-0.1957536549159134,0.05106919812674726,0.1310322773070114,0.019516714393839604,200,200,1,5.8,10,10,0.0306072473526001,1.4882568118896151,1.5196507061490685,0.07922436528109807,-0.011743188110384791,0.005786752515769454,-0.09247668805708101,-0.09633544089141435,0.07890669402390658,1.9610933793253498,1.952355233532329,0.18566503053080746,0.9610933793253498,0.9547248369888258
34,25000,6,1,-0.3,250,2,uniform,1.5,1,200,10,4,TRUE,10,10,2.4361610412597655e-4,1.4891528160209253,1.4865618295263694,0.07969048570137277,-0.010847183979074674,0.005833177560464522,1.9514419794258298,1.9719106108772497,0.10739903107753915,0.9514419794258296,0.9156229369024956,-0.14502921778177263,-0.1517181683441065,0.041887819226080925,0.15497078221822735,0.025595073800894402,200,200,1,5.7,10,10,0.03447501659393311,1.4926301652644405,1.4779748058602982,0.07972396406849722,-0.007369834735559477,0.00577463386614499,-0.079904132561164,-0.10390594696788305,0.0826245962630799,1.9434176468947066,1.9477239656497016,0.10891508948305224,0.9434176468947068,0.9007131035177367
35,10000,7,1,-0.3,250,2,uniform,1.5,1,200,10,4,TRUE,10,10,2.1796226501464845e-4,1.4852660982467103,1.47608126659531,0.0654217935922359,-0.014733901753289796,0.004069097830018204,1.9671986553109024,1.9153557933442933,0.13897160712280454,0.9671986553109024,0.9528550356628835,-0.14611710242937034,-0.1274207839254693,0.04854328380564749,0.15388289757062965,0.02580075152710497,200,200,1,5.6,10,10,0.028742527961730956,1.490549378062791,1.4843951912175655,0.06519752361566121,-0.009450621937209042,0.003914959632053287,-0.11072476155572071,-0.09894367274030018,0.087372034337043,1.9547951998275424,1.8751133252088334,0.15047545611578725,0.9547951998275424,0.9320124502176453
36,25000,7,1,-0.3,250,2,uniform,1.5,1,200,10,4,TRUE,10,10,2.0799636840820312e-4,1.481816242995561,1.485817956937181,0.05119001731441017,-0.018183757004438993,0.002689025104181135,1.9934971735273936,1.9931223556768947,0.1095189729787823,0.9934971735273935,0.9978315987050145,-0.117333142640162,-0.11850897169938845,0.08392988422871753,0.18266685735983798,0.03970698369770073,200,200,1,5.2,10,10,0.034402656555175784,1.4799188159897594,1.486960873425351,0.04923656855022566,-0.020081184010240567,0.0025850696655941043,-0.07262756781878832,-0.05917020117973046,0.10645529747246363,1.9719691790166536,1.9578814233439827,0.10069272116332172,0.9719691790166535,0.9538492066440544
37,10000,6,1,0,250,2,uniform,1.5,1,200,10,4,TRUE,10,10,2.176046371459961e-4,1.462843558404156,1.461951965226858,0.0749275984805079,-0.0371564415958441,0.006433331664715962,1.9918896458814053,2.0051419937143207,0.09057300799012911,0.9918896458814054,0.9912281924054818,0.03351430334315469,0.038720497625342236,0.0741160812142507,0.03351430334315469,0.006067082673678656,200,200,1,4.9,10,10,0.05795450210571289,1.4663957898024889,1.4498362585839206,0.07739218294396892,-0.03360421019751124,0.006519837925747995,0.007542523019968881,0.03340996954022166,0.06627829701649032,2.0045130195504948,2.0063363100097495,0.0865088757871088,1.004513019550495,1.0157818134774075
38,25000,6,1,0,250,2,uniform,1.5,1,200,10,4,TRUE,10,10,1.9450187683105468e-4,1.480109289340743,1.473321193329981,0.03974256264999389,-0.01989071065925705,0.001817164527920102,1.9515983810444872,1.945451046545608,0.11747673980218121,0.9515983810444872,0.9179601847615835,-0.018276741301467957,-0.004049496930962351,0.06746248056576395,-0.018276741301467957,0.004430106928278257,200,200,1,4.3,10,10,0.035850930213928225,1.472464365681048,1.474506433313797,0.03467247774259616,-0.027535634318951806,0.0018401737988767801,-0.02144473326452071,-0.03598526117938693,0.08874301035590945,1.9590743686798846,1.9768738175875735,0.12449576340485007,0.9590743686798845,0.9337729202538998
39,10000,7,1,0,250,2,uniform,1.5,1,200,10,4,TRUE,10,10,2.0678043365478515e-4,1.4786218921177174,1.4883029309526143,0.06339021473788635,-0.02137810788228267,0.004073510888690327,2.045044391920648,2.019286431951827,0.15179169685061494,1.045044391920648,1.112854428394307,0.035666603113031665,0.04631105464673427,0.09167003483666512,0.035666603113031665,0.008835162335882376,200,200,1,4.4,10,10,0.03635668754577637,1.476113423184477,1.4831110722045424,0.06549115567698569,-0.023886576815523086,0.0044307508766803436,0.037334151739459344,0.05045351829688016,0.06827339575038756,2.0516309402281574,2.0167906408585874,0.16669870281132185,1.0516309402281574,1.130937246212238
40,25000,7,1,0,250,2,uniform,1.5,1,200,10,4,TRUE,10,10,1.7638206481933593e-4,1.5100790435209224,1.505615003420469,0.04790822247101031,0.010079043520922417,0.0021672651205952827,2.0701839976262044,2.077064949901359,0.13752686035970887,1.0701839976262042,1.1623160623635624,2.0683536986520115e-4,0.02341318654717567,0.07629954335953361,2.0683536986520115e-4,0.005239501066056242,200,200,1,4.4,10,10,0.031005239486694335,1.5098142761028122,1.5042710321670834,0.05050584226968228,0.009814276102812158,0.0023920761084552525,-0.02325005881558691,-0.016453375942157664,0.08703937814828451,2.058437152068865,2.0739424489476326,0.14368913632374442,1.0584371520688654,1.1388711159873675
41,10000,6,1,0.3,250,2,uniform,1.5,1,200,10,4,TRUE,10,10,4.4801235198974607e-4,1.4981426461618845,1.497715900242707,0.051057384242632654,-0.0018573538381155615,0.0023496206004098128,2.000240782471895,1.964783660140581,0.15949286461078646,1.0002407824718953,1.0233757993955683,0.153128736282298,0.13607965435049263,0.07249157942079594,-0.14687126371770198,0.026300694284264174,200,200,1,5.3,10,10,0.06892640590667724,1.5056222770363257,1.491967625968488,0.05994325887149291,0.005622277036325738,0.003265484854794528,0.03578662844334534,0.039795918545732875,0.08536925702674901,2.004669363675297,2.0043038760753875,0.15748597435525438,1.004669363675297,1.0316821792144875
42,25000,6,1,0.3,250,2,uniform,1.5,1,200,10,4,TRUE,10,10,6.379604339599611e-4,1.4890481012425045,1.516833434102944,0.07279444120449986,-0.010951898757495492,0.004889071689642282,2.0208201622079547,2.0157256016837097,0.12607427447664535,1.0208201622079547,1.056379053986606,0.1782286996087133,0.19676804420599137,0.07296325634566068,-0.1217713003912867,0.019619522697891315,200,200,1,5.9,10,10,0.03381941318511963,1.4804314712149529,1.5123295616757697,0.07831925447598719,-0.019568528785047067,0.00590344237831821,0.06295515241467188,0.06557390564254488,0.08288312554185905,1.9988835917226995,1.961462314467231,0.13085788261768724,0.9988835917226996,1.0131798367117066
43,10000,7,1,0.3,250,2,uniform,1.5,1,200,10,4,TRUE,10,10,1.8436908721923827e-4,1.5027723250196843,1.498831021691764,0.0609732951347545,0.0027723250196842273,0.0033536542336456564,1.9715593359368366,1.9760358956549249,0.08403789062724851,0.9715593359368367,0.9502836736009967,0.12247314448518566,0.13217479301774665,0.06822909723851789,-0.1775268555148143,0.035705473167962576,200,200,1,4.9,10,10,0.03011627197265625,1.4974002467344696,1.4996273068291104,0.0546816407362043,-0.0025997532655304776,0.0026978323672846227,0.023070756028492675,0.025340336849887467,0.0730318624398337,1.9791730215244858,1.9825139998419488,0.0841183284027613,0.9791730215244858,0.9651481099373386
44,25000,7,1,0.3,250,2,uniform,1.5,1,200,10,4,TRUE,10,10,1.952648162841797e-4,1.508436132787774,1.5091018204902884,0.07906296225448489,0.00843613278777409,0.00569702513682165,1.9512691720441784,1.9714822813003163,0.17411860805570112,0.9512691720441783,0.9321985983857458,0.11858069663734537,0.14445224255019745,0.07499316969899832,-0.1814193033626546,0.03797454158394339,200,200,1,5.1,10,10,0.05875389575958252,1.5156038257273767,1.5056742714729439,0.0804813661489185,0.015603825727376798,0.006073004644807002,0.05071520909288486,0.07289915298275285,0.06329397980950616,1.949909219075576,1.9673016419883051,0.17391319377507786,0.949909219075576,0.9295487435569136
45,10000,6,1,0.9,250,2,uniform,1.5,1,200,10,4,TRUE,10,10,6.730079650878907e-4,1.4887934713141908,1.4875344033526843,0.05933716475943597,-0.011206528685809158,0.003294395494705468,1.9651731353639392,1.9206164988635934,0.18886066463551798,0.9651731353639392,0.9636606968101695,0.43996397542595495,0.44151942059371607,0.08771575168892787,-0.460036024574045,0.21855779169080966,200,200,1,12.8,10,10,0.0737300157546997,1.487538700502186,1.471745737266725,0.07803511706782028,-0.012461299497813938,0.005635815531383791,0.19549002424682813,0.2013575106863671,0.07496301589358421,1.9104058679416178,1.8638138716491102,0.19649834234204427,0.9104058679416178,0.8635892830713846
46,25000,6,1,0.9,250,2,uniform,1.5,1,200,10,4,TRUE,10,10,3.010988235473633e-4,1.4646097435492043,1.4644167104495533,0.0491624706951695,-0.03539025645079583,0.0034277239240211557,1.9673349463816858,1.9331232187463079,0.1848217895235788,0.9673349463816858,0.9664800829856872,0.4302129921479495,0.4337617552474057,0.03828351474188402,-0.4697870078520505,0.22201889749747544,200,200,1,11.3,10,10,0.031944680213928225,1.4685675802310159,1.4561010499112372,0.0626828853726303,-0.03143241976898421,0.004524226719308107,0.19070285533950504,0.19440616690961343,0.04146185264168297,1.888058779847446,1.8592697038455006,0.19864106888493865,0.888058779847446,0.8241608432871104
47,10000,7,1,0.9,250,2,uniform,1.5,1,200,10,4,TRUE,10,10,4.226922988891602e-4,1.4986608889012993,1.4935932596381418,0.03943765544174995,-0.0013391110987006159,0.001401589018602634,2.0311647411421445,2.0349419483485027,0.2012952994754512,1.0311647411421447,1.0997685412065665,0.4743056689522672,0.4598505838652732,0.05851926001180103,-0.4256943310477328,0.18429771689927263,200,200,1,14.1,10,10,0.03129677772521973,1.5004086475569898,1.4898030445242234,0.057504729648317245,4.0864755698977184e-4,0.002976281531559284,0.23644619595133828,0.23742860203328345,0.059793417146939844,1.9558383342813441,1.956552625173944,0.20687784225253578,0.9558383342813442,0.9521455187352932
48,25000,7,1,0.9,250,2,uniform,1.5,1,200,10,4,TRUE,10,10,3.4775733947753904e-4,1.4455098048189954,1.4422099638089736,0.06867615635716902,-0.054490195181004716,0.007213954377658882,2.0307128999097945,2.042841747535764,0.1526264962427982,1.0307128999097943,1.0833344446602755,0.459197666754948,0.46416007633684714,0.08427778729606965,-0.440802333245052,0.20069916788265127,200,200,1,13.4,10,10,0.03628470897674561,1.4393917942738526,1.434958401198509,0.08551684659461707,-0.060608205726147446,0.010255172547681555,0.20910992736147635,0.2128283101286756,0.07866327587002328,1.959383321612518,1.9671195701468294,0.12056174498913362,0.959383321612518,0.9334979787076105
49,10000,6,1,-0.3,50,2,clustered,1.5,1,200,10,4,TRUE,10,10,2.0520687103271485e-4,1.5057538470451926,1.4930552273883158,0.10803611763717187,0.0057538470451926615,0.010537729198521029,2.1214543268950288,2.144207902793452,0.2839427829043,1.1214543268950288,1.3302209608786766,-0.18257559077839755,-0.17802077175510334,0.12460527901611472,0.11742440922160245,0.027762319883857772,50,50,1,6.5,10,10,0.013721036911010741,1.516853968714718,1.5071913208161636,0.12809281188437036,0.01685396871471802,0.015051047872236914,-0.12909428137066045,-0.09943973020034115,0.21535938208333794,2.103524206695192,2.0929342114188847,0.3089506418845285,1.1035242066951918,1.3036711239710284
50,25000,6,1,-0.3,50,2,clustered,1.5,1,200,10,4,TRUE,10,10,2.0751953125e-4,1.4820577794907308,1.4124543907626501,0.13982985686138183,-0.017942220509269118,0.01791907325969032,1.9468062542966929,1.9376666147266426,0.19420347087879417,0.9468062542966929,0.9303855724665674,-0.11625185341008065,-0.11421470946117118,0.1255843420697298,0.18374814658991934,0.0479576656510087,50,50,1,5.9,10,10,0.012869000434875488,1.4686564802377118,1.411313868731713,0.14911004702066025,-0.03134351976228825,0.020992841741342118,-0.07617674034252435,-0.09697923349527642,0.1666829967463454,1.9118498447441823,1.911481066338077,0.1866292018564242,0.9118498447441824,0.8628175524469989
51,10000,7,1,-0.3,50,2,clustered,1.5,1,200,10,4,TRUE,10,10,7.830619812011718e-4,1.428839570812395,1.3891195904890918,0.14226464099975622,-0.07116042918760482,0.02327911195307468,2.052474318954234,2.157055202417431,0.3141846324745078,1.0524743189542338,1.1965429770130056,-0.15607336653750584,-0.1173897574087627,0.13331326205040867,0.14392663346249415,0.03671005907451597,50,50,1,6.2,10,10,0.015988087654113768,1.4150777550613836,1.4198537052668465,0.1493159822523818,-0.08492224493861647,0.027277523985808606,-0.2042551777541423,-0.18121106508602647,0.23997392907343698,1.9954529775167065,2.091761764012798,0.3397233697215792,0.9954529775167064,1.0947974015883626
52,25000,7,1,-0.3,50,2,clustered,1.5,1,200,10,4,TRUE,10,10,2.2826194763183593e-4,1.4478319188626956,1.4554683325568347,0.16245120285371462,-0.05216808113730445,0.026472862667305242,1.9563126977711363,1.9961197706742193,0.34671657877739026,0.9563126977711364,1.0227251233174972,-0.16641976013788756,-0.18429615277175773,0.14852012104683018,0.13358023986211243,0.03769608420180807,50,50,1,6.3,10,10,0.011473488807678223,1.4627964779146934,1.4403712900920111,0.16431121602810603,-0.037203522085306605,0.02568246019692333,-0.2017965563383707,-0.18514844961924504,0.251562370785462,1.8681217886914288,1.81362686549964,0.35043207184422265,0.8681217886914288,0.8641578132801365
53,10000,6,1,0,50,2,clustered,1.5,1,200,10,4,TRUE,10,10,1.7766952514648439e-4,1.4153377412634485,1.4197549906652962,0.08849780184793993,-0.0846622587365515,0.014216372893100309,2.0033840596007555,1.997871030692657,0.3144775183518944,1.0033840596007555,1.0957860696547819,-0.053571917444713395,-0.08031282934434894,0.15793772857098212,-0.053571917444713395,0.025319843834248287,50,50,1,5.4,10,10,0.009544610977172852,1.4266206086901951,1.4075397430869847,0.08917600143369597,-0.07337939130980495,0.01254165837752977,-0.05314017006017933,-0.03302835685113549,0.13324373418739655,1.978316870159144,2.0143920724593434,0.32094586145601245,0.978316870159144,1.0498095198251511
54,25000,6,1,0,50,2,clustered,1.5,1,200,10,4,TRUE,10,10,1.8279552459716798e-4,1.3992220494945589,1.3848778769136891,0.10383122886886684,-0.10077795050544121,0.019859026987654262,1.8420436930034085,1.911812592426755,0.3266285443095581,0.8420436930034085,0.8050551662888213,0.046266599459219335,0.0661922652462459,0.12589976231284783,0.046266599459219335,0.016406273360908257,50,50,1,5.1,10,10,0.012039709091186523,1.4060441370954384,1.3412790792934584,0.1401821709677539,-0.09395586290456155,0.026513641125650092,0.04558697806045908,0.09603480513081913,0.1207032522951593,1.8177277017772073,1.8616141246774145,0.31353380887953813,0.8177277017772073,0.757151698633293
55,10000,7,1,0,50,2,clustered,1.5,1,200,10,4,TRUE,10,10,1.8646717071533204e-4,1.4731043029958133,1.5060872370592886,0.13121259713099598,-0.026895697004186613,0.016218449598615965,2.076791690670935,2.0339763626099527,0.408738777304152,1.0767916906709352,1.3098409943628548,-0.004881727132701838,-0.027691396602176524,0.12170050842910315,-0.004881727132701838,0.013353743636510143,50,50,1,5.3,10,10,0.009787726402282714,1.4848548126584804,1.5184062796206195,0.14072664369293303,-0.015145187341519664,0.018052966120179675,0.006503009822169203,-0.019790041953162515,0.14055234045616563,2.0625279036431303,2.006136102210578,0.4089117861162958,1.0625279036431303,1.2794535099626023
56,25000,7,1,0,50,2,clustered,1.5,1,200,10,4,TRUE,10,10,2.4042129516601562e-4,1.476700675833768,1.4249927379948524,0.13230648023120614,-0.02329932416623202,0.01629736274665665,2.1087560540432038,2.04035215772615,0.35368078383793106,1.1087560540432038,1.3419210745480479,-0.059345840351785056,-0.07405611023706754,0.07726388224368855,-0.059345840351785056,0.008894665516489472,50,50,1,5.2,10,10,0.012765121459960938,1.470777180704221,1.4247917580423022,0.12420597267037899,-0.029222819295779124,0.014738384449889202,-0.10630487305100177,-0.16325312836863712,0.13509940570422735,2.0622428792661713,2.0245489556022815,0.326653369725745,1.0622428792661716,1.2243921161095521
57,10000,6,1,0.3,50,2,clustered,1.5,1,200,10,4,TRUE,10,10,1.911163330078125e-4,1.5349918620553227,1.5792656105637701,0.17929441365138568,0.0349918620553227,0.030156268500033515,1.9879722003963898,1.9247384495739068,0.3283524454978878,0.9879722003963898,1.0731228643740833,0.1151728447829225,0.11161547641447357,0.14287849242981104,-0.1848271552170775,0.05253391454475166,50,50,1,5.7,10,10,0.009935259819030762,1.551589367558789,1.574386071904469,0.18025965886538903,0.051589367558789144,0.031905652997955634,-0.03971487712943239,-0.018486469080011378,0.1603003220860682,1.9670703464144625,1.9318065587529962,0.32022033882371026,0.9670703464144625,1.027512013770923
58,25000,6,1,0.3,50,2,clustered,1.5,1,200,10,4,TRUE,10,10,1.9702911376953124e-4,1.4302036512670402,1.4131422753747758,0.1620426491995605,-0.06979634873295984,0.028503568440103585,1.994039237527594,1.9738253990148062,0.23038519641999614,0.9940392375275939,1.0358836106009723,0.20471297594519616,0.20359192371770427,0.08594741663720543,-0.09528702405480381,0.0157278795371692,50,50,1,6.3,10,10,0.01042783260345459,1.4418086901603226,1.4227201190110224,0.19110704967088948,-0.058191309839677324,0.03625594253137797,0.057081087214481144,-4.765232848352981e-4,0.1605564463540229,1.9440180329898464,1.892248661357367,0.24139534919507352,0.9440180329898464,0.9436145897617292
59,10000,7,1,0.3,50,2,clustered,1.5,1,200,10,4,TRUE,10,10,1.8913745880126952e-4,1.462290691030419,1.480849315267115,0.1401336860706575,-0.03770930896958106,0.019095696957537954,2.046015997954346,2.053073913908817,0.391275502668403,1.0460159979543462,1.2319363350659969,0.06212713233876272,0.054550722198278764,0.129761127907257,-0.23787286766123727,0.07173765645356767,50,50,1,5.3,10,10,0.011844372749328614,1.4596494601107393,1.476764834679405,0.1523062709269219,-0.04035053988926074,0.022505646216653265,-0.014170620172927159,-0.008525856364145858,0.22329431350746043,1.9831174046413396,2.0226143333779447,0.4118874615306194,0.9831174046413395,1.119205984178247
60,25000,7,1,0.3,50,2,clustered,1.5,1,200,10,4,TRUE,10,10,1.930713653564453e-4,1.540592694913615,1.5535483142683986,0.1400815457601681,0.04059269491361507,0.019308322396652096,1.8945819718557373,1.8378802220532515,0.28575851734098295,0.8945819718557373,0.8737690415789243,0.0937089156748394,0.050355411786630715,0.18066361467555758,-0.2062910843251606,0.07193141897292503,50,50,1,5.8,10,10,0.010855364799499511,1.540539798912467,1.5523477361462354,0.14482010946255486,0.04053979891246694,0.020519052990134984,0.023876982784778893,0.07859563135601204,0.17379857339588442,1.8374225323885272,1.777026128675189,0.3040609941885476,0.8374225323885272,0.784484277120249
61,10000,6,1,0.9,50,2,clustered,1.5,1,200,10,4,TRUE,10,10,2.8750896453857424e-4,1.573084395654727,1.6150060520861036,0.12831344267424385,0.07308439565472695,0.02015923450204149,1.9442999079201,1.9449411393393778,0.20387706617698512,0.9442999079201,0.9291115883995508,0.4413940243688811,0.4608516494155468,0.1420675681934185,-0.45860597563111893,0.2284843154237229,50,50,1,12.7,10,10,0.009268832206726075,1.6086917786952386,1.6203387745488633,0.14521283106364183,0.10869177869523858,0.030791992430900715,0.08480426970131678,0.182275708209656,0.2851172820728077,1.8697173072041673,1.8953945091760884,0.2343572514572447,0.8697173072041673,0.8058391836300027
62,25000,6,1,0.9,50,2,clustered,1.5,1,200,10,4,TRUE,10,10,2.9747486114501954e-4,1.486594811816919,1.5255507627789673,0.07556018173422145,-0.013405188183081007,0.005318106027561532,2.014332330879788,2.0033111239747514,0.30560532956734515,1.014332330879788,1.1129252331819928,0.45007694877058857,0.4408483535178169,0.0836208650801938,-0.44992305122941145,0.2087239561966676,50,50,1,12.6,10,10,0.013104939460754394,1.4999738045958935,1.525280810782116,0.10294740813348324,-2.619540410662424e-5,0.009538352643460968,0.1597933773677942,0.1959544949219925,0.14972654025785634,1.946258510847223,1.8859612541942534,0.33390796637435166,0.9462585108472229,0.9957502463582335
63,10000,7,1,0.9,50,2,clustered,1.5,1,200,10,4,TRUE,10,10,4.683017730712891e-4,1.5349886379673219,1.5539707183794265,0.18818154156136277,0.034988637967321844,0.03309526811277813,1.9687025338340731,1.8806307282776284,0.3753720650298192,0.9687025338340731,1.0651983675408292,0.5220674865957021,0.536562215296607,0.11892708215779085,-0.3779325134042979,0.15556227047159915,50,50,1,24,10,10,0.011702656745910645,1.5558721861739326,1.5662072619743546,0.1973596284943758,0.05587218617393256,0.0381774418513488,0.21888897293281478,0.23237302468137955,0.12693017114865973,1.8733844514779814,1.8090994237703713,0.32640615610216345,0.8733844514779814,0.8586872809507453
64,25000,7,1,0.9,50,2,clustered,1.5,1,200,10,4,TRUE,10,10,2.5916099548339844e-4,1.461248483348272,1.4814883209211975,0.12457642922427994,-0.03875151665172808,0.015469038089253989,1.9642109151447569,1.9073760884173638,0.23928683194624262,0.9642109151447568,0.9812350580328717,0.39477402107622955,0.40112425954872466,0.11834395193706099,-0.5052259789237705,0.2678580516435555,50,50,1,10.8,10,10,0.009748387336730956,1.4344431127739,1.4552236039511752,0.10826043925476207,-0.06555688722610006,0.014845995899646225,0.08023013378662326,0.06632260721846828,0.10940146949754971,1.933769991079014,1.8909950987113775,0.24187105014844226,0.93376999107901415,0.9245778406496213
65,10000,6,1,-0.3,100,2,clustered,1.5,1,200,10,4,TRUE,10,10,0.0018741369247436525,1.4776546597365792,1.4552946495034433,0.09858926796119635,-0.022345340263420832,0.009247173612900176,1.877320707939673,1.9328601431233783,0.1779352304456504,0.8773207079396729,0.7981864761901409,-0.1591200484109436,-0.13099544304605293,0.11268515814220359,0.1408799515890564,0.03127531113871496,100,100,1,6.1,10,10,0.01478888988494873,1.5148571499246088,1.4646110998993191,0.12723067278463301,0.014857149924608756,0.014789614591389624,-0.15852367559664335,-0.13889353061300422,0.18221946988876736,1.8020183451376317,1.835418406277149,0.15638573275719653,0.8020183451376317,0.6652442736063101
66,25000,6,1,-0.3,100,2,clustered,1.5,1,200,10,4,TRUE,10,10,2.105712890625e-4,1.4620141156696422,1.496590416825505,0.09216505391542947,-0.0379858843303577,0.009087884855269934,1.9781816275128132,2.0257511617108817,0.18312354297292044,0.9781816275128132,0.9870201051954758,-0.18617315788272126,-0.18630232031878907,0.04194013250393287,0.11382684211727873,0.0145396272293946,100,100,1,5.9,10,10,0.015930604934692384,1.463360473680438,1.4988351824513408,0.09962326025697354,-0.036639526319561924,0.010274769474727689,-0.10956211647795555,-0.11607920218025697,0.1201370312988758,1.9338331844418135,1.960552102212923,0.18674980196200422,0.9338331844418136,0.9034323560443013
67,10000,7,1,-0.3,100,2,clustered,1.5,1,200,10,4,TRUE,10,10,1.9845962524414062e-4,1.4578646739128924,1.4245738931083811,0.14054623513299988,-0.04213532608710768,0.019553305493521335,2.021946933723829,1.9255922156786411,0.21580625177418997,1.0219469337238292,1.086290639821879,-0.21935180057997045,-0.18922675660443017,0.0773954511886399,0.08064819942002954,0.011895182347916682,100,100,1,6.5,10,10,0.021902585029602052,1.4449920322239513,1.4299378933088032,0.12990184013580502,-0.055007967776048675,0.018212915782452228,-0.10997334614382057,-0.06460668362949455,0.13025935705985217,1.982248742679797,1.8936323431931865,0.1973409096755115,0.9822487426797971,0.9998616836644447
68,25000,7,1,-0.3,100,2,clustered,1.5,1,200,10,4,TRUE,10,10,2.1889209747314454e-4,1.5389842298905307,1.5355530262591994,0.046456747820910846,0.0389842298905307,0.003462176656443881,1.8879316966612831,1.8969341876972892,0.1251137300215302,0.8879316966612832,0.8025107988316954,-0.15434593211717762,-0.17176984292510156,0.09318856092308571,0.14565406788282237,0.029030804589037913,100,100,1,5.8,10,10,0.027910995483398437,1.5437708045511025,1.5508225336645245,0.051007701066353404,0.043770804551102535,0.004257490342317841,-0.11579429844750422,-0.04909408162869178,0.13934361221495847,1.8694926174508342,1.8820814678330804,0.12754664279287328,0.8694926174508341,0.770658743280462
69,10000,6,1,0,100,2,clustered,1.5,1,200,10,4,TRUE,10,10,1.8160343170166017e-4,1.500955334708127,1.5362778601880658,0.12612819440184372,9.553347081269454e-4,0.014318401945166903,1.9629260913595048,1.9502940311456152,0.20423361903223738,0.9629260913595048,0.9647668914495978,-0.027336991746498937,-0.02039803306292588,0.09763341516732925,-0.027336991746498937,0.009326366499260622,100,100,1,5.3,10,10,0.015624594688415528,1.5059794242056035,1.5083390105094203,0.1656968736464254,0.0059794242056035235,0.024745662056410076,0.01868991440875921,-0.005693329049003326,0.1294805090517706,1.945163367147469,1.9833351109078035,0.2746040985180818,0.9451633671474691,0.961200460428177
70,25000,6,1,0,100,2,clustered,1.5,1,200,10,4,TRUE,10,10,2.0389556884765626e-4,1.4775966995038847,1.472343318771622,0.13211283443335003,-0.022403300496115275,0.016210328792931623,1.9438456041538357,1.9832569024076148,0.23749167939910243,0.9438456041538357,0.9416065924859445,-0.009147118411225692,-0.02195125298680136,0.08173131871690008,-0.009147118411225692,0.006095677388512135,100,100,1,5.1,10,10,0.021366524696350097,1.47436385251887,1.46184907148162,0.12348589011299729,-0.025636147481129985,0.014381100608973563,-0.1076990970104412,-0.056005782777126034,0.18185510183738554,1.8619411493067097,1.8343657226173917,0.25340629222064437,0.8619411493067097,0.8007358189114847
71,10000,7,1,0,100,2,clustered,1.5,1,200,10,4,TRUE,10,10,2.089262008666992e-4,1.4953410092110857,1.499341366143355,0.0703069355747716,-0.0046589907889142065,0.004470464866094763,1.9608015702666208,1.954631554558044,0.26064019718161324,0.9608015702666208,0.9842796385749875,-0.03197857487384961,-0.05660909393525612,0.10724272921277973,-0.03197857487384961,0.011373531923067445,100,100,1,4.9,10,10,0.018511199951171876,1.4914993078227492,1.4983801370428105,0.08662295990357378,-0.008500692177250802,0.0068254452317029115,-0.07153354998553195,-0.07072510185463868,0.126130974753104,1.9583672531744933,1.9272364942349882,0.2525469673941532,0.9583672531744934,0.9758697656232088
72,25000,7,1,0,100,2,clustered,1.5,1,200,10,4,TRUE,10,10,2.1080970764160157e-4,1.4403111193199598,1.4164790714476148,0.13742959112973036,-0.059688880680040156,0.020560965743112447,2.0438019154047304,2.035380962061279,0.26315490385039425,1.0438019154047302,1.151847891681043,-0.14462763907959708,-0.16116435394550477,0.0574958798034759,-0.14462763907959708,0.023892352560676372,100,100,1,5.9,10,10,0.017285752296447753,1.418661262327148,1.412064663179109,0.1471437217332929,-0.08133873767285205,0.0261021376071853,-0.13003610230803858,-0.07971083831076195,0.16825060839522124,2.0002426231930843,2.0260876798317424,0.25498944918186506,1.0002426231930845,1.0590029625268467
73,10000,6,1,0.3,100,2,clustered,1.5,1,200,10,4,TRUE,10,10,2.019643783569336e-4,1.4842671539952486,1.5128622687558129,0.13293589859324217,-0.015732846004751486,0.016152280264722707,1.875755871822286,1.879718881228189,0.20342023110139532,0.875755871822286,0.8041901584104227,0.1694069711374383,0.16244048023992574,0.06452749460115427,-0.1305930288625617,0.020801956991049662,100,100,1,5.9,10,10,0.024054932594299316,1.5043134371320266,1.5163941193823032,0.1348437934723003,0.004313437132026629,0.01638316951409229,0.015778505155637584,0.05415503200615899,0.16968417957795098,1.8305170312352255,1.8150200871972357,0.21281673209088023,0.8305170312352255,0.7305204044838298
74,25000,6,1,0.3,100,2,clustered,1.5,1,200,10,4,TRUE,10,10,1.8477439880371094e-4,1.5055938395249209,1.4866826655909517,0.13367681568868775,0.005593839524920805,0.016113832988031217,1.9187733315885662,1.8983333226106598,0.15866909784525313,0.9187733315885661,0.8668027291882772,0.12363294407348714,0.13571743910384987,0.08765393943726177,-0.17636705592651286,0.03802023020516975,100,100,1,5.3,10,10,0.015032386779785157,1.5306316599181216,1.5067050856031603,0.1586736551585922,0.03063165991812151,0.0235978945465885,0.01379847524555849,0.06602378122081867,0.12802926416282426,1.9276913205933508,1.9114138151004307,0.14592897388544498,0.9276913205933507,0.879776925181568
75,10000,7,1,0.3,100,2,clustered,1.5,1,200,10,4,TRUE,10,10,2.0568370819091798e-4,1.5100160563017582,1.5073870687376596,0.08955236592046807,0.01001605630175817,0.007317985001598061,1.963951856203804,1.9702291507529632,0.14550638149836076,0.9639518562038041,0.9482580774298313,0.13867916949976905,0.12002140926046942,0.12602472103459997,-0.16132083050023094,0.040318417633948105,100,100,1,5.6,10,10,0.0180034875869751,1.526460054451662,1.5399910228444318,0.0758286456961538,0.026460054451662107,0.005875119638886465,0.06927997746118397,0.10454359562955137,0.11500779588938699,1.959679449311083,1.9436033824409873,0.1338258834397134,0.959679449311083,0.9371030758006013
76,25000,7,1,0.3,100,2,clustered,1.5,1,200,10,4,TRUE,10,10,2.012968063354492e-4,1.518527306246477,1.5236014750856606,0.11711708896523906,0.018527306246476954,0.012688032351673295,1.9761883640783304,1.9391835332378768,0.25146349674614504,0.9761883640783304,1.0098542233381456,0.15527717755442064,0.18113984600933436,0.08118738294751461,-0.14472282244557935,0.026876947371494434,100,100,1,5.6,10,10,0.016692614555358885,1.5214759351860085,1.5123352745668845,0.127758538052529,0.02147593518600851,0.015151235432901191,0.09994874238977497,0.06276575100073242,0.12524475557247358,1.9474287498193916,1.8733676765102056,0.2694137920206252,0.9474287498193917,0.9629466481821749
77,10000,6,1,0.9,100,2,clustered,1.5,1,200,10,4,TRUE,10,10,3.026723861694336e-4,1.5153586240655055,1.5057366644004666,0.09479376137995778,0.015358624065505495,0.008323158810089862,2.001460727833657,2.025753128433678,0.2138172476620436,1.0014607278336571,1.0440696232511129,0.4398409516556731,0.47941323437214267,0.10322579237814182,-0.4601590483443269,0.2213363575640423,100,100,1,11.6,10,10,0.016576147079467772,1.564700187175691,1.5644682761313118,0.1101150197381415,0.06470018717569093,0.015098900035307602,0.1701045725508931,0.1798923453827879,0.11747241324427331,1.9247953745865796,1.9497317515693537,0.18292428096385022,0.9247953745865797,0.8853616481662596
78,25000,6,1,0.9,100,2,clustered,1.5,1,200,10,4,TRUE,10,10,2.7909278869628904e-4,1.5306006470363511,1.5313450505346595,0.1027983025679444,0.0306006470363512,0.010447141508808927,2.010204562283417,2.0598754414336353,0.2377295530735402,1.010204562283417,1.071377064022321,0.4330356510394373,0.4613526381119797,0.10181397047902488,-0.4669643489605627,0.22738517932639554,100,100,1,11.3,10,10,0.015985703468322753,1.5096916111725076,1.5144514458629994,0.12188107065421018,0.009691611172507685,0.013463423172553992,0.15416988714951935,0.15901911385510623,0.06858125444742899,1.9780923805748005,2.0366946841618216,0.21565537546258434,0.9780923805748005,0.9985212218077977
79,10000,7,1,0.9,100,2,clustered,1.5,1,200,10,4,TRUE,10,10,3.348350524902344e-4,1.4700001371349771,1.4888514444890046,0.08734968731646157,-0.029999862865022944,0.0077669628587754315,1.9568973416940538,1.9995661804386093,0.13098836759407353,0.9568973416940538,0.9310946797416109,0.44429867123234507,0.46034259793872234,0.07508554448505834,-0.45570132876765496,0.21273775613216225,100,100,1,11.8,10,10,0.02560882568359375,1.4714351059942594,1.4697287802514662,0.09858160934420938,-0.028564894005740568,0.009562453500364072,0.19350609608949124,0.16415957868711223,0.1143088357833359,1.8948587268079822,1.940905139871386,0.1199502621193939,0.8948587268079821,0.813721399788663
80,25000,7,1,0.9,100,2,clustered,1.5,1,200,10,4,TRUE,10,10,3.166675567626953e-4,1.4764862831815364,1.4761786845464402,0.06888829292250753,-0.023513716818463575,0.004823932090218378,1.9097460272487028,1.9114327385020606,0.21478190235531686,0.9097460272487029,0.8691559731162296,0.43270748859553515,0.4114048763489324,0.08811269871289318,-0.46729251140446487,0.2253497541217141,100,100,1,12.7,10,10,0.017833614349365236,1.4802983604488018,1.4804892531107576,0.045557821084980216,-0.01970163955119808,0.0022561181568152944,0.14979949705288037,0.16312986202683838,0.13888863225032042,1.858487047677651,1.831671884786394,0.2134055986913174,0.8584870476776509,0.777987765627809
81,10000,6,1,-0.3,250,2,clustered,1.5,1,200,10,4,TRUE,10,10,2.125263214111328e-4,1.4751951573459625,1.4741918955149713,0.08629207694283444,-0.024804842654037578,0.007316970507888815,2.060123259574888,2.0796149769032857,0.16206928175169685,1.060123259574888,1.1475011323704452,-0.10112153410913291,-0.10742653642789951,0.08159270722613265,0.19887846589086708,0.04554427708034524,200,200,1,5.2,10,10,0.03839952945709228,1.4578363859286914,1.435371860134754,0.12430959200719752,-0.04216361407130857,0.015685357550050565,-0.0460121506382235,-0.05662749468528015,0.11876842529898332,2.045837610809158,1.9484284071735105,0.20919617845029886,1.0458376108091578,1.1331630451533958
82,25000,6,1,-0.3,250,2,clustered,1.5,1,200,10,4,TRUE,10,10,2.0873546600341797e-4,1.527957480302264,1.5259274929742235,0.07495124372612781,0.02795748030226397,0.0058375407473355515,2.00430723112914,2.0192064944757524,0.1068025249151362,1.00430723112914,1.0188991158937035,-0.17223597257029896,-0.15570742366764262,0.05725637587647441,0.12776402742970103,0.019274110025714702,200,200,1,6,10,10,0.02281949520111084,1.519340209870562,1.512468733769851,0.09949849832446614,0.019340209870561998,0.009283999769778796,-0.05662757069321988,-0.061364127070700006,0.08432905264771719,1.9697821399967181,1.9534186298309386,0.12010735721461374,0.9697821399967183,0.9534605985879854
83,10000,7,1,-0.3,250,2,clustered,1.5,1,200,10,4,TRUE,10,10,1.9953250885009765e-4,1.5525610822458782,1.57112135872499,0.054706379180268945,0.05256108224587819,0.005456176497571798,1.904230145352854,1.9072285967564822,0.10191046204240749,0.904230145352854,0.8269793238111707,-0.12522877536147412,-0.1449298374447789,0.07279071384710836,0.17477122463852587,0.03531362018178452,200,200,1,5.5,10,10,0.051728558540344236,1.55277495339836,1.5691885297876396,0.0654115601110718,0.052774953398360004,0.006636000682746992,-0.07970761444049956,-0.08190513847473566,0.04805406812879671,1.8869350747021711,1.8995994320127454,0.12498599259904841,0.886935074702171,0.8007131752483182
84,25000,7,1,-0.3,250,2,clustered,1.5,1,200,10,4,TRUE,10,10,2.0999908447265624e-4,1.4639912259700145,1.4845582277478135,0.06892900110314286,-0.03600877402998555,0.005572718280911925,1.9139180561652887,1.939280373046894,0.13244773073748345,0.9139180561652887,0.8510343746246977,-0.15802703324097603,-0.13644276351316326,0.08969878140407544,0.14197296675902396,0.027397607537197423,200,200,1,5.9,10,10,0.02775394916534424,1.4610583675354765,1.4626113884594139,0.07299267261664429,-0.038941632464523535,0.006311587969150584,-0.11418404206930724,-0.12180488346013602,0.08488663588608515,1.8793508984051441,1.9065045719744091,0.13302492426638204,0.8793508984051441,0.7891840699544032
85,10000,6,1,0,250,2,clustered,1.5,1,200,10,4,TRUE,10,10,1.835346221923828e-4,1.4960225747416311,1.4848393353601101,0.04686490592119196,-0.00397742525836875,0.001992507377987866,1.9459262143422824,1.907617458702651,0.08945503276445811,0.9459262143422825,0.9019783855781229,0.009782582853652912,0.008601225708937331,0.07201875367810052,0.009782582853652912,0.004763729720500808,200,200,1,4.5,10,10,0.018450593948364256,1.5050204550351212,1.5198086233209578,0.052602130637116926,0.0050204550351211205,0.0025154907015675567,-0.012194770535996456,-0.007851039478157611,0.0660739886582794,1.933155274801836,1.9223213296613268,0.1386742700630447,0.9331552748018358,0.8880862647502562
86,25000,6,1,0,250,2,clustered,1.5,1,200,10,4,TRUE,10,10,1.9178390502929687e-4,1.5062692349712594,1.4893105171769692,0.07347799531691551,0.006269234971259354,0.004898417523338253,1.9777003217280658,1.9639714293037815,0.13930799080971934,0.9777003217280658,0.9733639637802601,-0.008371088096680334,-0.021968136717242168,0.050056176507530574,-0.008371088096680334,0.0023251338418201336,200,200,1,4.4,10,10,0.04777979850769043,1.497342197896379,1.4943605236790503,0.0896557892232656,-0.0026578021036208765,0.007241408399143978,0.012288748085716589,0.028542819126138354,0.11518306364782056,1.9306845203939025,1.9092258363100585,0.13927979375333666,0.9306845203939025,0.883632651354003
87,10000,7,1,0,250,2,clustered,1.5,1,200,10,4,TRUE,10,10,1.8126964569091796e-4,1.5042890475606323,1.506531371820151,0.053097720810048474,0.00428904756063222,0.002555827088677034,1.9674179909832334,1.9943674460613345,0.11558308221068299,0.9674179909832336,0.947921073282025,0.03415716879173123,0.04583904136174119,0.05443357194902695,0.03415716879173123,0.003833424559483722,200,200,1,4.5,10,10,0.025527405738830566,1.4879358490003105,1.5069377200565515,0.06032584876492069,-0.012064150999689494,0.003420830965630584,0.028949530178480242,0.029731148803279886,0.08110320764111476,1.9559021326474595,2.012410293450254,0.13982653482813798,0.9559021326474595,0.9313452010578013
88,25000,7,1,0,250,2,clustered,1.5,1,200,10,4,TRUE,10,10,0.0017928123474121097,1.4936084118237662,1.4860664961006693,0.05867497797553977,-0.006391588176233732,0.0031393301358016395,2.007806987449763,1.9776937646511028,0.0975719268931434,1.0078069874497628,1.0242431767784435,-0.012722037875404513,-0.028310643832783415,0.07366429329638628,-0.012722037875404513,0.005045635543873647,200,200,1,4.9,10,10,0.03406860828399658,1.4964335546285643,1.4898800595326747,0.05541014706177797,-0.003566445371435667,0.0027759754902545106,-0.01297340593650849,0.01887060545815529,0.11852545031014061,1.9937928870647263,1.9457947060918208,0.10348863634990231,0.9937928870647263,0.99726321044865
89,10000,6,1,0.3,250,2,clustered,1.5,1,200,10,4,TRUE,10,10,2.1321773529052733e-4,1.4808528701557873,1.4881582046326534,0.06810580315690505,-0.019147129844212758,0.004541172962553531,1.9551187531634775,1.9426973026113794,0.10841896159383166,0.9551187531634774,0.922831036754332,0.16777720313467345,0.15802095322886311,0.08257281312141733,-0.13222279686532654,0.023619310530995467,200,200,1,5.6,10,10,0.023014116287231445,1.4839998428944954,1.4771239301552743,0.08675285537141866,-0.01600015710550473,0.0070294571509856895,0.017445752996036103,0.020837407996464552,0.08961827322171384,1.9810566803413736,1.9631793155317152,0.18584886001323708,0.9810566803413737,0.9935580289338342
90,25000,6,1,0.3,250,2,clustered,1.5,1,200,10,4,TRUE,10,10,1.9588470458984376e-4,1.472333914918291,1.4830828623129853,0.06158193607206583,-0.027666085081708914,0.004178513629093958,2.0964953701503917,2.153091689306218,0.19910414341490254,1.0964953701503914,1.237980310693728,0.137285354383387,0.11338295774662024,0.07509713371032119,-0.162714645616613,0.03155167744049523,200,200,1,5.3,10,10,0.021800732612609862,1.4572763124379051,1.4673221246486938,0.06164164313136047,-0.04272368756209484,0.0052450364300440965,0.06754969340428663,0.03718088055291402,0.09954488291429883,2.015379536689768,2.0675123005532727,0.22624657831038147,1.015379536689768,1.0770643663057677
91,10000,7,1,0.3,250,2,clustered,1.5,1,200,10,4,TRUE,10,10,1.9960403442382814e-4,1.4873174906037008,1.464446291590524,0.08812030358605549,-0.01268250939629929,0.007149515158275946,2.014736490086914,2.0355763491581076,0.14265250939543156,1.014736490086914,1.048004908907042,0.17182746021331274,0.16672354062716507,0.07769692946726282,-0.12817253978668725,0.02186133151914666,200,200,1,5.7,10,10,0.02764124870300293,1.489173717864202,1.4586999214757257,0.07758605146810799,-0.010826282135797996,0.00553484422905461,0.09420374348321932,0.08421569841363302,0.0791542185210729,2.010354979432318,2.068554760321347,0.1360902364250666,1.010354979432318,1.037485681668887
92,25000,7,1,0.3,250,2,clustered,1.5,1,200,10,4,TRUE,10,10,0.00019502639770507812,1.4915813806500713,1.4896488053875399,0.06338920576599164,-0.008418619349928668,0.003687245418637898,1.9176766722148302,1.9242660830091751,0.10057312277250742,0.9176766722148302,0.8512339324490773,0.13621971531659602,0.12725126840638357,0.04665493357777983,-0.16378028468340397,0.028782996195409194,200,200,1,5.1,10,10,0.0287553071975708,1.4882676642566917,1.4746624247137055,0.0684819646252467,-0.011732335743308342,0.004358449233033897,0.008370393464116912,0.021719568370287396,0.09066334981939099,1.9031711008168113,1.900869013955788,0.09874487470718281,0.9031711008168113,0.8244935326034943
93,10000,6,1,0.9,250,2,clustered,1.5,1,200,10,4,TRUE,10,10,3.775119781494141e-4,1.4928520482924788,1.4929455695664577,0.06197067095552792,-0.007147951707521341,0.0035074208664235378,1.9617441551933592,1.9011846045787653,0.19014135008179242,0.9617441551933593,0.9574901797584224,0.4574724320360727,0.4503263984140865,0.057764903932186945,-0.44252756796392734,0.19883375412173365,200,200,1,13,10,10,0.021953868865966796,1.496982502918677,1.5130259092983338,0.08119898994954385,-0.0030174970813230837,0.005943053660579301,0.10417847338858163,0.14683127170270543,0.14467320498799577,1.9199901704845013,1.8712426214120383,0.1418957863841957,0.9199901704845013,0.8645028865623321
94,25000,6,1,0.9,250,2,clustered,1.5,1,200,10,4,TRUE,10,10,3.35693359375e-4,1.5202317292528624,1.5289108105176543,0.06997594173886383,0.020231729252862384,0.004816292048577905,2.053722442820837,2.0825539050544157,0.1545227035452631,1.053722442820837,1.1318205258241554,0.4470488954050282,0.45047871045006516,0.060999741298537996,-0.45295110459497184,0.20851357474844484,200,200,1,12.3,10,10,0.023607659339904784,1.5559316694777707,1.5803035485401846,0.08940192400953462,0.055931669477770805,0.01032178526551654,0.1381160272670287,0.15202307095474252,0.1430452357530652,1.977762658554409,1.9656114864569707,0.20188126688870356,0.9777626585544089,0.9927002577919148
95,10000,7,1,0.9,250,2,clustered,1.5,1,200,10,4,TRUE,10,10,3.383159637451172e-4,1.4728880891532286,1.4635010639939292,0.07336563784788878,-0.027111910846771465,0.005579320844908098,1.9379108310322983,1.9249222963921424,0.15345376937954586,0.9379108310322983,0.9008699803708082,0.4697528012427641,0.4633622925644029,0.03386300614421761,-0.43024719875723594,0.18614468490505948,200,200,1,13.1,10,10,0.029537081718444824,1.4710072589842202,1.4676522681848787,0.049478796734088046,-0.028992741015779772,0.0030439152252359604,0.16052969383879204,0.17434105450578302,0.09960967021235023,1.8696935635926106,1.8583559293495924,0.14996542807691784,0.8696935635926106,0.77660756121087815
96,25000,7,1,0.9,250,2,clustered,1.5,1,200,10,4,TRUE,10,10,3.031015396118164e-4,1.5028306848196489,1.4898623617247466,0.05380403005054129,0.0028306848196488986,0.002613399061259785,1.9551033665522857,1.9645745505247298,0.12533696493439397,0.9551033665522857,0.9263608601005787,0.4528544074917567,0.44183179956029767,0.04512216385975219,-0.4471455925082433,0.20177158960379568,200,200,1,12.3,10,10,0.029308390617370606,1.5030456807006258,1.5007329211730243,0.05889018218637416,0.00304568070062585,0.003130524373080071,0.2056033488767663,0.22671086820823516,0.09012411203167203,1.8909131230883063,1.9005299608224782,0.1374443773457918,0.8909131230883064,0.8107280540685349
97,10000,6,1,-0.3,50,2,uniform,1.5,1,200,10,6,TRUE,10,10,1.847982406616211e-4,1.534597500123702,1.5300711395249564,0.16196899052147928,0.03459750012370192,0.024807545516301894,2.0142485047392427,1.9881127824604776,0.1980315064936781,1.0142485047392427,1.0639948591735295,-0.1650057107739478,-0.16315008260125646,0.10579689678716804,0.1349942892260522,0.028297143156462257,50,50,1,6.4,10,10,0.03419969081878662,1.5332695564217727,1.5342133081117808,0.15466136442566672,0.03326955642177274,0.02263498726590952,-0.19697440662754534,-0.2208908493601968,0.14165318369479557,1.9866643711101861,1.9388487920710957,0.20363755914070047,0.9866643711101861,1.0108280111617631
98,25000,6,1,-0.3,50,2,uniform,1.5,1,200,10,6,TRUE,10,10,2.0449161529541017e-4,1.4533259051089669,1.4366297664478516,0.180032149107461,-0.046674094891033135,0.03134888837492313,1.9826029554499052,1.940906205432099,0.2610954474000798,0.9826029554499052,1.0268623174466314,-0.1282317284520103,-0.1298847164172924,0.12864298303054866,0.17176827154798968,0.04439845448528215,50,50,1,6,10,10,0.010829877853393555,1.4538806337052135,1.4446180064283962,0.15808300148965654,-0.04611936629478648,0.024618207771413565,-0.13920043822913572,-0.145681981457249,0.23167243671344304,1.9451146484372162,1.8566892825565686,0.27275452908896275,0.945114648437216,0.9601972285152902
99,10000,7,1,-0.3,50,2,uniform,1.5,1,200,10,6,TRUE,10,10,2.0091533660888673e-4,1.544849816362712,1.5667645815326474,0.15981552633101914,0.04484981636271193,0.024998408238583594,2.118602448933578,2.093187606213499,0.2639181005488505,1.1186024489335782,1.3139589261777802,-0.1692622764450663,-0.1824493133638927,0.14848000139817602,0.13073772355493368,0.036934032094008376,50,50,1,6.6,10,10,0.013154983520507812,1.5460374175115137,1.5851310765940347,0.15188243441241636,0.04603741751151377,0.0228808903058672,-0.14601447390528655,-0.13235862844448876,0.20012589791163365,2.0891576843360924,2.1007791838017997,0.28880954881601706,1.0891576843360922,1.261334321286939
100,25000,7,1,-0.3,50,2,uniform,1.5,1,200,10,6,TRUE,10,10,1.9011497497558593e-4,1.4477358731139602,1.469439351963814,0.18722831140329302,-0.05226412688603973,0.034280535490995676,1.9733793092263634,1.9501330161412824,0.36723933596408,0.9733793092263634,1.068845536521397,-0.11570793285759853,-0.158300931793885,0.1641724940848252,0.18429206714240146,0.05822091304424818,50,50,1,6.1,10,10,0.010203003883361816,1.433473066782455,1.4081100714628012,0.18336820022761688,-0.06652693321754513,0.03468734001257557,-0.17276678000604054,-0.16222673244945884,0.14831932514723536,1.9199508328464019,1.839722853807908,0.3306017831591442,0.9199508328464019,0.9446773199799938
101,10000,6,1,0,50,2,uniform,1.5,1,200,10,6,TRUE,10,10,2.20489501953125e-4,1.4917660438204479,1.4954502180203222,0.15580851428947678,-0.008233956179552098,0.021916461846951465,1.9111721511055004,1.907190292249309,0.18333655646150399,0.9111721511055003,0.8604857525918708,0.0643153256712335,0.13998495250787357,0.17446824432450958,0.0643153256712335,0.031531712566105916,50,50,1,5.6,10,10,0.012077069282531739,1.4970501151498192,1.5155353884350788,0.1511712779844234,-0.002949884850180706,0.02057618157932876,-0.05138217469633374,-0.0287257099317883,0.2403147875443523,1.8744130324252637,1.8785048064314176,0.1923108246210563,0.8744130324252637,0.7978832592149327
102,25000,6,1,0,50,2,uniform,1.5,1,200,10,6,TRUE,10,10,1.765727996826172e-4,1.491604818248445,1.4500045457086932,0.1930786833647662,-0.00839518175155507,0.03362191924952612,1.9813468164957153,1.9151833360781279,0.2361673793435952,0.9813468164957152,1.0132391022056944,-0.04069940400361669,-0.025025578520444805,0.12505655975287994,-0.04069940400361669,0.01573167030975268,50,50,1,5.5,10,10,0.013070917129516602,1.490514995641771,1.443866235872294,0.2018396957035304,-0.009485004358229188,0.036755301793199996,-0.08248662549906371,-0.007202880331110832,0.2576722549240891,1.9565452237299874,1.9181091459252828,0.21743228297445352,0.9565452237299874,0.9575278829521863
103,10000,7,1,0,50,2,uniform,1.5,1,200,10,6,TRUE,10,10,2.0127296447753907e-4,1.4227582736950337,1.4340817421192322,0.11450799700550025,-0.07724172630496635,0.01776715752296182,2.0005247610440384,1.947685986786154,0.20359722555812057,1.0005247610440384,1.038356444691698,-0.09935368889535075,-0.11345108278853842,0.17646193230076118,-0.09935368889535075,0.037896087693300724,50,50,1,6.4,10,10,0.011682891845703125,1.428260280045174,1.4392086649385316,0.10534744778687254,-0.071739719954826,0.015134863698883911,-0.13937190895477133,-0.061083818430694575,0.21386584122952954,1.9714462582013257,1.9397784097241277,0.20277476133292657,0.9714462582013258,0.9807136760236197
104,25000,7,1,0,50,2,uniform,1.5,1,200,10,6,TRUE,10,10,1.954317092895508e-4,1.4482082267503924,1.4295336635342473,0.09494167615090258,-0.05179177324960758,0.010794917459647346,1.8815739755216532,1.8845304147668362,0.16518631168340053,0.8815739755216533,0.8017305401278615,-0.03130841603660318,-0.07224243018717086,0.18552267203932424,-0.03130841603660318,0.03195701257127063,50,50,1,5.8,10,10,0.01159512996673584,1.4345257011898327,1.425726375564248,0.09856077369037732,-0.06547429881016724,0.013029687304084266,-0.15279898278646226,-0.16402921550923688,0.22633481908441672,1.8377503877475327,1.848275232862225,0.1683198197254338,0.8377503877475326,0.7273241177123037
105,10000,6,1,0.3,50,2,uniform,1.5,1,200,10,6,TRUE,10,10,1.9128322601318358e-4,1.5480076471444089,1.5688580736520168,0.16559373344481754,0.048007647144408895,0.026983890284916025,1.8586417469956709,1.8339259750148384,0.2947170580494661,0.858641746995671,0.8154379795585769,0.14770106653490359,0.16703750571933754,0.19044257817165627,-0.15229893346509643,0.055836503157206535,50,50,1,6.2,10,10,0.011772060394287109,1.5354579011715512,1.5558464643035763,0.17649468399003423,0.0354579011715512,0.02929259888455933,0.01402862981094434,0.08022952305353784,0.19700935661547156,1.824925724075947,1.8112196489163461,0.2728694825360138,0.8249257240759471,0.7475144292917503
106,25000,6,1,0.3,50,2,uniform,1.5,1,200,10,6,TRUE,10,10,1.7092227935791015e-4,1.4746411760451201,1.4698671443119142,0.1446400879138368,-0.025358823954879938,0.01947174948092479,2.0973103579461423,2.121692878535722,0.1812421740637461,1.0973103579461425,1.2336538747493093,0.1209282500925488,0.12041542120397175,0.11511660754764125,-0.17907174990745117,0.043993341614866635,50,50,1,5.6,10,10,0.011505985260009765,1.4612694440927,1.469622702386001,0.14455747212823639,-0.03873055590729999,0.020307232434183753,-0.044261521694695494,0.03332698363495139,0.22356997989929822,2.0432574102521026,2.0067153321152245,0.18024370041455248,1.0432574102521024,1.1176250364311413
107,10000,7,1,0.3,50,2,uniform,1.5,1,200,10,6,TRUE,10,10,3.729104995727539e-4,1.4377524504422805,1.4461440668587113,0.10892789893516597,-0.0622475495577194,0.01455351587572749,1.9502124985748095,2.070793643256134,0.31875954637269865,0.9502124985748095,0.9943506760111381,0.18350053879777262,0.18825286893263052,0.15078494593405437,-0.11649946120222737,0.03403461438871141,50,50,1,6.2,10,10,0.010738825798034668,1.442499673645197,1.4425126495803977,0.09944830557900396,-0.057500326354803025,0.012207256465190311,0.04184778986088053,-0.02454491760443052,0.1995608867267686,1.918597659035144,2.070872447480827,0.31882743793801865,0.9185976590351438,0.9353075008487552
108,25000,7,1,0.3,50,2,uniform,1.5,1,200,10,6,TRUE,10,10,2.4759769439697266e-4,1.5126155858313617,1.4477098864368032,0.1841129300983355,0.012615585831361752,0.030666966932323573,2.1078557476336703,2.179346060711054,0.2338854400486679,1.1078557476336703,1.2765765167250416,0.1824300723407274,0.18375784509526794,0.17142480360291992,-0.11756992765927259,0.04027050485107629,50,50,1,6.7,10,10,0.012982177734375,1.5184655529682567,1.4388110794349012,0.19669358701044923,0.01846555296825676,0.03516050710035695,0.09430805662608345,0.13883785914219676,0.22418255597510592,2.0620239699490117,2.12184453513433,0.2421993942716429,1.062023969949012,1.1806894046732554
109,10000,6,1,0.9,50,2,uniform,1.5,1,200,10,6,TRUE,10,10,2.6972293853759765e-4,1.4775280143560157,1.4490356475694464,0.12832782911245255,-0.022471985643984352,0.015326218691026785,1.928889579904947,1.9670462697412865,0.21340308466858204,0.928889579904947,0.9038226405474484,0.40475694183711186,0.393996210286758,0.10670711531128389,-0.49524305816288816,0.25551345427077987,50,50,1,11,10,10,0.009865427017211914,1.4669987142467766,1.4253064080530975,0.13663031194969305,-0.033001285753223364,0.017890142790489293,0.18083432448676334,0.14169563154981546,0.15025768123555236,1.8658701206639452,1.9218529953666184,0.20272700165491975,0.8658701206639452,0.7867194793385894
110,25000,6,1,0.9,50,2,uniform,1.5,1,200,10,6,TRUE,10,10,3.0908584594726565e-4,1.5448491207449337,1.4906065438046605,0.16902026982365598,0.04484912074493373,0.027722510081728966,1.9257852468399417,1.8422217510287235,0.40833369559857563,0.9257852468399417,1.007141089531563,0.44064785112768423,0.4687917216913069,0.10285061028263744,-0.4593521488723158,0.22052481990557404,50,50,1,12.4,10,10,0.03479442596435547,1.576482190465982,1.5911924606297272,0.17903389417719076,0.07648219046598204,0.03469734719629933,0.17571420431438056,0.2199511420696828,0.2715656300192266,1.8372781359278658,1.7899333284235084,0.4486054840430685,0.8372781359278659,0.882156869185006
111,10000,7,1,0.9,50,2,uniform,1.5,1,200,10,6,TRUE,10,10,4.971027374267578e-4,1.4809947100640337,1.4783897315331151,0.12587216303659032,-0.019005289935966396,0.01462062233030912,1.9167276425157713,1.8067346843776328,0.3439108718275755,0.9167276425157712,0.9468367895376064,0.446710544154695,0.4342174101760036,0.11969224527502938,-0.453289455845305,0.21836494100161272,50,50,1,13.7,10,10,0.015495038032531739,1.4699253486115118,1.4686850579501476,0.15390256244183648,-0.03007465138848818,0.02222188350968613,0.13430736410929764,0.14141989999972715,0.10461066161213103,1.891683214290497,1.805721704434767,0.3279052678238844,0.891683214290497,0.8918686328474204
112,25000,7,1,0.9,50,2,uniform,1.5,1,200,10,6,TRUE,10,10,2.927064895629883e-4,1.4948853580298331,1.5193394797573747,0.08654985717138765,-0.005114641970166867,0.006767949561231834,2.1073665962165333,2.074511651765326,0.2810609010720155,1.107366596216533,1.2973564855164623,0.4135766401116915,0.4067130065341904,0.0778993409756993,-0.48642335988830854,0.24206916163703435,50,50,1,11,10,10,0.010517406463623046,1.4778558284715495,1.5018262871474954,0.11768882221166098,-0.02214417152845048,0.012955957318892588,0.14599896982086874,0.1842308218592127,0.21687978943339214,2.020842509534915,1.9511396587214955,0.28217271177899633,1.0208425095349154,1.113778724618985
113,10000,6,1,-0.3,100,2,uniform,1.5,1,200,10,6,TRUE,10,10,1.883983612060547e-4,1.4795423264173277,1.4494875395218194,0.11127090492918482,-0.020457673582672142,0.011561609263798879,2.0037468109599343,2.039522066703054,0.19971431346737062,1.0037468109599341,1.0434048868156067,-0.16989785939903418,-0.18266851232545528,0.0980143663008903,0.1301021406009658,0.025572701390182074,100,100,1,6,10,10,0.015941786766052245,1.4823087681091631,1.460828389253157,0.112827657990118,-0.017691231890836972,0.0117700520525969,-0.12491102680697322,-0.055047449450896305,0.22051651973426495,1.9793470095757275,2.045103042918677,0.19967929866103615,0.9793470095757275,0.9950052052473072
114,25000,6,1,-0.3,100,2,uniform,1.5,1,200,10,6,TRUE,10,10,2.3787021636962892e-4,1.556146003707126,1.5672555118799134,0.08565362564390075,0.05614600370712598,0.009755262959631547,2.0024639020050334,1.9728627043781677,0.1356470359983747,1.0024639020050337,1.0214939813607875,-0.2071684093711412,-0.2042516058881177,0.06019837276707515,0.09283159062885879,0.011879163894107385,100,100,1,6.4,10,10,0.01599259376525879,1.5541343898775295,1.5689155476038557,0.07175551139806993,0.05413438987752948,0.0075645002418110565,-0.16846969731979236,-0.17419184157577877,0.1708450438296121,1.971314292693072,1.9591489835176952,0.1646499445661527,0.971314292693072,0.9678500990109162
115,10000,7,1,-0.3,100,2,uniform,1.5,1,200,10,6,TRUE,10,10,1.9545555114746093e-4,1.438537191122473,1.4330359672335455,0.06526828721883499,-0.061462808877527045,0.007611631259947723,2.0042464269492744,2.05126944864433,0.170427474719915,1.0042464269492744,1.0346518577658508,-0.1803480522171269,-0.17566774939902066,0.05675358111768906,0.11965194778287308,0.017215460680949285,100,100,1,6.1,10,10,0.02803349494934082,1.4294423306062172,1.4168226655473952,0.059621442131341906,-0.07055766939378283,0.008177629435921215,-0.08245943951596076,-0.03247999507586835,0.11783972286965136,1.9969342628498223,2.044025487465929,0.17584894521285185,0.9969342628498223,1.021708490823144
116,25000,7,1,-0.3,100,2,uniform,1.5,1,200,10,6,TRUE,10,10,2.1359920501708984e-4,1.471241359679207,1.5261648801440741,0.17035993066801403,-0.02875864032079291,0.026947314772590224,2.0176788957003824,2.0879276060714114,0.27098510306107976,1.0176788957003824,1.1017599682268713,-0.15379171102982195,-0.17923959280940355,0.12321005140024724,0.14620828897017804,0.035039508853033495,100,100,1,6,10,10,0.018804359436035156,1.4765622651734478,1.5358119633846954,0.1656723175251847,-0.023437734826552203,0.02525191252854884,-0.14322827311602188,-0.14570438069478364,0.14572464477963398,1.9961024663435487,2.071410534676033,0.276318104578252,0.9961024663435488,1.0609366488816467
117,10000,6,1,0,100,2,uniform,1.5,1,200,10,6,TRUE,10,10,1.7554759979248046e-4,1.4971660831005924,1.5107291806649858,0.14470050223520173,-0.0028339168994075572,0.0188524428974004,1.9777325871664457,1.9629835388074617,0.26633432250747896,0.9777325871664457,1.0198015862181575,-0.0022275799663083588,0.01798403695746826,0.11049405789265225,-0.0022275799663083588,0.010993005259132606,100,100,1,5,10,10,0.028277277946472168,1.5007005000347728,1.5098968375314854,0.1325218544465713,7.005000347728691e-4,0.01580632841566113,-0.07004457503288705,-0.03494294150093008,0.15188253712790595,1.9564586059718083,1.9202603975755752,0.26985631878026417,0.9564586059718083,0.980353254444607
118,25000,6,1,0,100,2,uniform,1.5,1,200,10,6,TRUE,10,10,1.7516613006591798e-4,1.4982234292176444,1.4886166046962472,0.10588632513990413,-0.0017765707823556437,0.010093878670214862,1.9789136996333139,1.961677888470399,0.14069595290422685,0.9789136996333138,0.9760878473770472,-0.001555298918724357,-0.0067828808520283695,0.09684443198720775,-0.001555298918724357,0.008443378560959003,100,100,1,4.5,10,10,0.02401893138885498,1.4999197177889987,1.485139050066401,0.10260243728496837,-8.0282211001384e-5,0.009474540568367685,-0.03843078542451796,-0.05331366975038481,0.13322756225408125,1.9697008797482658,1.9609925307327782,0.1478771971141195,0.9697008797482657,0.9600006950682558
119,10000,7,1,0,100,2,uniform,1.5,1,200,10,6,TRUE,10,10,1.7185211181640624e-4,1.5017602252021534,1.522821162657758,0.09055633739137328,0.0017602252021532592,0.007383503610328504,1.980842215944807,1.904080113089683,0.23687429116021289,0.980842215944807,1.0125499394109074,-0.009218120477765128,-0.04264261656030732,0.12297362603247808,-0.009218120477765128,0.01369523517476079,100,100,1,5.1,10,10,0.018368244171142578,1.5033733278298989,1.5218417565534188,0.08081368714134254,0.003373327829898789,0.005889146167088884,0.014548814342076707,-0.03533683963674643,0.136385735814529,1.9757701267999443,1.916395288508094,0.24799987458938966,0.9757701267999443,1.0074808843718972
120,25000,7,1,0,100,2,uniform,1.5,1,200,10,6,TRUE,10,10,2.4640560150146484e-4,1.500416808622279,1.50481806231168,0.07444478108144707,4.168086222791731e-4,0.004987996616665729,1.9586132744855813,1.973056636893634,0.136799645047397,0.9586132744855814,0.935782138616553,-0.005824326293917696,0.034304118607568664,0.11395253782105721,-0.005824326293917696,0.011720585565051551,100,100,1,5.2,10,10,0.017698097229003906,1.5033157232413563,1.511102042983106,0.06813151903781749,0.0033157232413563833,0.004188707518373709,-0.04369519256490562,-0.051875509904257856,0.16404480033515886,1.941048552877999,1.95963019985774,0.13185867029738726,0.941048552877999,0.9012204169131117
121,10000,6,1,0.3,100,2,uniform,1.5,1,200,10,6,TRUE,10,10,2.1479129791259765e-4,1.5195027781181398,1.521936165338871,0.10550472372138905,0.019502778118139736,0.010398480409099362,2.0953588654547155,2.203445503229214,0.30279288630352524,1.0953588654547155,1.282326222926659,0.16458086601699976,0.1500414634085695,0.09319784149446655,-0.13541913398300023,0.02615559574201071,100,100,1,5.9,10,10,0.017074966430664064,1.5146556841921577,1.5370614152264057,0.10736578790479141,0.014655684192157641,0.010589460250315248,0.03849665517803478,0.0937178819270246,0.1812114236407801,2.057736882395659,2.1425092260354575,0.27772773618775876,1.057736882395659,1.1882267382832679
122,25000,6,1,0.3,100,2,uniform,1.5,1,200,10,6,TRUE,10,10,1.8591880798339843e-4,1.5317197454544345,1.5240727814083517,0.09201098653101142,0.03171974545443447,0.008625561729863085,2.069565445913978,2.0172700988024745,0.15099051660441914,1.0695654459139783,1.1644885655871895,0.10689095703585708,0.09335106033909207,0.0804578070726902,-0.1931090429641429,0.043117215321578806,100,100,1,5.2,10,10,0.021841263771057128,1.534162301184059,1.5297732971752716,0.09227588479416633,0.03416230118405915,0.008830417845281999,0.09940128973755362,0.06704172533367168,0.1285368079954553,2.0405189688944314,2.0206747036872983,0.14873219107859306,1.0405189688944312,1.1025888628258655
123,10000,7,1,0.3,100,2,uniform,1.5,1,200,10,6,TRUE,10,10,2.032041549682617e-4,1.5167960339693696,1.5228039074439894,0.11052820018612168,0.01679603396936964,0.011276941489845269,1.907736463221784,1.9043980437125612,0.16481578656991286,0.9077364632217839,0.8484333058147863,0.16862540253456196,0.1642486137280402,0.08527625649502336,-0.13137459746543803,0.02380412078883039,100,100,1,5.6,10,10,0.0188385009765625,1.5267960810275216,1.519113944483372,0.10206963437549275,0.026796081027521734,0.010094419193825605,0.01475444742867062,0.028369468361857365,0.13618834589756265,1.880189970408802,1.8733694825516656,0.17702642398521784,0.8801899704088022,0.8029389033183427
124,25000,7,1,0.3,100,2,uniform,1.5,1,200,10,6,TRUE,10,10,1.807689666748047e-4,1.5172313900871301,1.4971219235954183,0.12086834809732544,0.017231390087130084,0.013445162618933453,2.0019308957982473,1.959129908640346,0.20147788825441573,1.0019308957982473,1.0403995254649911,0.14017524340168794,0.10926753071847911,0.12417425450143128,-0.15982475659831205,0.039421273754597294,100,100,1,5.6,10,10,0.01968238353729248,1.5112967258878554,1.4991986916609152,0.12179030225037094,0.01129672588785526,0.013477205965798378,0.010514402500681667,0.042191120018082534,0.18171536910123004,1.9877992593447102,1.9577971502502924,0.2160388317445247,0.9877992593447102,1.0177528759013432
125,10000,6,1,0.9,100,2,uniform,1.5,1,200,10,6,TRUE,10,10,3.797054290771484e-4,1.5022736750741585,1.487871543997024,0.09911207355350928,0.0022736750741586542,0.008846052410011459,2.147058668515974,2.101336615063391,0.2972994205790127,1.1470586685159738,1.395291839946594,0.472690658256229,0.49824004165272917,0.0634780037039047,-0.427309341743771,0.18621978480030452,100,100,1,13.2,10,10,0.017125463485717772,1.5099846479007737,1.5138692376125704,0.09714648330996044,0.009984647900773691,0.008593388491245604,0.16297585351672306,0.14295367234709122,0.09595244885543629,2.1122386678661567,2.0817326360287813,0.2769696879087011,1.1122386678661564,1.3061158415149012
126,25000,6,1,0.9,100,2,uniform,1.5,1,200,10,6,TRUE,10,10,2.9981136322021484e-4,1.4909406929436788,1.4960746190521421,0.11414223754569301,-0.009059307056321186,0.01180767639708438,2.012777470970219,2.0872503820464567,0.18190130066279428,1.012777470970219,1.0554974805693678,0.45556357172821754,0.5126716363986922,0.10074788074703515,-0.4444364282717825,0.20665886070249617,100,100,1,12.5,10,10,0.01593012809753418,1.494476268029195,1.4581438266150455,0.14107730278348204,-0.005523731970804913,0.017943036439481336,0.1675007264012103,0.17076204503744524,0.07075638181907372,1.9808714808756456,2.0597197534511467,0.16979394811669546,0.9808714808756457,0.9880558483305317
127,10000,7,1,0.9,100,2,uniform,1.5,1,200,10,6,TRUE,10,10,2.8252601623535156e-4,1.4434996026398796,1.4577127614932053,0.08361281607895896,-0.056500397360120316,0.009484287613239927,1.949169602016112,1.92648147898442,0.2128728021881508,0.9491696020161119,0.9417062803117163,0.43784780877469237,0.43782127409324567,0.03646916954107637,-0.46215219122530765,0.21478164814866751,100,100,1,11.2,10,10,0.018120312690734865,1.4528112982511985,1.4501116501191367,0.10524676831506234,-0.04718870174880145,0.012195967589425306,0.17664098972918124,0.16016208019525513,0.16213076719842254,1.8855337472936964,1.87068362448435,0.18685190276931868,0.8855337472936964,0.8155922878076796
128,25000,7,1,0.9,100,2,uniform,1.5,1,200,10,6,TRUE,10,10,2.768278121948242e-4,1.4556419065777766,1.4703825758017215,0.08753611259481849,-0.04435809342222345,0.00886395435944617,1.9289022711606547,1.938877403695762,0.1882977074750457,0.9289022711606547,0.8947698533437447,0.41128496252522434,0.44221683386552957,0.11819142135971487,-0.4887150374747757,0.2514146787286981,100,100,1,11.7,10,10,0.020665931701660156,1.451321145960894,1.4542822447353743,0.1164964854058424,-0.04867885403910614,0.014583918831282888,0.18491915144961424,0.20558595245177796,0.11560491222377726,1.8840344988908746,1.9143799208924699,0.17589375399437127,0.8840344988908746,0.8093617466540489
129,10000,6,1,-0.3,250,2,uniform,1.5,1,200,10,6,TRUE,10,10,2.1271705627441407e-4,1.447593831702619,1.4250880052580155,0.061098287538327696,-0.052406168297381116,0.006106107141717986,2.0585745075716453,2.0718039119672964,0.10886442442882781,1.0585745075716453,1.1312463046961494,-0.19049618265234028,-0.21418223904614794,0.08731996306830947,0.10950381734765972,0.018853384368935456,200,200,1,6.3,10,10,0.03598301410675049,1.4535513893006553,1.4356292942284852,0.06914422498377334,-0.046448610699344695,0.0064603048996452785,-0.049653981793845704,-0.07263479752921562,0.09181009012773785,2.0398495512784636,2.0371924658087384,0.11216172592926787,1.0398495512784638,1.0926093167811115
130,25000,6,1,-0.3,250,2,uniform,1.5,1,200,10,6,TRUE,10,10,2.29644775390625e-4,1.5188228872389522,1.527901763349261,0.05811631869896676,0.01882288723895209,0.003394056933218192,2.0287303421340126,2.0565336984696296,0.09313426170251733,1.0287303421340126,1.0660927084597482,-0.19404740777005466,-0.19179819170798365,0.0637132932199982,0.10595259222994534,0.014879397159888796,200,200,1,6.4,10,10,0.03415229320526123,1.5293514374129165,1.5267449197565517,0.06965288089864434,0.029351437412916438,0.00522787831393701,-0.13687376722681746,-0.12876015980243016,0.15323632642485607,2.0101326357422336,2.0195728606307872,0.11055565146216513,1.0101326357422336,1.0313682386547534
131,10000,7,1,-0.3,250,2,uniform,1.5,1,200,10,6,TRUE,10,10,2.0515918731689453e-4,1.5133929645706776,1.505620791006597,0.07910633165411891,0.013392964570677526,0.005811402036985735,1.9829245171584549,1.9854928103460963,0.09600376288003153,0.982924517158455,0.9744356566695945,-0.1484358789594368,-0.1482768584286852,0.040325839501062784,0.1515641210405632,0.024435238785117414,200,200,1,5.6,10,10,0.03127872943878174,1.5088893042035445,1.5063083771817116,0.08332222289295209,0.008889304203544545,0.006327353274263666,-0.13115695811976086,-0.1098328677818055,0.13199914899880857,1.9686735606335877,1.9732379661598567,0.09652998607965868,0.9686735606335876,0.9467147014618379
132,25000,7,1,-0.3,250,2,uniform,1.5,1,200,10,6,TRUE,10,10,2.0101070404052735e-4,1.4693349671995641,1.5042913651069112,0.09048844912319975,-0.03066503280043591,0.00830968771890153,1.9891926426492237,1.9846342629130862,0.07066655279269897,0.9891926426492236,0.9829964697865976,-0.1464857479381558,-0.1529624882931594,0.05944320527667339,0.1535142520618442,0.026746770774315688,200,200,1,5.5,10,10,0.04420173168182373,1.4710121601055262,1.5151741047793499,0.1007193875018598,-0.0289878398944738,0.00997025037862246,-0.1036301110399322,-0.10007894820567885,0.1117537965337888,1.980212323554122,1.9812433335533624,0.06354086258562731,0.9802123235541219,0.9644498963436836
133,10000,6,1,0,250,2,uniform,1.5,1,200,10,6,TRUE,10,10,0.00018262863159179688,1.5328108701433676,1.5304653004528328,0.05937010891912874,0.0328108701433677,0.004248882049327228,1.9429114514970818,1.9488082101211872,0.09390065339613225,0.9429114514970817,0.897017604801732,-0.021098467811788934,-0.02786274570994067,0.048164242821415716,-0.021098467811788934,0.00253296020190936,200,200,1,4.4,10,10,0.03550145626068115,1.5455741405110848,1.5315658264521304,0.055777744037247265,0.04557414051108479,0.004877043340220306,-0.0484478901824158,-0.06068163432583733,0.07536282971196677,1.945307540286008,1.9676402942465718,0.09934391303290434,0.9453075402860079,0.9024886374726029
134,25000,6,1,0,250,2,uniform,1.5,1,200,10,6,TRUE,10,10,2.1011829376220702e-4,1.513386509680362,1.5151385370700297,0.04497055744601741,0.013386509680361973,0.0019993145747274218,1.932193376933606,1.8647221499475835,0.14939348690314413,0.9321933769336059,0.8890710645350518,0.005064356747230818,0.01874749888821177,0.06595169969809563,0.005064356747230818,0.00394031173302423,200,200,1,4.3,10,10,0.04968669414520264,1.5163147769429168,1.5309928565752067,0.04344949642113973,0.01631477694291692,0.0019652448120227044,-0.0037545567048952373,-0.04639769981785019,0.11484963717285887,1.9304979258509323,1.8785429339308093,0.1267230497198482,0.9304979258509323,0.8802792482101562
135,10000,7,1,0,250,2,uniform,1.5,1,200,10,6,TRUE,10,10,0.00019598007202148438,1.4876069315899785,1.4855890075282476,0.04280939592520031,-0.012393068410021524,0.0018029680861479747,1.9725249940955007,1.9772042718896823,0.1311343539951344,0.97252499409550075,0.9612814610584028,0.0076408543970937865,-0.0010527757858573654,0.08692953181180084,0.0076408543970937865,0.006859451806834589,200,200,1,4.5,10,10,0.03464035987854004,1.4817576872847205,1.467381291311547,0.04932577106616409,-0.018242312715279478,0.002522510495346515,0.021702074924883602,0.03335456817292478,0.10120294426116413,1.9581004146136283,1.9774143621488631,0.13073890339020086,0.9581004146136283,0.9333397992565113
136,25000,7,1,0,250,2,uniform,1.5,1,200,10,6,TRUE,10,10,2.1638870239257813e-4,1.520869404155654,1.5081251217232594,0.06437933317999611,0.02086940415565401,0.004165760716442883,1.9770348971878382,2.0070358288342294,0.15833165800090407,0.9770348971878381,0.9771592128556331,-0.005685115919099921,0.0015898543707357857,0.0979999124600262,-0.005685115919099921,0.008675905100969121,200,200,1,4.6,10,10,0.03397970199584961,1.5220657612819786,1.5048194134240567,0.06385009483183493,0.022065761281978638,0.00415604896998415,-0.0424019572084912,-0.0061545858230179,0.10075595183500863,1.9669491511290353,2.005487110409295,0.16344653100229484,0.9669491511290353,0.9590339525161778
137,10000,6,1,0.3,250,2,uniform,1.5,1,200,10,6,TRUE,10,10,1.9450187683105468e-4,1.5030892548447141,1.4748797756902228,0.06542318287305086,0.003089254844714075,0.0038617170670121794,1.9936953383163991,2.0173599226151397,0.1607213927902202,0.9936953383163991,1.0106786548821283,0.15334044949451597,0.13598958089504687,0.052398964026347125,-0.14665955050548402,0.02398011004240159,200,200,1,5.3,10,10,0.029218125343322753,1.5110907237340052,1.4931986563064616,0.06260310176853748,0.01109072373400515,0.003650237668881698,0.03736810982212423,0.03584812976035161,0.10124199076108752,1.9759321347762253,1.9883023521631382,0.1361262767884353,0.9759321347762253,0.9691208585979338
138,25000,6,1,0.3,250,2,uniform,1.5,1,200,10,6,TRUE,10,10,1.998424530029297e-4,1.4678046472505186,1.4755896028238262,0.048132929722172896,-0.03219535274948136,0.0031216417699392084,1.9255781973570338,1.9078305662319068,0.10380477867097299,0.925578197357034,0.8663928882901332,0.13993395977834172,0.14249384932634793,0.0586934125738567,-0.16006604022165827,0.02872156224384999,200,200,1,5,10,10,0.03747248649597168,1.4630849781865947,1.4693470333853664,0.05094117295059292,-0.036915021813405266,0.003698221626908185,0.05315764004055347,0.06946204590094407,0.12632441210186302,1.911711654447869,1.915925940974921,0.1104335564637871,0.911711654447869,0.8421941542099867
139,10000,7,1,0.3,250,2,uniform,1.5,1,200,10,6,TRUE,10,10,2.0787715911865234e-4,1.5392122667367973,1.5588915163280408,0.04964660131161935,0.03921226673679736,0.0037559083822531402,1.9385222267935398,1.9752432253972612,0.13751528383765887,0.9385222267935397,0.8978433781455611,0.14129426429847206,0.1430090796624463,0.08946712620656029,-0.15870573570152793,0.032391440549057765,200,200,1,5.3,10,10,0.05196554660797119,1.5466896021862588,1.5600807487946393,0.042734165937873485,0.04668960218625895,0.003823506996876252,0.03541333166435371,0.06454389697642723,0.08263580221020624,1.9314827397058556,1.9470463963456015,0.1234469230694177,0.9314827397058556,0.8813753229037027
140,25000,7,1,0.3,250,2,uniform,1.5,1,200,10,6,TRUE,10,10,1.966714859008789e-4,1.5374900980259343,1.5181926829994103,0.057974493289263934,0.03749009802593428,0.004430445134926379,1.9556684563454663,1.9828610948822027,0.11089435157513716,0.9556684563454663,0.9243699999438695,0.1460620569266587,0.16565273159252775,0.07014651730384014,-0.1539379430733413,0.028125370818523416,200,200,1,5.3,10,10,0.03520090579986572,1.5364248357489954,1.5240475220666156,0.048562064492830403,0.036424835748995445,0.003449215356366534,0.05695609956688335,0.06303725322672601,0.049239606089186254,1.9557934076160697,1.9897465638060832,0.10925090650229823,0.9557934076160698,0.924283222556755
141,10000,6,1,0.9,250,2,uniform,1.5,1,200,10,6,TRUE,10,10,0.0017513990402221679,1.4956968626194427,1.477224070870578,0.05846437657105239,-0.004303137380557278,0.0030947919863735865,1.9260143940515198,1.8900419113500293,0.14678361728679096,0.9260143940515199,0.8768935452640191,0.4253194326739558,0.4089413998187441,0.045150836285846985,-0.47468056732604424,0.22715637921255544,200,200,1,11.2,10,10,0.03475649356842041,1.4846923670374919,1.464981236379418,0.06792517315897915,-0.015307632962508077,0.0043867698607244375,0.161483979836699,0.12268624418943164,0.09076065345466541,1.8934198674823284,1.8731422011666412,0.10947962039701346,0.8934198674823285,0.808986268166188
142,25000,6,1,0.9,250,2,uniform,1.5,1,200,10,6,TRUE,10,10,3.4334659576416013e-4,1.5062793747748566,1.4975709166311444,0.06522639464476906,0.006279374774856563,0.003868464850082747,2.0414374842602063,1.971005586869618,0.1646651900134765,1.0414374842602065,1.1089951959441846,0.4540511987007447,0.45754776249319884,0.065968423205825,-0.4459488012992554,0.2027869829544793,200,200,1,12.5,10,10,0.03468761444091797,1.5036999344961404,1.48317488860357,0.07283207573258822,0.0036999344961403504,0.004787749645241447,0.12861039346026734,0.1095244568824787,0.09768149409974743,2.0301760154116084,1.9607347711455585,0.1651979400713716,1.0301760154116084,1.0858239461927803
143,10000,7,1,0.9,250,2,uniform,1.5,1,200,10,6,TRUE,10,10,4.794597625732422e-4,1.508972312939155,1.523152954883078,0.05292001502699147,0.008972312939155102,0.002600977590889433,1.9650511179037977,1.9732839248378085,0.1122694004237291,0.9650511179037976,0.9426676366117228,0.45074476747207115,0.46461011587000495,0.04392265750984953,-0.44925523252792887,0.20356654381217826,200,200,1,12.1,10,10,0.03228778839111328,1.4988489772537026,1.5026702606355586,0.037925822155912836,-0.0011510227462973033,0.0012958560409442295,0.12994865271938896,0.1261541313287486,0.13145493847221099,1.9395471484628322,1.9160850128389737,0.13657513553077902,0.9395471484628323,0.8995363350653649
144,25000,7,1,0.9,250,2,uniform,1.5,1,200,10,6,TRUE,10,10,2.9485225677490235e-4,1.5247760374916755,1.5217801442049694,0.08239356176780503,0.02477603749167539,0.006723681152495498,1.9809965537239373,1.997834154940458,0.11370612027963638,0.9809965537239375,0.9739904120283844,0.43346529592701644,0.4268183452283052,0.039580356832650106,-0.4665347040729836,0.21906457428676626,200,200,1,11.6,10,10,0.03578062057495117,1.5249130620973594,1.5151838793874783,0.07915289701096007,0.024913062097359457,0.006259323657771775,0.15286421199861083,0.11582635585721408,0.11273073025264947,1.9578029548462232,1.9674523363904268,0.1425156995546442,0.9578029548462232,0.935666152469751
145,10000,6,1,-0.3,50,2,clustered,1.5,1,200,10,6,TRUE,10,10,2.2728443145751952e-4,1.501532783252919,1.49230280879924,0.09706690702364984,0.0015327832529191288,0.008482135419724524,1.9196406941256234,1.9325983636821809,0.2895553570907541,0.9196406941256235,0.9211970806298173,-0.2375500616524022,-0.23608323483359742,0.07086880288052406,0.06244993834759779,0.008420143299165482,50,50,1,7.1,10,10,0.012036442756652832,1.5131095692919518,1.4938507584956178,0.09696516273857876,0.013109569291951768,0.008633879313447643,-0.15704493716373213,-0.1781274044019877,0.1797418821349037,1.9000419644846283,1.92302858229101,0.32697044436906564,0.9000419644846281,0.9062942421751625
146,25000,6,1,-0.3,50,2,clustered,1.5,1,200,10,6,TRUE,10,10,2.0868778228759765e-4,1.532982589103903,1.5361762219045596,0.14694115076995556,0.032982589103903025,0.020520382794635833,1.8390127662334923,1.8512936040726988,0.23748275616108153,0.8390127662334924,0.7547006754292543,-0.12238460385814376,-0.11243926403134369,0.15030136844689798,0.17761539614185623,0.05187868016793768,50,50,1,6.2,10,10,0.013196229934692383,1.5418485216201112,1.5342696776573939,0.15852966189897608,0.04184852162011129,0.024369787093412223,-0.25557937541457887,-0.1715644344301418,0.28358681133678887,1.7681131040149258,1.7555060201269046,0.20400385822797026,0.7681131040149259,0.6274535573141524
147,10000,7,1,-0.3,50,2,clustered,1.5,1,200,10,6,TRUE,10,10,2.6471614837646483e-4,1.460672730296475,1.428443305024187,0.13775080259716416,-0.03932726970352499,0.018624389396880395,1.8950426768760833,1.888821933678837,0.15213824612771196,0.8950426768760832,0.8219328347708392,-0.12080619719613687,-0.08815002430445532,0.12704235248314846,0.17919380280386313,0.04663620235531707,50,50,1,6.2,10,10,0.013856863975524903,1.4513314021206614,1.4210264241332418,0.14963277958075227,-0.04866859787933872,0.02251960427209657,-0.1492161088065544,-0.10059198023654062,0.1875367379118209,1.866381002077898,1.8793210474004685,0.16269355920872955,0.8663810020778979,0.7744383155487066
